(G-CODE GENERATED BY FLATCAM v8.991 - www.flatcam.org - Version Date: 2019/12/27)

(Name: 01_ISO)
(Type: G-code from Geometry)
(Units: MM)

(Created on Sunday, 11 September 2022 at 11:01)

(TOOL DIAMETER: 0.331 mm)
(Feedrate: 320.0 mm/min)
(Feedrate_Z: 60.0 mm/min)
(Feedrate rapids 1500.0 mm/min)

(Z_Cut: -0.2001 mm)
(Z_Move: 2.0 mm)
(Z Toolchange: 15.0 mm)
(X,Y Toolchange: 0.0000, 0.0000 mm)
(Z Start: None mm)
(Z End: 15.0 mm)
(Steps per circle: 64)
(Preprocessor Geometry: default)

(X range:    3.5081 ...  141.3989  mm)
(Y range:    3.5081 ...   65.1989  mm)

(Spindle Speed: None RPM)
G21
G90
G94




G01 F320.00
G00 Z2.0000

M03
G00 X4.1799 Y6.7553
G01 F60.00
G01 Z-0.2001
G01 F320.00
G01 X4.1799 Y6.0717
G01 X4.1237 Y6.0098
G01 X4.0949 Y5.9747
G01 X4.0437 Y5.9057
G01 X4.0185 Y5.8679
G01 X3.9743 Y5.7942
G01 X3.9529 Y5.7541
G01 X3.9162 Y5.6765
G01 X3.8988 Y5.6345
G01 X3.8698 Y5.5536
G01 X3.8566 Y5.5101
G01 X3.8358 Y5.4268
G01 X3.8269 Y5.3822
G01 X3.8143 Y5.2973
G01 X3.8098 Y5.2520
G01 X3.8056 Y5.1662
G01 X3.8056 Y5.1208
G01 X3.8098 Y5.0350
G01 X3.8143 Y4.9897
G01 X3.8269 Y4.9048
G01 X3.8358 Y4.8602
G01 X3.8566 Y4.7769
G01 X3.8698 Y4.7334
G01 X3.8988 Y4.6525
G01 X3.9162 Y4.6105
G01 X3.9529 Y4.5329
G01 X3.9743 Y4.4928
G01 X4.0185 Y4.4191
G01 X4.0437 Y4.3813
G01 X4.0949 Y4.3123
G01 X4.1237 Y4.2772
G01 X4.1814 Y4.2136
G01 X4.2136 Y4.1814
G01 X4.2772 Y4.1237
G01 X4.3123 Y4.0949
G01 X4.3813 Y4.0437
G01 X4.4191 Y4.0185
G01 X4.4928 Y3.9743
G01 X4.5329 Y3.9529
G01 X4.6105 Y3.9162
G01 X4.6525 Y3.8988
G01 X4.7334 Y3.8698
G01 X4.7769 Y3.8566
G01 X4.8602 Y3.8358
G01 X4.9048 Y3.8269
G01 X4.9897 Y3.8143
G01 X5.0350 Y3.8098
G01 X5.1208 Y3.8056
G01 X5.1662 Y3.8056
G01 X5.2520 Y3.8098
G01 X5.2973 Y3.8143
G01 X5.3822 Y3.8269
G01 X5.4268 Y3.8358
G01 X5.5101 Y3.8566
G01 X5.5536 Y3.8698
G01 X5.6345 Y3.8988
G01 X5.6765 Y3.9162
G01 X5.7541 Y3.9529
G01 X5.7942 Y3.9743
G01 X5.8679 Y4.0185
G01 X5.9057 Y4.0437
G01 X5.9747 Y4.0949
G01 X6.0098 Y4.1237
G01 X6.0734 Y4.1814
G01 X6.1056 Y4.2136
G01 X6.1633 Y4.2772
G01 X6.1921 Y4.3123
G01 X6.2433 Y4.3813
G01 X6.2685 Y4.4191
G01 X6.3127 Y4.4928
G01 X6.3341 Y4.5329
G01 X6.3708 Y4.6105
G01 X6.3882 Y4.6525
G01 X6.4135 Y4.7231
G01 X6.4388 Y4.6525
G01 X6.4562 Y4.6105
G01 X6.4929 Y4.5329
G01 X6.5143 Y4.4928
G01 X6.5585 Y4.4191
G01 X6.5837 Y4.3813
G01 X6.6349 Y4.3123
G01 X6.6637 Y4.2772
G01 X6.7214 Y4.2136
G01 X6.7536 Y4.1814
G01 X6.8172 Y4.1237
G01 X6.8523 Y4.0949
G01 X6.9213 Y4.0437
G01 X6.9591 Y4.0185
G01 X7.0328 Y3.9743
G01 X7.0729 Y3.9529
G01 X7.1505 Y3.9162
G01 X7.1925 Y3.8988
G01 X7.2734 Y3.8698
G01 X7.3169 Y3.8566
G01 X7.4002 Y3.8358
G01 X7.4448 Y3.8269
G01 X7.5297 Y3.8143
G01 X7.5750 Y3.8098
G01 X7.6608 Y3.8056
G01 X7.7062 Y3.8056
G01 X7.7920 Y3.8098
G01 X7.8373 Y3.8143
G01 X7.9222 Y3.8269
G01 X7.9668 Y3.8358
G01 X8.0501 Y3.8566
G01 X8.0936 Y3.8698
G01 X8.1745 Y3.8988
G01 X8.2165 Y3.9162
G01 X8.2941 Y3.9529
G01 X8.3342 Y3.9743
G01 X8.4079 Y4.0185
G01 X8.4457 Y4.0437
G01 X8.5147 Y4.0949
G01 X8.5498 Y4.1237
G01 X8.6134 Y4.1814
G01 X8.6456 Y4.2136
G01 X8.7033 Y4.2772
G01 X8.7321 Y4.3123
G01 X8.7833 Y4.3813
G01 X8.8085 Y4.4191
G01 X8.8527 Y4.4928
G01 X8.8741 Y4.5329
G01 X8.9108 Y4.6105
G01 X8.9282 Y4.6525
G01 X8.9535 Y4.7231
G01 X8.9788 Y4.6525
G01 X8.9962 Y4.6105
G01 X9.0329 Y4.5329
G01 X9.0543 Y4.4928
G01 X9.0985 Y4.4191
G01 X9.1237 Y4.3813
G01 X9.1749 Y4.3123
G01 X9.2037 Y4.2772
G01 X9.2614 Y4.2136
G01 X9.2936 Y4.1814
G01 X9.3572 Y4.1237
G01 X9.3923 Y4.0949
G01 X9.4613 Y4.0437
G01 X9.4991 Y4.0185
G01 X9.5728 Y3.9743
G01 X9.6129 Y3.9529
G01 X9.6905 Y3.9162
G01 X9.7325 Y3.8988
G01 X9.8134 Y3.8698
G01 X9.8569 Y3.8566
G01 X9.9402 Y3.8358
G01 X9.9848 Y3.8269
G01 X10.0697 Y3.8143
G01 X10.1150 Y3.8098
G01 X10.2008 Y3.8056
G01 X10.2462 Y3.8056
G01 X10.3320 Y3.8098
G01 X10.3773 Y3.8143
G01 X10.4622 Y3.8269
G01 X10.5068 Y3.8358
G01 X10.5901 Y3.8566
G01 X10.6336 Y3.8698
G01 X10.7145 Y3.8988
G01 X10.7565 Y3.9162
G01 X10.8341 Y3.9529
G01 X10.8742 Y3.9743
G01 X10.9479 Y4.0185
G01 X10.9857 Y4.0437
G01 X11.0547 Y4.0949
G01 X11.0898 Y4.1237
G01 X11.1534 Y4.1814
G01 X11.1856 Y4.2136
G01 X11.2433 Y4.2772
G01 X11.2721 Y4.3123
G01 X11.3233 Y4.3813
G01 X11.3485 Y4.4191
G01 X11.3927 Y4.4928
G01 X11.4141 Y4.5329
G01 X11.4508 Y4.6105
G01 X11.4682 Y4.6525
G01 X11.4935 Y4.7231
G01 X11.5188 Y4.6525
G01 X11.5362 Y4.6105
G01 X11.5729 Y4.5329
G01 X11.5943 Y4.4928
G01 X11.6385 Y4.4191
G01 X11.6637 Y4.3813
G01 X11.7149 Y4.3123
G01 X11.7437 Y4.2772
G01 X11.8014 Y4.2136
G01 X11.8336 Y4.1814
G01 X11.8972 Y4.1237
G01 X11.9323 Y4.0949
G01 X12.0013 Y4.0437
G01 X12.0391 Y4.0185
G01 X12.1128 Y3.9743
G01 X12.1529 Y3.9529
G01 X12.2305 Y3.9162
G01 X12.2725 Y3.8988
G01 X12.3534 Y3.8698
G01 X12.3969 Y3.8566
G01 X12.4802 Y3.8358
G01 X12.5248 Y3.8269
G01 X12.6097 Y3.8143
G01 X12.6550 Y3.8098
G01 X12.7408 Y3.8056
G01 X12.7862 Y3.8056
G01 X12.8720 Y3.8098
G01 X12.9173 Y3.8143
G01 X13.0022 Y3.8269
G01 X13.0468 Y3.8358
G01 X13.1301 Y3.8566
G01 X13.1736 Y3.8698
G01 X13.2545 Y3.8988
G01 X13.2965 Y3.9162
G01 X13.3741 Y3.9529
G01 X13.4142 Y3.9743
G01 X13.4879 Y4.0185
G01 X13.5257 Y4.0437
G01 X13.5947 Y4.0949
G01 X13.6298 Y4.1237
G01 X13.6934 Y4.1814
G01 X13.7256 Y4.2136
G01 X13.7833 Y4.2772
G01 X13.8121 Y4.3123
G01 X13.8633 Y4.3813
G01 X13.8885 Y4.4191
G01 X13.9327 Y4.4928
G01 X13.9541 Y4.5329
G01 X13.9908 Y4.6105
G01 X14.0082 Y4.6525
G01 X14.0335 Y4.7231
G01 X14.0588 Y4.6525
G01 X14.0762 Y4.6105
G01 X14.1129 Y4.5329
G01 X14.1343 Y4.4928
G01 X14.1785 Y4.4191
G01 X14.2037 Y4.3813
G01 X14.2549 Y4.3123
G01 X14.2837 Y4.2772
G01 X14.3414 Y4.2136
G01 X14.3736 Y4.1814
G01 X14.4372 Y4.1237
G01 X14.4723 Y4.0949
G01 X14.5413 Y4.0437
G01 X14.5791 Y4.0185
G01 X14.6528 Y3.9743
G01 X14.6929 Y3.9529
G01 X14.7705 Y3.9162
G01 X14.8125 Y3.8988
G01 X14.8934 Y3.8698
G01 X14.9369 Y3.8566
G01 X15.0202 Y3.8358
G01 X15.0648 Y3.8269
G01 X15.1497 Y3.8143
G01 X15.1950 Y3.8098
G01 X15.2808 Y3.8056
G01 X15.3262 Y3.8056
G01 X15.4120 Y3.8098
G01 X15.4573 Y3.8143
G01 X15.5422 Y3.8269
G01 X15.5868 Y3.8358
G01 X15.6701 Y3.8566
G01 X15.7136 Y3.8698
G01 X15.7945 Y3.8988
G01 X15.8365 Y3.9162
G01 X15.9141 Y3.9529
G01 X15.9542 Y3.9743
G01 X16.0279 Y4.0185
G01 X16.0657 Y4.0437
G01 X16.1347 Y4.0949
G01 X16.1698 Y4.1237
G01 X16.2334 Y4.1814
G01 X16.2656 Y4.2136
G01 X16.3233 Y4.2772
G01 X16.3521 Y4.3123
G01 X16.4033 Y4.3813
G01 X16.4285 Y4.4191
G01 X16.4727 Y4.4928
G01 X16.4941 Y4.5329
G01 X16.5308 Y4.6105
G01 X16.5482 Y4.6525
G01 X16.5735 Y4.7231
G01 X16.5988 Y4.6525
G01 X16.6162 Y4.6105
G01 X16.6529 Y4.5329
G01 X16.6743 Y4.4928
G01 X16.7185 Y4.4191
G01 X16.7437 Y4.3813
G01 X16.7949 Y4.3123
G01 X16.8237 Y4.2772
G01 X16.8814 Y4.2136
G01 X16.9136 Y4.1814
G01 X16.9772 Y4.1237
G01 X17.0123 Y4.0949
G01 X17.0813 Y4.0437
G01 X17.1191 Y4.0185
G01 X17.1928 Y3.9743
G01 X17.2329 Y3.9529
G01 X17.3105 Y3.9162
G01 X17.3525 Y3.8988
G01 X17.4334 Y3.8698
G01 X17.4769 Y3.8566
G01 X17.5602 Y3.8358
G01 X17.6048 Y3.8269
G01 X17.6897 Y3.8143
G01 X17.7350 Y3.8098
G01 X17.8208 Y3.8056
G01 X17.8662 Y3.8056
G01 X17.9520 Y3.8098
G01 X17.9973 Y3.8143
G01 X18.0822 Y3.8269
G01 X18.1268 Y3.8358
G01 X18.2101 Y3.8566
G01 X18.2536 Y3.8698
G01 X18.3345 Y3.8988
G01 X18.3765 Y3.9162
G01 X18.4541 Y3.9529
G01 X18.4942 Y3.9743
G01 X18.5679 Y4.0185
G01 X18.6057 Y4.0437
G01 X18.6747 Y4.0949
G01 X18.7098 Y4.1237
G01 X18.7734 Y4.1814
G01 X18.8056 Y4.2136
G01 X18.8633 Y4.2772
G01 X18.8921 Y4.3123
G01 X18.9433 Y4.3813
G01 X18.9685 Y4.4191
G01 X19.0127 Y4.4928
G01 X19.0341 Y4.5329
G01 X19.0708 Y4.6105
G01 X19.0882 Y4.6525
G01 X19.1135 Y4.7231
G01 X19.1388 Y4.6525
G01 X19.1562 Y4.6105
G01 X19.1929 Y4.5329
G01 X19.2143 Y4.4928
G01 X19.2585 Y4.4191
G01 X19.2837 Y4.3813
G01 X19.3349 Y4.3123
G01 X19.3637 Y4.2772
G01 X19.4214 Y4.2136
G01 X19.4536 Y4.1814
G01 X19.5172 Y4.1237
G01 X19.5523 Y4.0949
G01 X19.6213 Y4.0437
G01 X19.6591 Y4.0185
G01 X19.7328 Y3.9743
G01 X19.7729 Y3.9529
G01 X19.8505 Y3.9162
G01 X19.8925 Y3.8988
G01 X19.9734 Y3.8698
G01 X20.0169 Y3.8566
G01 X20.1002 Y3.8358
G01 X20.1448 Y3.8269
G01 X20.2297 Y3.8143
G01 X20.2750 Y3.8098
G01 X20.3608 Y3.8056
G01 X20.4062 Y3.8056
G01 X20.4920 Y3.8098
G01 X20.5373 Y3.8143
G01 X20.6222 Y3.8269
G01 X20.6668 Y3.8358
G01 X20.7501 Y3.8566
G01 X20.7936 Y3.8698
G01 X20.8745 Y3.8988
G01 X20.9165 Y3.9162
G01 X20.9941 Y3.9529
G01 X21.0342 Y3.9743
G01 X21.1079 Y4.0185
G01 X21.1457 Y4.0437
G01 X21.2147 Y4.0949
G01 X21.2498 Y4.1237
G01 X21.3134 Y4.1814
G01 X21.3456 Y4.2136
G01 X21.4033 Y4.2772
G01 X21.4321 Y4.3123
G01 X21.4833 Y4.3813
G01 X21.5085 Y4.4191
G01 X21.5527 Y4.4928
G01 X21.5741 Y4.5329
G01 X21.6108 Y4.6105
G01 X21.6282 Y4.6525
G01 X21.6535 Y4.7231
G01 X21.6788 Y4.6525
G01 X21.6962 Y4.6105
G01 X21.7329 Y4.5329
G01 X21.7543 Y4.4928
G01 X21.7985 Y4.4191
G01 X21.8237 Y4.3813
G01 X21.8749 Y4.3123
G01 X21.9037 Y4.2772
G01 X21.9614 Y4.2136
G01 X21.9936 Y4.1814
G01 X22.0572 Y4.1237
G01 X22.0923 Y4.0949
G01 X22.1613 Y4.0437
G01 X22.1991 Y4.0185
G01 X22.2728 Y3.9743
G01 X22.3129 Y3.9529
G01 X22.3905 Y3.9162
G01 X22.4325 Y3.8988
G01 X22.5134 Y3.8698
G01 X22.5569 Y3.8566
G01 X22.6402 Y3.8358
G01 X22.6848 Y3.8269
G01 X22.7697 Y3.8143
G01 X22.8150 Y3.8098
G01 X22.9008 Y3.8056
G01 X22.9462 Y3.8056
G01 X23.0320 Y3.8098
G01 X23.0773 Y3.8143
G01 X23.1622 Y3.8269
G01 X23.2068 Y3.8358
G01 X23.2901 Y3.8566
G01 X23.3336 Y3.8698
G01 X23.4145 Y3.8988
G01 X23.4565 Y3.9162
G01 X23.5341 Y3.9529
G01 X23.5742 Y3.9743
G01 X23.6479 Y4.0185
G01 X23.6857 Y4.0437
G01 X23.7547 Y4.0949
G01 X23.7898 Y4.1237
G01 X23.8534 Y4.1814
G01 X23.8856 Y4.2136
G01 X23.9433 Y4.2772
G01 X23.9721 Y4.3123
G01 X24.0233 Y4.3813
G01 X24.0485 Y4.4191
G01 X24.0927 Y4.4928
G01 X24.1141 Y4.5329
G01 X24.1508 Y4.6105
G01 X24.1682 Y4.6525
G01 X24.1935 Y4.7231
G01 X24.2188 Y4.6525
G01 X24.2362 Y4.6105
G01 X24.2729 Y4.5329
G01 X24.2943 Y4.4928
G01 X24.3385 Y4.4191
G01 X24.3637 Y4.3813
G01 X24.4149 Y4.3123
G01 X24.4437 Y4.2772
G01 X24.5014 Y4.2136
G01 X24.5336 Y4.1814
G01 X24.5972 Y4.1237
G01 X24.6323 Y4.0949
G01 X24.7013 Y4.0437
G01 X24.7391 Y4.0185
G01 X24.8128 Y3.9743
G01 X24.8529 Y3.9529
G01 X24.9305 Y3.9162
G01 X24.9725 Y3.8988
G01 X25.0534 Y3.8698
G01 X25.0969 Y3.8566
G01 X25.1802 Y3.8358
G01 X25.2248 Y3.8269
G01 X25.3097 Y3.8143
G01 X25.3550 Y3.8098
G01 X25.4408 Y3.8056
G01 X25.4862 Y3.8056
G01 X25.5720 Y3.8098
G01 X25.6173 Y3.8143
G01 X25.7022 Y3.8269
G01 X25.7468 Y3.8358
G01 X25.8301 Y3.8566
G01 X25.8736 Y3.8698
G01 X25.9545 Y3.8988
G01 X25.9965 Y3.9162
G01 X26.0741 Y3.9529
G01 X26.1142 Y3.9743
G01 X26.1879 Y4.0185
G01 X26.2257 Y4.0437
G01 X26.2947 Y4.0949
G01 X26.3298 Y4.1237
G01 X26.3934 Y4.1814
G01 X26.4256 Y4.2136
G01 X26.4833 Y4.2772
G01 X26.5121 Y4.3123
G01 X26.5633 Y4.3813
G01 X26.5885 Y4.4191
G01 X26.6327 Y4.4928
G01 X26.6541 Y4.5329
G01 X26.6908 Y4.6105
G01 X26.7082 Y4.6525
G01 X26.7335 Y4.7231
G01 X26.7588 Y4.6525
G01 X26.7762 Y4.6105
G01 X26.8129 Y4.5329
G01 X26.8343 Y4.4928
G01 X26.8785 Y4.4191
G01 X26.9037 Y4.3813
G01 X26.9549 Y4.3123
G01 X26.9837 Y4.2772
G01 X27.0414 Y4.2136
G01 X27.0736 Y4.1814
G01 X27.1372 Y4.1237
G01 X27.1723 Y4.0949
G01 X27.2413 Y4.0437
G01 X27.2791 Y4.0185
G01 X27.3528 Y3.9743
G01 X27.3929 Y3.9529
G01 X27.4705 Y3.9162
G01 X27.5125 Y3.8988
G01 X27.5934 Y3.8698
G01 X27.6369 Y3.8566
G01 X27.7202 Y3.8358
G01 X27.7648 Y3.8269
G01 X27.8497 Y3.8143
G01 X27.8950 Y3.8098
G01 X27.9808 Y3.8056
G01 X28.0262 Y3.8056
G01 X28.1120 Y3.8098
G01 X28.1573 Y3.8143
G01 X28.2422 Y3.8269
G01 X28.2868 Y3.8358
G01 X28.3701 Y3.8566
G01 X28.4136 Y3.8698
G01 X28.4945 Y3.8988
G01 X28.5365 Y3.9162
G01 X28.6141 Y3.9529
G01 X28.6542 Y3.9743
G01 X28.7279 Y4.0185
G01 X28.7657 Y4.0437
G01 X28.8347 Y4.0949
G01 X28.8698 Y4.1237
G01 X28.9334 Y4.1814
G01 X28.9656 Y4.2136
G01 X29.0233 Y4.2772
G01 X29.0521 Y4.3123
G01 X29.1033 Y4.3813
G01 X29.1285 Y4.4191
G01 X29.1727 Y4.4928
G01 X29.1941 Y4.5329
G01 X29.2308 Y4.6105
G01 X29.2482 Y4.6525
G01 X29.2735 Y4.7231
G01 X29.2988 Y4.6525
G01 X29.3162 Y4.6105
G01 X29.3529 Y4.5329
G01 X29.3743 Y4.4928
G01 X29.4185 Y4.4191
G01 X29.4437 Y4.3813
G01 X29.4949 Y4.3123
G01 X29.5237 Y4.2772
G01 X29.5814 Y4.2136
G01 X29.6136 Y4.1814
G01 X29.6772 Y4.1237
G01 X29.7123 Y4.0949
G01 X29.7813 Y4.0437
G01 X29.8191 Y4.0185
G01 X29.8928 Y3.9743
G01 X29.9329 Y3.9529
G01 X30.0105 Y3.9162
G01 X30.0525 Y3.8988
G01 X30.1334 Y3.8698
G01 X30.1769 Y3.8566
G01 X30.2602 Y3.8358
G01 X30.3048 Y3.8269
G01 X30.3897 Y3.8143
G01 X30.4350 Y3.8098
G01 X30.5208 Y3.8056
G01 X30.5662 Y3.8056
G01 X30.6520 Y3.8098
G01 X30.6973 Y3.8143
G01 X30.7822 Y3.8269
G01 X30.8268 Y3.8358
G01 X30.9101 Y3.8566
G01 X30.9536 Y3.8698
G01 X31.0345 Y3.8988
G01 X31.0765 Y3.9162
G01 X31.1541 Y3.9529
G01 X31.1942 Y3.9743
G01 X31.2679 Y4.0185
G01 X31.3057 Y4.0437
G01 X31.3747 Y4.0949
G01 X31.4098 Y4.1237
G01 X31.4734 Y4.1814
G01 X31.5056 Y4.2136
G01 X31.5633 Y4.2772
G01 X31.5921 Y4.3123
G01 X31.6433 Y4.3813
G01 X31.6685 Y4.4191
G01 X31.7127 Y4.4928
G01 X31.7341 Y4.5329
G01 X31.7708 Y4.6105
G01 X31.7882 Y4.6525
G01 X31.8135 Y4.7231
G01 X31.8388 Y4.6525
G01 X31.8562 Y4.6105
G01 X31.8929 Y4.5329
G01 X31.9143 Y4.4928
G01 X31.9585 Y4.4191
G01 X31.9837 Y4.3813
G01 X32.0349 Y4.3123
G01 X32.0637 Y4.2772
G01 X32.1214 Y4.2136
G01 X32.1536 Y4.1814
G01 X32.2172 Y4.1237
G01 X32.2523 Y4.0949
G01 X32.3213 Y4.0437
G01 X32.3591 Y4.0185
G01 X32.4328 Y3.9743
G01 X32.4729 Y3.9529
G01 X32.5505 Y3.9162
G01 X32.5925 Y3.8988
G01 X32.6734 Y3.8698
G01 X32.7169 Y3.8566
G01 X32.8002 Y3.8358
G01 X32.8448 Y3.8269
G01 X32.9297 Y3.8143
G01 X32.9750 Y3.8098
G01 X33.0608 Y3.8056
G01 X33.1062 Y3.8056
G01 X33.1920 Y3.8098
G01 X33.2373 Y3.8143
G01 X33.3222 Y3.8269
G01 X33.3668 Y3.8358
G01 X33.4501 Y3.8566
G01 X33.4936 Y3.8698
G01 X33.5745 Y3.8988
G01 X33.6165 Y3.9162
G01 X33.6941 Y3.9529
G01 X33.7342 Y3.9743
G01 X33.8079 Y4.0185
G01 X33.8457 Y4.0437
G01 X33.9147 Y4.0949
G01 X33.9498 Y4.1237
G01 X34.0134 Y4.1814
G01 X34.0456 Y4.2136
G01 X34.1033 Y4.2772
G01 X34.1321 Y4.3123
G01 X34.1833 Y4.3813
G01 X34.2085 Y4.4191
G01 X34.2527 Y4.4928
G01 X34.2741 Y4.5329
G01 X34.3108 Y4.6105
G01 X34.3282 Y4.6525
G01 X34.3535 Y4.7231
G01 X34.3788 Y4.6525
G01 X34.3962 Y4.6105
G01 X34.4329 Y4.5329
G01 X34.4543 Y4.4928
G01 X34.4985 Y4.4191
G01 X34.5237 Y4.3813
G01 X34.5749 Y4.3123
G01 X34.6037 Y4.2772
G01 X34.6614 Y4.2136
G01 X34.6936 Y4.1814
G01 X34.7572 Y4.1237
G01 X34.7923 Y4.0949
G01 X34.8613 Y4.0437
G01 X34.8991 Y4.0185
G01 X34.9728 Y3.9743
G01 X35.0129 Y3.9529
G01 X35.0905 Y3.9162
G01 X35.1325 Y3.8988
G01 X35.2134 Y3.8698
G01 X35.2569 Y3.8566
G01 X35.3402 Y3.8358
G01 X35.3848 Y3.8269
G01 X35.4697 Y3.8143
G01 X35.5150 Y3.8098
G01 X35.6008 Y3.8056
G01 X35.6462 Y3.8056
G01 X35.7320 Y3.8098
G01 X35.7773 Y3.8143
G01 X35.8622 Y3.8269
G01 X35.9068 Y3.8358
G01 X35.9901 Y3.8566
G01 X36.0336 Y3.8698
G01 X36.1145 Y3.8988
G01 X36.1565 Y3.9162
G01 X36.2341 Y3.9529
G01 X36.2742 Y3.9743
G01 X36.3479 Y4.0185
G01 X36.3857 Y4.0437
G01 X36.4547 Y4.0949
G01 X36.4898 Y4.1237
G01 X36.5534 Y4.1814
G01 X36.5856 Y4.2136
G01 X36.6433 Y4.2772
G01 X36.6721 Y4.3123
G01 X36.7233 Y4.3813
G01 X36.7485 Y4.4191
G01 X36.7927 Y4.4928
G01 X36.8141 Y4.5329
G01 X36.8508 Y4.6105
G01 X36.8682 Y4.6525
G01 X36.8935 Y4.7231
G01 X36.9188 Y4.6525
G01 X36.9362 Y4.6105
G01 X36.9729 Y4.5329
G01 X36.9943 Y4.4928
G01 X37.0385 Y4.4191
G01 X37.0637 Y4.3813
G01 X37.1149 Y4.3123
G01 X37.1437 Y4.2772
G01 X37.2014 Y4.2136
G01 X37.2336 Y4.1814
G01 X37.2972 Y4.1237
G01 X37.3323 Y4.0949
G01 X37.4013 Y4.0437
G01 X37.4391 Y4.0185
G01 X37.5128 Y3.9743
G01 X37.5529 Y3.9529
G01 X37.6305 Y3.9162
G01 X37.6725 Y3.8988
G01 X37.7534 Y3.8698
G01 X37.7969 Y3.8566
G01 X37.8802 Y3.8358
G01 X37.9248 Y3.8269
G01 X38.0097 Y3.8143
G01 X38.0550 Y3.8098
G01 X38.1408 Y3.8056
G01 X38.1862 Y3.8056
G01 X38.2720 Y3.8098
G01 X38.3173 Y3.8143
G01 X38.4022 Y3.8269
G01 X38.4468 Y3.8358
G01 X38.5301 Y3.8566
G01 X38.5736 Y3.8698
G01 X38.6545 Y3.8988
G01 X38.6965 Y3.9162
G01 X38.7741 Y3.9529
G01 X38.8142 Y3.9743
G01 X38.8879 Y4.0185
G01 X38.9257 Y4.0437
G01 X38.9947 Y4.0949
G01 X39.0298 Y4.1237
G01 X39.0934 Y4.1814
G01 X39.1256 Y4.2136
G01 X39.1833 Y4.2772
G01 X39.2121 Y4.3123
G01 X39.2633 Y4.3813
G01 X39.2885 Y4.4191
G01 X39.3327 Y4.4928
G01 X39.3541 Y4.5329
G01 X39.3908 Y4.6105
G01 X39.4082 Y4.6525
G01 X39.4335 Y4.7231
G01 X39.4588 Y4.6525
G01 X39.4762 Y4.6105
G01 X39.5129 Y4.5329
G01 X39.5343 Y4.4928
G01 X39.5785 Y4.4191
G01 X39.6037 Y4.3813
G01 X39.6549 Y4.3123
G01 X39.6837 Y4.2772
G01 X39.7414 Y4.2136
G01 X39.7736 Y4.1814
G01 X39.8372 Y4.1237
G01 X39.8723 Y4.0949
G01 X39.9413 Y4.0437
G01 X39.9791 Y4.0185
G01 X40.0528 Y3.9743
G01 X40.0929 Y3.9529
G01 X40.1705 Y3.9162
G01 X40.2125 Y3.8988
G01 X40.2934 Y3.8698
G01 X40.3369 Y3.8566
G01 X40.4202 Y3.8358
G01 X40.4648 Y3.8269
G01 X40.5497 Y3.8143
G01 X40.5950 Y3.8098
G01 X40.6808 Y3.8056
G01 X40.7262 Y3.8056
G01 X40.8120 Y3.8098
G01 X40.8573 Y3.8143
G01 X40.9422 Y3.8269
G01 X40.9868 Y3.8358
G01 X41.0701 Y3.8566
G01 X41.1136 Y3.8698
G01 X41.1945 Y3.8988
G01 X41.2365 Y3.9162
G01 X41.3141 Y3.9529
G01 X41.3542 Y3.9743
G01 X41.4279 Y4.0185
G01 X41.4657 Y4.0437
G01 X41.5347 Y4.0949
G01 X41.5698 Y4.1237
G01 X41.6334 Y4.1814
G01 X41.6656 Y4.2136
G01 X41.7233 Y4.2772
G01 X41.7521 Y4.3123
G01 X41.8033 Y4.3813
G01 X41.8285 Y4.4191
G01 X41.8727 Y4.4928
G01 X41.8941 Y4.5329
G01 X41.9308 Y4.6105
G01 X41.9482 Y4.6525
G01 X41.9735 Y4.7231
G01 X41.9988 Y4.6525
G01 X42.0162 Y4.6105
G01 X42.0529 Y4.5329
G01 X42.0743 Y4.4928
G01 X42.1185 Y4.4191
G01 X42.1437 Y4.3813
G01 X42.1949 Y4.3123
G01 X42.2237 Y4.2772
G01 X42.2814 Y4.2136
G01 X42.3136 Y4.1814
G01 X42.3772 Y4.1237
G01 X42.4123 Y4.0949
G01 X42.4813 Y4.0437
G01 X42.5191 Y4.0185
G01 X42.5928 Y3.9743
G01 X42.6329 Y3.9529
G01 X42.7105 Y3.9162
G01 X42.7525 Y3.8988
G01 X42.8334 Y3.8698
G01 X42.8769 Y3.8566
G01 X42.9602 Y3.8358
G01 X43.0048 Y3.8269
G01 X43.0897 Y3.8143
G01 X43.1350 Y3.8098
G01 X43.2208 Y3.8056
G01 X43.2662 Y3.8056
G01 X43.3520 Y3.8098
G01 X43.3973 Y3.8143
G01 X43.4822 Y3.8269
G01 X43.5268 Y3.8358
G01 X43.6101 Y3.8566
G01 X43.6536 Y3.8698
G01 X43.7345 Y3.8988
G01 X43.7765 Y3.9162
G01 X43.8541 Y3.9529
G01 X43.8942 Y3.9743
G01 X43.9679 Y4.0185
G01 X44.0057 Y4.0437
G01 X44.0747 Y4.0949
G01 X44.1098 Y4.1237
G01 X44.1734 Y4.1814
G01 X44.2056 Y4.2136
G01 X44.2633 Y4.2772
G01 X44.2921 Y4.3123
G01 X44.3433 Y4.3813
G01 X44.3685 Y4.4191
G01 X44.4127 Y4.4928
G01 X44.4341 Y4.5329
G01 X44.4708 Y4.6105
G01 X44.4882 Y4.6525
G01 X44.5135 Y4.7231
G01 X44.5388 Y4.6525
G01 X44.5562 Y4.6105
G01 X44.5929 Y4.5329
G01 X44.6143 Y4.4928
G01 X44.6585 Y4.4191
G01 X44.6837 Y4.3813
G01 X44.7349 Y4.3123
G01 X44.7637 Y4.2772
G01 X44.8214 Y4.2136
G01 X44.8536 Y4.1814
G01 X44.9172 Y4.1237
G01 X44.9523 Y4.0949
G01 X45.0213 Y4.0437
G01 X45.0591 Y4.0185
G01 X45.1328 Y3.9743
G01 X45.1729 Y3.9529
G01 X45.2505 Y3.9162
G01 X45.2925 Y3.8988
G01 X45.3734 Y3.8698
G01 X45.4169 Y3.8566
G01 X45.5002 Y3.8358
G01 X45.5448 Y3.8269
G01 X45.6297 Y3.8143
G01 X45.6750 Y3.8098
G01 X45.7608 Y3.8056
G01 X45.8062 Y3.8056
G01 X45.8920 Y3.8098
G01 X45.9373 Y3.8143
G01 X46.0222 Y3.8269
G01 X46.0668 Y3.8358
G01 X46.1501 Y3.8566
G01 X46.1936 Y3.8698
G01 X46.2745 Y3.8988
G01 X46.3165 Y3.9162
G01 X46.3941 Y3.9529
G01 X46.4342 Y3.9743
G01 X46.5079 Y4.0185
G01 X46.5457 Y4.0437
G01 X46.6147 Y4.0949
G01 X46.6498 Y4.1237
G01 X46.7134 Y4.1814
G01 X46.7456 Y4.2136
G01 X46.8033 Y4.2772
G01 X46.8321 Y4.3123
G01 X46.8833 Y4.3813
G01 X46.9085 Y4.4191
G01 X46.9527 Y4.4928
G01 X46.9741 Y4.5329
G01 X47.0108 Y4.6105
G01 X47.0282 Y4.6525
G01 X47.0535 Y4.7231
G01 X47.0788 Y4.6525
G01 X47.0962 Y4.6105
G01 X47.1329 Y4.5329
G01 X47.1543 Y4.4928
G01 X47.1985 Y4.4191
G01 X47.2237 Y4.3813
G01 X47.2749 Y4.3123
G01 X47.3037 Y4.2772
G01 X47.3614 Y4.2136
G01 X47.3936 Y4.1814
G01 X47.4572 Y4.1237
G01 X47.4923 Y4.0949
G01 X47.5613 Y4.0437
G01 X47.5991 Y4.0185
G01 X47.6728 Y3.9743
G01 X47.7129 Y3.9529
G01 X47.7905 Y3.9162
G01 X47.8325 Y3.8988
G01 X47.9134 Y3.8698
G01 X47.9569 Y3.8566
G01 X48.0402 Y3.8358
G01 X48.0848 Y3.8269
G01 X48.1697 Y3.8143
G01 X48.2150 Y3.8098
G01 X48.3008 Y3.8056
G01 X48.3462 Y3.8056
G01 X48.4320 Y3.8098
G01 X48.4773 Y3.8143
G01 X48.5622 Y3.8269
G01 X48.6068 Y3.8358
G01 X48.6901 Y3.8566
G01 X48.7336 Y3.8698
G01 X48.8145 Y3.8988
G01 X48.8565 Y3.9162
G01 X48.9341 Y3.9529
G01 X48.9742 Y3.9743
G01 X49.0479 Y4.0185
G01 X49.0857 Y4.0437
G01 X49.1547 Y4.0949
G01 X49.1898 Y4.1237
G01 X49.2534 Y4.1814
G01 X49.2856 Y4.2136
G01 X49.3433 Y4.2772
G01 X49.3721 Y4.3123
G01 X49.4233 Y4.3813
G01 X49.4485 Y4.4191
G01 X49.4927 Y4.4928
G01 X49.5141 Y4.5329
G01 X49.5508 Y4.6105
G01 X49.5682 Y4.6525
G01 X49.5935 Y4.7231
G01 X49.6188 Y4.6525
G01 X49.6362 Y4.6105
G01 X49.6729 Y4.5329
G01 X49.6943 Y4.4928
G01 X49.7385 Y4.4191
G01 X49.7637 Y4.3813
G01 X49.8149 Y4.3123
G01 X49.8437 Y4.2772
G01 X49.9014 Y4.2136
G01 X49.9336 Y4.1814
G01 X49.9972 Y4.1237
G01 X50.0323 Y4.0949
G01 X50.1013 Y4.0437
G01 X50.1391 Y4.0185
G01 X50.2128 Y3.9743
G01 X50.2529 Y3.9529
G01 X50.3305 Y3.9162
G01 X50.3725 Y3.8988
G01 X50.4534 Y3.8698
G01 X50.4969 Y3.8566
G01 X50.5802 Y3.8358
G01 X50.6248 Y3.8269
G01 X50.7097 Y3.8143
G01 X50.7550 Y3.8098
G01 X50.8408 Y3.8056
G01 X50.8862 Y3.8056
G01 X50.9720 Y3.8098
G01 X51.0173 Y3.8143
G01 X51.1022 Y3.8269
G01 X51.1468 Y3.8358
G01 X51.2301 Y3.8566
G01 X51.2736 Y3.8698
G01 X51.3545 Y3.8988
G01 X51.3965 Y3.9162
G01 X51.4741 Y3.9529
G01 X51.5142 Y3.9743
G01 X51.5879 Y4.0185
G01 X51.6257 Y4.0437
G01 X51.6947 Y4.0949
G01 X51.7298 Y4.1237
G01 X51.7934 Y4.1814
G01 X51.8256 Y4.2136
G01 X51.8833 Y4.2772
G01 X51.9121 Y4.3123
G01 X51.9633 Y4.3813
G01 X51.9885 Y4.4191
G01 X52.0327 Y4.4928
G01 X52.0541 Y4.5329
G01 X52.0908 Y4.6105
G01 X52.1082 Y4.6525
G01 X52.1335 Y4.7231
G01 X52.1588 Y4.6525
G01 X52.1762 Y4.6105
G01 X52.2129 Y4.5329
G01 X52.2343 Y4.4928
G01 X52.2785 Y4.4191
G01 X52.3037 Y4.3813
G01 X52.3549 Y4.3123
G01 X52.3837 Y4.2772
G01 X52.4414 Y4.2136
G01 X52.4736 Y4.1814
G01 X52.5372 Y4.1237
G01 X52.5723 Y4.0949
G01 X52.6413 Y4.0437
G01 X52.6791 Y4.0185
G01 X52.7528 Y3.9743
G01 X52.7929 Y3.9529
G01 X52.8705 Y3.9162
G01 X52.9125 Y3.8988
G01 X52.9934 Y3.8698
G01 X53.0369 Y3.8566
G01 X53.1202 Y3.8358
G01 X53.1648 Y3.8269
G01 X53.2497 Y3.8143
G01 X53.2950 Y3.8098
G01 X53.3808 Y3.8056
G01 X53.4262 Y3.8056
G01 X53.5120 Y3.8098
G01 X53.5573 Y3.8143
G01 X53.6422 Y3.8269
G01 X53.6868 Y3.8358
G01 X53.7701 Y3.8566
G01 X53.8136 Y3.8698
G01 X53.8945 Y3.8988
G01 X53.9365 Y3.9162
G01 X54.0141 Y3.9529
G01 X54.0542 Y3.9743
G01 X54.1279 Y4.0185
G01 X54.1657 Y4.0437
G01 X54.2347 Y4.0949
G01 X54.2698 Y4.1237
G01 X54.3334 Y4.1814
G01 X54.3656 Y4.2136
G01 X54.4233 Y4.2772
G01 X54.4521 Y4.3123
G01 X54.5033 Y4.3813
G01 X54.5285 Y4.4191
G01 X54.5727 Y4.4928
G01 X54.5941 Y4.5329
G01 X54.6308 Y4.6105
G01 X54.6482 Y4.6525
G01 X54.6735 Y4.7231
G01 X54.6988 Y4.6525
G01 X54.7162 Y4.6105
G01 X54.7529 Y4.5329
G01 X54.7743 Y4.4928
G01 X54.8185 Y4.4191
G01 X54.8437 Y4.3813
G01 X54.8949 Y4.3123
G01 X54.9237 Y4.2772
G01 X54.9814 Y4.2136
G01 X55.0136 Y4.1814
G01 X55.0772 Y4.1237
G01 X55.1123 Y4.0949
G01 X55.1813 Y4.0437
G01 X55.2191 Y4.0185
G01 X55.2928 Y3.9743
G01 X55.3329 Y3.9529
G01 X55.4105 Y3.9162
G01 X55.4525 Y3.8988
G01 X55.5334 Y3.8698
G01 X55.5769 Y3.8566
G01 X55.6602 Y3.8358
G01 X55.7048 Y3.8269
G01 X55.7897 Y3.8143
G01 X55.8350 Y3.8098
G01 X55.9208 Y3.8056
G01 X55.9662 Y3.8056
G01 X56.0520 Y3.8098
G01 X56.0973 Y3.8143
G01 X56.1822 Y3.8269
G01 X56.2268 Y3.8358
G01 X56.3101 Y3.8566
G01 X56.3536 Y3.8698
G01 X56.4345 Y3.8988
G01 X56.4765 Y3.9162
G01 X56.5541 Y3.9529
G01 X56.5942 Y3.9743
G01 X56.6679 Y4.0185
G01 X56.7057 Y4.0437
G01 X56.7747 Y4.0949
G01 X56.8098 Y4.1237
G01 X56.8734 Y4.1814
G01 X56.9056 Y4.2136
G01 X56.9633 Y4.2772
G01 X56.9921 Y4.3123
G01 X57.0433 Y4.3813
G01 X57.0685 Y4.4191
G01 X57.1127 Y4.4928
G01 X57.1341 Y4.5329
G01 X57.1708 Y4.6105
G01 X57.1882 Y4.6525
G01 X57.2135 Y4.7231
G01 X57.2388 Y4.6525
G01 X57.2562 Y4.6105
G01 X57.2929 Y4.5329
G01 X57.3143 Y4.4928
G01 X57.3585 Y4.4191
G01 X57.3837 Y4.3813
G01 X57.4349 Y4.3123
G01 X57.4637 Y4.2772
G01 X57.5214 Y4.2136
G01 X57.5536 Y4.1814
G01 X57.6172 Y4.1237
G01 X57.6523 Y4.0949
G01 X57.7213 Y4.0437
G01 X57.7591 Y4.0185
G01 X57.8328 Y3.9743
G01 X57.8729 Y3.9529
G01 X57.9505 Y3.9162
G01 X57.9925 Y3.8988
G01 X58.0734 Y3.8698
G01 X58.1169 Y3.8566
G01 X58.2002 Y3.8358
G01 X58.2448 Y3.8269
G01 X58.3297 Y3.8143
G01 X58.3750 Y3.8098
G01 X58.4608 Y3.8056
G01 X58.5062 Y3.8056
G01 X58.5920 Y3.8098
G01 X58.6373 Y3.8143
G01 X58.7222 Y3.8269
G01 X58.7668 Y3.8358
G01 X58.8501 Y3.8566
G01 X58.8936 Y3.8698
G01 X58.9745 Y3.8988
G01 X59.0165 Y3.9162
G01 X59.0941 Y3.9529
G01 X59.1342 Y3.9743
G01 X59.2079 Y4.0185
G01 X59.2457 Y4.0437
G01 X59.3147 Y4.0949
G01 X59.3498 Y4.1237
G01 X59.4134 Y4.1814
G01 X59.4456 Y4.2136
G01 X59.5033 Y4.2772
G01 X59.5321 Y4.3123
G01 X59.5833 Y4.3813
G01 X59.6085 Y4.4191
G01 X59.6527 Y4.4928
G01 X59.6741 Y4.5329
G01 X59.7108 Y4.6105
G01 X59.7282 Y4.6525
G01 X59.7535 Y4.7231
G01 X59.7788 Y4.6525
G01 X59.7962 Y4.6105
G01 X59.8329 Y4.5329
G01 X59.8543 Y4.4928
G01 X59.8985 Y4.4191
G01 X59.9237 Y4.3813
G01 X59.9749 Y4.3123
G01 X60.0037 Y4.2772
G01 X60.0614 Y4.2136
G01 X60.0936 Y4.1814
G01 X60.1572 Y4.1237
G01 X60.1923 Y4.0949
G01 X60.2613 Y4.0437
G01 X60.2991 Y4.0185
G01 X60.3728 Y3.9743
G01 X60.4129 Y3.9529
G01 X60.4905 Y3.9162
G01 X60.5325 Y3.8988
G01 X60.6134 Y3.8698
G01 X60.6569 Y3.8566
G01 X60.7402 Y3.8358
G01 X60.7848 Y3.8269
G01 X60.8697 Y3.8143
G01 X60.9150 Y3.8098
G01 X61.0008 Y3.8056
G01 X61.0462 Y3.8056
G01 X61.1320 Y3.8098
G01 X61.1773 Y3.8143
G01 X61.2622 Y3.8269
G01 X61.3068 Y3.8358
G01 X61.3901 Y3.8566
G01 X61.4336 Y3.8698
G01 X61.5145 Y3.8988
G01 X61.5565 Y3.9162
G01 X61.6341 Y3.9529
G01 X61.6742 Y3.9743
G01 X61.7479 Y4.0185
G01 X61.7857 Y4.0437
G01 X61.8547 Y4.0949
G01 X61.8898 Y4.1237
G01 X61.9534 Y4.1814
G01 X61.9856 Y4.2136
G01 X62.0433 Y4.2772
G01 X62.0721 Y4.3123
G01 X62.1233 Y4.3813
G01 X62.1485 Y4.4191
G01 X62.1927 Y4.4928
G01 X62.2141 Y4.5329
G01 X62.2508 Y4.6105
G01 X62.2682 Y4.6525
G01 X62.2935 Y4.7231
G01 X62.3188 Y4.6525
G01 X62.3362 Y4.6105
G01 X62.3729 Y4.5329
G01 X62.3943 Y4.4928
G01 X62.4385 Y4.4191
G01 X62.4637 Y4.3813
G01 X62.5149 Y4.3123
G01 X62.5437 Y4.2772
G01 X62.6014 Y4.2136
G01 X62.6336 Y4.1814
G01 X62.6972 Y4.1237
G01 X62.7323 Y4.0949
G01 X62.8013 Y4.0437
G01 X62.8391 Y4.0185
G01 X62.9128 Y3.9743
G01 X62.9529 Y3.9529
G01 X63.0305 Y3.9162
G01 X63.0725 Y3.8988
G01 X63.1534 Y3.8698
G01 X63.1969 Y3.8566
G01 X63.2802 Y3.8358
G01 X63.3248 Y3.8269
G01 X63.4097 Y3.8143
G01 X63.4550 Y3.8098
G01 X63.5408 Y3.8056
G01 X63.5862 Y3.8056
G01 X63.6720 Y3.8098
G01 X63.7173 Y3.8143
G01 X63.8022 Y3.8269
G01 X63.8468 Y3.8358
G01 X63.9301 Y3.8566
G01 X63.9736 Y3.8698
G01 X64.0545 Y3.8988
G01 X64.0965 Y3.9162
G01 X64.1741 Y3.9529
G01 X64.2142 Y3.9743
G01 X64.2879 Y4.0185
G01 X64.3257 Y4.0437
G01 X64.3947 Y4.0949
G01 X64.4298 Y4.1237
G01 X64.4934 Y4.1814
G01 X64.5256 Y4.2136
G01 X64.5833 Y4.2772
G01 X64.6121 Y4.3123
G01 X64.6633 Y4.3813
G01 X64.6885 Y4.4191
G01 X64.7327 Y4.4928
G01 X64.7541 Y4.5329
G01 X64.7908 Y4.6105
G01 X64.8082 Y4.6525
G01 X64.8335 Y4.7231
G01 X64.8588 Y4.6525
G01 X64.8762 Y4.6105
G01 X64.9129 Y4.5329
G01 X64.9343 Y4.4928
G01 X64.9785 Y4.4191
G01 X65.0037 Y4.3813
G01 X65.0549 Y4.3123
G01 X65.0837 Y4.2772
G01 X65.1414 Y4.2136
G01 X65.1736 Y4.1814
G01 X65.2372 Y4.1237
G01 X65.2723 Y4.0949
G01 X65.3413 Y4.0437
G01 X65.3791 Y4.0185
G01 X65.4528 Y3.9743
G01 X65.4929 Y3.9529
G01 X65.5705 Y3.9162
G01 X65.6125 Y3.8988
G01 X65.6934 Y3.8698
G01 X65.7369 Y3.8566
G01 X65.8202 Y3.8358
G01 X65.8648 Y3.8269
G01 X65.9497 Y3.8143
G01 X65.9950 Y3.8098
G01 X66.0808 Y3.8056
G01 X66.1262 Y3.8056
G01 X66.2120 Y3.8098
G01 X66.2573 Y3.8143
G01 X66.3422 Y3.8269
G01 X66.3868 Y3.8358
G01 X66.4701 Y3.8566
G01 X66.5136 Y3.8698
G01 X66.5945 Y3.8988
G01 X66.6365 Y3.9162
G01 X66.7141 Y3.9529
G01 X66.7542 Y3.9743
G01 X66.8279 Y4.0185
G01 X66.8657 Y4.0437
G01 X66.9347 Y4.0949
G01 X66.9698 Y4.1237
G01 X67.0334 Y4.1814
G01 X67.0656 Y4.2136
G01 X67.1233 Y4.2772
G01 X67.1521 Y4.3123
G01 X67.2033 Y4.3813
G01 X67.2285 Y4.4191
G01 X67.2727 Y4.4928
G01 X67.2941 Y4.5329
G01 X67.3308 Y4.6105
G01 X67.3482 Y4.6525
G01 X67.3772 Y4.7334
G01 X67.3904 Y4.7769
G01 X67.4112 Y4.8602
G01 X67.4201 Y4.9048
G01 X67.4327 Y4.9897
G01 X67.4372 Y5.0350
G01 X67.4414 Y5.1208
G01 X67.4414 Y5.1662
G01 X67.4372 Y5.2520
G01 X67.4327 Y5.2973
G01 X67.4201 Y5.3822
G01 X67.4112 Y5.4268
G01 X67.3904 Y5.5101
G01 X67.3772 Y5.5536
G01 X67.3482 Y5.6345
G01 X67.3308 Y5.6765
G01 X67.2941 Y5.7541
G01 X67.2727 Y5.7942
G01 X67.2285 Y5.8679
G01 X67.2033 Y5.9057
G01 X67.1521 Y5.9747
G01 X67.1233 Y6.0098
G01 X67.0671 Y6.0717
G01 X67.0671 Y6.7553
G01 X67.1233 Y6.8172
G01 X67.1521 Y6.8523
G01 X67.2033 Y6.9213
G01 X67.2285 Y6.9591
G01 X67.2727 Y7.0328
G01 X67.2941 Y7.0729
G01 X67.3308 Y7.1505
G01 X67.3482 Y7.1925
G01 X67.3772 Y7.2734
G01 X67.3904 Y7.3169
G01 X67.4112 Y7.4002
G01 X67.4201 Y7.4448
G01 X67.4327 Y7.5297
G01 X67.4372 Y7.5750
G01 X67.4414 Y7.6608
G01 X67.4414 Y7.7062
G01 X67.4372 Y7.7920
G01 X67.4327 Y7.8373
G01 X67.4201 Y7.9222
G01 X67.4112 Y7.9668
G01 X67.3904 Y8.0501
G01 X67.3772 Y8.0936
G01 X67.3482 Y8.1745
G01 X67.3308 Y8.2165
G01 X67.2941 Y8.2941
G01 X67.2727 Y8.3342
G01 X67.2285 Y8.4079
G01 X67.2033 Y8.4457
G01 X67.1521 Y8.5147
G01 X67.1233 Y8.5498
G01 X67.0656 Y8.6134
G01 X67.0334 Y8.6456
G01 X66.9698 Y8.7033
G01 X66.9347 Y8.7321
G01 X66.8657 Y8.7833
G01 X66.8279 Y8.8085
G01 X66.7542 Y8.8527
G01 X66.7141 Y8.8741
G01 X66.6365 Y8.9108
G01 X66.5945 Y8.9282
G01 X66.5239 Y8.9535
G01 X66.5945 Y8.9788
G01 X66.6365 Y8.9962
G01 X66.7141 Y9.0329
G01 X66.7542 Y9.0543
G01 X66.8279 Y9.0985
G01 X66.8657 Y9.1237
G01 X66.9347 Y9.1749
G01 X66.9698 Y9.2037
G01 X67.0334 Y9.2614
G01 X67.0656 Y9.2936
G01 X67.1233 Y9.3572
G01 X67.1521 Y9.3923
G01 X67.2033 Y9.4613
G01 X67.2285 Y9.4991
G01 X67.2727 Y9.5728
G01 X67.2941 Y9.6129
G01 X67.3308 Y9.6905
G01 X67.3482 Y9.7325
G01 X67.3772 Y9.8134
G01 X67.3904 Y9.8569
G01 X67.4112 Y9.9402
G01 X67.4201 Y9.9848
G01 X67.4327 Y10.0697
G01 X67.4372 Y10.1150
G01 X67.4414 Y10.2008
G01 X67.4414 Y10.2462
G01 X67.4372 Y10.3320
G01 X67.4327 Y10.3773
G01 X67.4201 Y10.4622
G01 X67.4112 Y10.5068
G01 X67.3904 Y10.5901
G01 X67.3772 Y10.6336
G01 X67.3482 Y10.7145
G01 X67.3308 Y10.7565
G01 X67.2941 Y10.8341
G01 X67.2727 Y10.8742
G01 X67.2285 Y10.9479
G01 X67.2033 Y10.9857
G01 X67.1521 Y11.0547
G01 X67.1233 Y11.0898
G01 X67.0671 Y11.1517
G01 X67.0671 Y11.8353
G01 X67.1233 Y11.8972
G01 X67.1521 Y11.9323
G01 X67.2033 Y12.0013
G01 X67.2285 Y12.0391
G01 X67.2727 Y12.1128
G01 X67.2941 Y12.1529
G01 X67.3308 Y12.2305
G01 X67.3482 Y12.2725
G01 X67.3772 Y12.3534
G01 X67.3904 Y12.3969
G01 X67.4112 Y12.4802
G01 X67.4201 Y12.5248
G01 X67.4327 Y12.6097
G01 X67.4372 Y12.6550
G01 X67.4414 Y12.7408
G01 X67.4414 Y12.7862
G01 X67.4372 Y12.8720
G01 X67.4327 Y12.9173
G01 X67.4201 Y13.0022
G01 X67.4112 Y13.0468
G01 X67.3904 Y13.1301
G01 X67.3772 Y13.1736
G01 X67.3482 Y13.2545
G01 X67.3308 Y13.2965
G01 X67.2941 Y13.3741
G01 X67.2727 Y13.4142
G01 X67.2285 Y13.4879
G01 X67.2033 Y13.5257
G01 X67.1521 Y13.5947
G01 X67.1233 Y13.6298
G01 X67.0656 Y13.6934
G01 X67.0334 Y13.7256
G01 X66.9698 Y13.7833
G01 X66.9347 Y13.8121
G01 X66.8657 Y13.8633
G01 X66.8279 Y13.8885
G01 X66.7542 Y13.9327
G01 X66.7141 Y13.9541
G01 X66.6365 Y13.9908
G01 X66.5945 Y14.0082
G01 X66.5136 Y14.0372
G01 X66.4701 Y14.0504
G01 X66.3868 Y14.0712
G01 X66.3422 Y14.0801
G01 X66.2573 Y14.0927
G01 X66.2120 Y14.0972
G01 X66.1262 Y14.1014
G01 X66.0808 Y14.1014
G01 X65.9950 Y14.0972
G01 X65.9497 Y14.0927
G01 X65.8648 Y14.0801
G01 X65.8202 Y14.0712
G01 X65.7369 Y14.0504
G01 X65.6934 Y14.0372
G01 X65.6125 Y14.0082
G01 X65.5705 Y13.9908
G01 X65.4929 Y13.9541
G01 X65.4528 Y13.9327
G01 X65.3791 Y13.8885
G01 X65.3413 Y13.8633
G01 X65.2723 Y13.8121
G01 X65.2372 Y13.7833
G01 X65.1736 Y13.7256
G01 X65.1414 Y13.6934
G01 X65.0837 Y13.6298
G01 X65.0549 Y13.5947
G01 X65.0037 Y13.5257
G01 X64.9785 Y13.4879
G01 X64.9343 Y13.4142
G01 X64.9129 Y13.3741
G01 X64.8762 Y13.2965
G01 X64.8588 Y13.2545
G01 X64.8335 Y13.1839
G01 X64.8082 Y13.2545
G01 X64.7908 Y13.2965
G01 X64.7541 Y13.3741
G01 X64.7327 Y13.4142
G01 X64.6885 Y13.4879
G01 X64.6633 Y13.5257
G01 X64.6121 Y13.5947
G01 X64.5833 Y13.6298
G01 X64.5256 Y13.6934
G01 X64.4934 Y13.7256
G01 X64.4298 Y13.7833
G01 X64.3947 Y13.8121
G01 X64.3257 Y13.8633
G01 X64.2879 Y13.8885
G01 X64.2142 Y13.9327
G01 X64.1741 Y13.9541
G01 X64.0965 Y13.9908
G01 X64.0545 Y14.0082
G01 X63.9736 Y14.0372
G01 X63.9301 Y14.0504
G01 X63.8468 Y14.0712
G01 X63.8022 Y14.0801
G01 X63.7173 Y14.0927
G01 X63.6720 Y14.0972
G01 X63.5862 Y14.1014
G01 X63.5408 Y14.1014
G01 X63.4550 Y14.0972
G01 X63.4097 Y14.0927
G01 X63.3248 Y14.0801
G01 X63.2802 Y14.0712
G01 X63.1969 Y14.0504
G01 X63.1534 Y14.0372
G01 X63.0725 Y14.0082
G01 X63.0305 Y13.9908
G01 X62.9529 Y13.9541
G01 X62.9128 Y13.9327
G01 X62.8391 Y13.8885
G01 X62.8013 Y13.8633
G01 X62.7323 Y13.8121
G01 X62.6972 Y13.7833
G01 X62.6336 Y13.7256
G01 X62.6014 Y13.6934
G01 X62.5437 Y13.6298
G01 X62.5149 Y13.5947
G01 X62.4637 Y13.5257
G01 X62.4385 Y13.4879
G01 X62.3943 Y13.4142
G01 X62.3729 Y13.3741
G01 X62.3362 Y13.2965
G01 X62.3188 Y13.2545
G01 X62.2935 Y13.1839
G01 X62.2682 Y13.2545
G01 X62.2508 Y13.2965
G01 X62.2141 Y13.3741
G01 X62.1927 Y13.4142
G01 X62.1485 Y13.4879
G01 X62.1233 Y13.5257
G01 X62.0721 Y13.5947
G01 X62.0433 Y13.6298
G01 X61.9856 Y13.6934
G01 X61.9534 Y13.7256
G01 X61.8898 Y13.7833
G01 X61.8547 Y13.8121
G01 X61.7857 Y13.8633
G01 X61.7479 Y13.8885
G01 X61.6742 Y13.9327
G01 X61.6341 Y13.9541
G01 X61.5565 Y13.9908
G01 X61.5145 Y14.0082
G01 X61.4336 Y14.0372
G01 X61.3901 Y14.0504
G01 X61.3068 Y14.0712
G01 X61.2622 Y14.0801
G01 X61.1773 Y14.0927
G01 X61.1320 Y14.0972
G01 X61.0462 Y14.1014
G01 X61.0008 Y14.1014
G01 X60.9150 Y14.0972
G01 X60.8697 Y14.0927
G01 X60.7848 Y14.0801
G01 X60.7402 Y14.0712
G01 X60.6569 Y14.0504
G01 X60.6134 Y14.0372
G01 X60.5325 Y14.0082
G01 X60.4905 Y13.9908
G01 X60.4129 Y13.9541
G01 X60.3728 Y13.9327
G01 X60.2991 Y13.8885
G01 X60.2613 Y13.8633
G01 X60.1923 Y13.8121
G01 X60.1572 Y13.7833
G01 X60.0936 Y13.7256
G01 X60.0614 Y13.6934
G01 X60.0037 Y13.6298
G01 X59.9749 Y13.5947
G01 X59.9237 Y13.5257
G01 X59.8985 Y13.4879
G01 X59.8543 Y13.4142
G01 X59.8329 Y13.3741
G01 X59.7962 Y13.2965
G01 X59.7788 Y13.2545
G01 X59.7535 Y13.1839
G01 X59.7282 Y13.2545
G01 X59.7108 Y13.2965
G01 X59.6741 Y13.3741
G01 X59.6527 Y13.4142
G01 X59.6085 Y13.4879
G01 X59.5833 Y13.5257
G01 X59.5321 Y13.5947
G01 X59.5033 Y13.6298
G01 X59.4456 Y13.6934
G01 X59.4134 Y13.7256
G01 X59.3498 Y13.7833
G01 X59.3147 Y13.8121
G01 X59.2457 Y13.8633
G01 X59.2079 Y13.8885
G01 X59.1342 Y13.9327
G01 X59.0941 Y13.9541
G01 X59.0165 Y13.9908
G01 X58.9745 Y14.0082
G01 X58.8936 Y14.0372
G01 X58.8501 Y14.0504
G01 X58.7668 Y14.0712
G01 X58.7222 Y14.0801
G01 X58.6373 Y14.0927
G01 X58.5920 Y14.0972
G01 X58.5062 Y14.1014
G01 X58.4608 Y14.1014
G01 X58.3750 Y14.0972
G01 X58.3297 Y14.0927
G01 X58.2448 Y14.0801
G01 X58.2002 Y14.0712
G01 X58.1169 Y14.0504
G01 X58.0734 Y14.0372
G01 X57.9925 Y14.0082
G01 X57.9505 Y13.9908
G01 X57.8729 Y13.9541
G01 X57.8328 Y13.9327
G01 X57.7591 Y13.8885
G01 X57.7213 Y13.8633
G01 X57.6523 Y13.8121
G01 X57.6172 Y13.7833
G01 X57.5536 Y13.7256
G01 X57.5214 Y13.6934
G01 X57.4637 Y13.6298
G01 X57.4349 Y13.5947
G01 X57.3837 Y13.5257
G01 X57.3585 Y13.4879
G01 X57.3143 Y13.4142
G01 X57.2929 Y13.3741
G01 X57.2562 Y13.2965
G01 X57.2388 Y13.2545
G01 X57.2135 Y13.1839
G01 X57.1882 Y13.2545
G01 X57.1708 Y13.2965
G01 X57.1341 Y13.3741
G01 X57.1127 Y13.4142
G01 X57.0685 Y13.4879
G01 X57.0433 Y13.5257
G01 X56.9921 Y13.5947
G01 X56.9633 Y13.6298
G01 X56.9056 Y13.6934
G01 X56.8734 Y13.7256
G01 X56.8098 Y13.7833
G01 X56.7747 Y13.8121
G01 X56.7057 Y13.8633
G01 X56.6679 Y13.8885
G01 X56.5942 Y13.9327
G01 X56.5541 Y13.9541
G01 X56.4765 Y13.9908
G01 X56.4345 Y14.0082
G01 X56.3536 Y14.0372
G01 X56.3101 Y14.0504
G01 X56.2268 Y14.0712
G01 X56.1822 Y14.0801
G01 X56.0973 Y14.0927
G01 X56.0520 Y14.0972
G01 X55.9662 Y14.1014
G01 X55.9208 Y14.1014
G01 X55.8350 Y14.0972
G01 X55.7897 Y14.0927
G01 X55.7048 Y14.0801
G01 X55.6602 Y14.0712
G01 X55.5769 Y14.0504
G01 X55.5334 Y14.0372
G01 X55.4525 Y14.0082
G01 X55.4105 Y13.9908
G01 X55.3329 Y13.9541
G01 X55.2928 Y13.9327
G01 X55.2191 Y13.8885
G01 X55.1813 Y13.8633
G01 X55.1123 Y13.8121
G01 X55.0772 Y13.7833
G01 X55.0136 Y13.7256
G01 X54.9814 Y13.6934
G01 X54.9237 Y13.6298
G01 X54.8949 Y13.5947
G01 X54.8437 Y13.5257
G01 X54.8185 Y13.4879
G01 X54.7743 Y13.4142
G01 X54.7529 Y13.3741
G01 X54.7162 Y13.2965
G01 X54.6988 Y13.2545
G01 X54.6735 Y13.1839
G01 X54.6482 Y13.2545
G01 X54.6308 Y13.2965
G01 X54.5941 Y13.3741
G01 X54.5727 Y13.4142
G01 X54.5285 Y13.4879
G01 X54.5033 Y13.5257
G01 X54.4521 Y13.5947
G01 X54.4233 Y13.6298
G01 X54.3656 Y13.6934
G01 X54.3334 Y13.7256
G01 X54.2698 Y13.7833
G01 X54.2347 Y13.8121
G01 X54.1657 Y13.8633
G01 X54.1279 Y13.8885
G01 X54.0542 Y13.9327
G01 X54.0141 Y13.9541
G01 X53.9365 Y13.9908
G01 X53.8945 Y14.0082
G01 X53.8136 Y14.0372
G01 X53.7701 Y14.0504
G01 X53.6868 Y14.0712
G01 X53.6422 Y14.0801
G01 X53.5573 Y14.0927
G01 X53.5120 Y14.0972
G01 X53.4262 Y14.1014
G01 X53.3808 Y14.1014
G01 X53.2950 Y14.0972
G01 X53.2497 Y14.0927
G01 X53.1648 Y14.0801
G01 X53.1202 Y14.0712
G01 X53.0369 Y14.0504
G01 X52.9934 Y14.0372
G01 X52.9125 Y14.0082
G01 X52.8705 Y13.9908
G01 X52.7929 Y13.9541
G01 X52.7528 Y13.9327
G01 X52.6791 Y13.8885
G01 X52.6413 Y13.8633
G01 X52.5723 Y13.8121
G01 X52.5372 Y13.7833
G01 X52.4736 Y13.7256
G01 X52.4414 Y13.6934
G01 X52.3837 Y13.6298
G01 X52.3549 Y13.5947
G01 X52.3037 Y13.5257
G01 X52.2785 Y13.4879
G01 X52.2343 Y13.4142
G01 X52.2129 Y13.3741
G01 X52.1762 Y13.2965
G01 X52.1588 Y13.2545
G01 X52.1335 Y13.1839
G01 X52.1082 Y13.2545
G01 X52.0908 Y13.2965
G01 X52.0541 Y13.3741
G01 X52.0327 Y13.4142
G01 X51.9885 Y13.4879
G01 X51.9633 Y13.5257
G01 X51.9121 Y13.5947
G01 X51.8833 Y13.6298
G01 X51.8256 Y13.6934
G01 X51.7934 Y13.7256
G01 X51.7298 Y13.7833
G01 X51.6947 Y13.8121
G01 X51.6257 Y13.8633
G01 X51.5879 Y13.8885
G01 X51.5142 Y13.9327
G01 X51.4741 Y13.9541
G01 X51.3965 Y13.9908
G01 X51.3545 Y14.0082
G01 X51.2736 Y14.0372
G01 X51.2301 Y14.0504
G01 X51.1468 Y14.0712
G01 X51.1022 Y14.0801
G01 X51.0173 Y14.0927
G01 X50.9720 Y14.0972
G01 X50.8862 Y14.1014
G01 X50.8408 Y14.1014
G01 X50.7550 Y14.0972
G01 X50.7097 Y14.0927
G01 X50.6248 Y14.0801
G01 X50.5802 Y14.0712
G01 X50.4969 Y14.0504
G01 X50.4534 Y14.0372
G01 X50.3725 Y14.0082
G01 X50.3305 Y13.9908
G01 X50.2529 Y13.9541
G01 X50.2128 Y13.9327
G01 X50.1391 Y13.8885
G01 X50.1013 Y13.8633
G01 X50.0323 Y13.8121
G01 X49.9972 Y13.7833
G01 X49.9336 Y13.7256
G01 X49.9014 Y13.6934
G01 X49.8437 Y13.6298
G01 X49.8149 Y13.5947
G01 X49.7637 Y13.5257
G01 X49.7385 Y13.4879
G01 X49.6943 Y13.4142
G01 X49.6729 Y13.3741
G01 X49.6362 Y13.2965
G01 X49.6188 Y13.2545
G01 X49.5935 Y13.1839
G01 X49.5682 Y13.2545
G01 X49.5508 Y13.2965
G01 X49.5141 Y13.3741
G01 X49.4927 Y13.4142
G01 X49.4485 Y13.4879
G01 X49.4233 Y13.5257
G01 X49.3721 Y13.5947
G01 X49.3433 Y13.6298
G01 X49.2856 Y13.6934
G01 X49.2534 Y13.7256
G01 X49.1898 Y13.7833
G01 X49.1547 Y13.8121
G01 X49.0857 Y13.8633
G01 X49.0479 Y13.8885
G01 X48.9742 Y13.9327
G01 X48.9341 Y13.9541
G01 X48.8565 Y13.9908
G01 X48.8145 Y14.0082
G01 X48.7336 Y14.0372
G01 X48.6901 Y14.0504
G01 X48.6068 Y14.0712
G01 X48.5622 Y14.0801
G01 X48.4773 Y14.0927
G01 X48.4320 Y14.0972
G01 X48.3462 Y14.1014
G01 X48.3008 Y14.1014
G01 X48.2150 Y14.0972
G01 X48.1697 Y14.0927
G01 X48.0848 Y14.0801
G01 X48.0402 Y14.0712
G01 X47.9569 Y14.0504
G01 X47.9134 Y14.0372
G01 X47.8325 Y14.0082
G01 X47.7905 Y13.9908
G01 X47.7129 Y13.9541
G01 X47.6728 Y13.9327
G01 X47.5991 Y13.8885
G01 X47.5613 Y13.8633
G01 X47.4923 Y13.8121
G01 X47.4572 Y13.7833
G01 X47.3936 Y13.7256
G01 X47.3614 Y13.6934
G01 X47.3037 Y13.6298
G01 X47.2749 Y13.5947
G01 X47.2237 Y13.5257
G01 X47.1985 Y13.4879
G01 X47.1543 Y13.4142
G01 X47.1329 Y13.3741
G01 X47.0962 Y13.2965
G01 X47.0788 Y13.2545
G01 X47.0535 Y13.1839
G01 X47.0282 Y13.2545
G01 X47.0108 Y13.2965
G01 X46.9741 Y13.3741
G01 X46.9527 Y13.4142
G01 X46.9085 Y13.4879
G01 X46.8833 Y13.5257
G01 X46.8321 Y13.5947
G01 X46.8033 Y13.6298
G01 X46.7456 Y13.6934
G01 X46.7134 Y13.7256
G01 X46.6498 Y13.7833
G01 X46.6147 Y13.8121
G01 X46.5457 Y13.8633
G01 X46.5079 Y13.8885
G01 X46.4342 Y13.9327
G01 X46.3941 Y13.9541
G01 X46.3165 Y13.9908
G01 X46.2745 Y14.0082
G01 X46.1936 Y14.0372
G01 X46.1501 Y14.0504
G01 X46.0668 Y14.0712
G01 X46.0222 Y14.0801
G01 X45.9373 Y14.0927
G01 X45.8920 Y14.0972
G01 X45.8062 Y14.1014
G01 X45.7608 Y14.1014
G01 X45.6750 Y14.0972
G01 X45.6297 Y14.0927
G01 X45.5448 Y14.0801
G01 X45.5002 Y14.0712
G01 X45.4169 Y14.0504
G01 X45.3734 Y14.0372
G01 X45.2925 Y14.0082
G01 X45.2505 Y13.9908
G01 X45.1729 Y13.9541
G01 X45.1328 Y13.9327
G01 X45.0591 Y13.8885
G01 X45.0213 Y13.8633
G01 X44.9523 Y13.8121
G01 X44.9172 Y13.7833
G01 X44.8536 Y13.7256
G01 X44.8214 Y13.6934
G01 X44.7637 Y13.6298
G01 X44.7349 Y13.5947
G01 X44.6837 Y13.5257
G01 X44.6585 Y13.4879
G01 X44.6143 Y13.4142
G01 X44.5929 Y13.3741
G01 X44.5562 Y13.2965
G01 X44.5388 Y13.2545
G01 X44.5135 Y13.1839
G01 X44.4882 Y13.2545
G01 X44.4708 Y13.2965
G01 X44.4341 Y13.3741
G01 X44.4127 Y13.4142
G01 X44.3685 Y13.4879
G01 X44.3433 Y13.5257
G01 X44.2921 Y13.5947
G01 X44.2633 Y13.6298
G01 X44.2056 Y13.6934
G01 X44.1734 Y13.7256
G01 X44.1098 Y13.7833
G01 X44.0747 Y13.8121
G01 X44.0057 Y13.8633
G01 X43.9679 Y13.8885
G01 X43.8942 Y13.9327
G01 X43.8541 Y13.9541
G01 X43.7765 Y13.9908
G01 X43.7345 Y14.0082
G01 X43.6536 Y14.0372
G01 X43.6101 Y14.0504
G01 X43.5268 Y14.0712
G01 X43.4822 Y14.0801
G01 X43.3973 Y14.0927
G01 X43.3520 Y14.0972
G01 X43.2662 Y14.1014
G01 X43.2208 Y14.1014
G01 X43.1350 Y14.0972
G01 X43.0897 Y14.0927
G01 X43.0048 Y14.0801
G01 X42.9602 Y14.0712
G01 X42.8769 Y14.0504
G01 X42.8334 Y14.0372
G01 X42.7525 Y14.0082
G01 X42.7105 Y13.9908
G01 X42.6329 Y13.9541
G01 X42.5928 Y13.9327
G01 X42.5191 Y13.8885
G01 X42.4813 Y13.8633
G01 X42.4123 Y13.8121
G01 X42.3772 Y13.7833
G01 X42.3136 Y13.7256
G01 X42.2814 Y13.6934
G01 X42.2237 Y13.6298
G01 X42.1949 Y13.5947
G01 X42.1437 Y13.5257
G01 X42.1185 Y13.4879
G01 X42.0743 Y13.4142
G01 X42.0529 Y13.3741
G01 X42.0162 Y13.2965
G01 X41.9988 Y13.2545
G01 X41.9735 Y13.1839
G01 X41.9482 Y13.2545
G01 X41.9308 Y13.2965
G01 X41.8941 Y13.3741
G01 X41.8727 Y13.4142
G01 X41.8285 Y13.4879
G01 X41.8033 Y13.5257
G01 X41.7521 Y13.5947
G01 X41.7233 Y13.6298
G01 X41.6656 Y13.6934
G01 X41.6334 Y13.7256
G01 X41.5698 Y13.7833
G01 X41.5347 Y13.8121
G01 X41.4657 Y13.8633
G01 X41.4279 Y13.8885
G01 X41.3542 Y13.9327
G01 X41.3141 Y13.9541
G01 X41.2365 Y13.9908
G01 X41.1945 Y14.0082
G01 X41.1136 Y14.0372
G01 X41.0701 Y14.0504
G01 X40.9868 Y14.0712
G01 X40.9422 Y14.0801
G01 X40.8573 Y14.0927
G01 X40.8120 Y14.0972
G01 X40.7262 Y14.1014
G01 X40.6808 Y14.1014
G01 X40.5950 Y14.0972
G01 X40.5497 Y14.0927
G01 X40.4648 Y14.0801
G01 X40.4202 Y14.0712
G01 X40.3369 Y14.0504
G01 X40.2934 Y14.0372
G01 X40.2125 Y14.0082
G01 X40.1705 Y13.9908
G01 X40.0929 Y13.9541
G01 X40.0528 Y13.9327
G01 X39.9791 Y13.8885
G01 X39.9413 Y13.8633
G01 X39.8723 Y13.8121
G01 X39.8372 Y13.7833
G01 X39.7736 Y13.7256
G01 X39.7414 Y13.6934
G01 X39.6837 Y13.6298
G01 X39.6549 Y13.5947
G01 X39.6037 Y13.5257
G01 X39.5785 Y13.4879
G01 X39.5343 Y13.4142
G01 X39.5129 Y13.3741
G01 X39.4762 Y13.2965
G01 X39.4588 Y13.2545
G01 X39.4335 Y13.1839
G01 X39.4082 Y13.2545
G01 X39.3908 Y13.2965
G01 X39.3541 Y13.3741
G01 X39.3327 Y13.4142
G01 X39.2885 Y13.4879
G01 X39.2633 Y13.5257
G01 X39.2121 Y13.5947
G01 X39.1833 Y13.6298
G01 X39.1256 Y13.6934
G01 X39.0934 Y13.7256
G01 X39.0298 Y13.7833
G01 X38.9947 Y13.8121
G01 X38.9257 Y13.8633
G01 X38.8879 Y13.8885
G01 X38.8142 Y13.9327
G01 X38.7741 Y13.9541
G01 X38.6965 Y13.9908
G01 X38.6545 Y14.0082
G01 X38.5736 Y14.0372
G01 X38.5301 Y14.0504
G01 X38.4468 Y14.0712
G01 X38.4022 Y14.0801
G01 X38.3173 Y14.0927
G01 X38.2720 Y14.0972
G01 X38.1862 Y14.1014
G01 X38.1408 Y14.1014
G01 X38.0550 Y14.0972
G01 X38.0097 Y14.0927
G01 X37.9248 Y14.0801
G01 X37.8802 Y14.0712
G01 X37.7969 Y14.0504
G01 X37.7534 Y14.0372
G01 X37.6725 Y14.0082
G01 X37.6305 Y13.9908
G01 X37.5529 Y13.9541
G01 X37.5128 Y13.9327
G01 X37.4391 Y13.8885
G01 X37.4013 Y13.8633
G01 X37.3323 Y13.8121
G01 X37.2972 Y13.7833
G01 X37.2336 Y13.7256
G01 X37.2014 Y13.6934
G01 X37.1437 Y13.6298
G01 X37.1149 Y13.5947
G01 X37.0637 Y13.5257
G01 X37.0385 Y13.4879
G01 X36.9943 Y13.4142
G01 X36.9729 Y13.3741
G01 X36.9362 Y13.2965
G01 X36.9188 Y13.2545
G01 X36.8935 Y13.1839
G01 X36.8682 Y13.2545
G01 X36.8508 Y13.2965
G01 X36.8141 Y13.3741
G01 X36.7927 Y13.4142
G01 X36.7485 Y13.4879
G01 X36.7233 Y13.5257
G01 X36.6721 Y13.5947
G01 X36.6433 Y13.6298
G01 X36.5856 Y13.6934
G01 X36.5534 Y13.7256
G01 X36.4898 Y13.7833
G01 X36.4547 Y13.8121
G01 X36.3857 Y13.8633
G01 X36.3479 Y13.8885
G01 X36.2742 Y13.9327
G01 X36.2341 Y13.9541
G01 X36.1565 Y13.9908
G01 X36.1145 Y14.0082
G01 X36.0336 Y14.0372
G01 X35.9901 Y14.0504
G01 X35.9068 Y14.0712
G01 X35.8622 Y14.0801
G01 X35.7773 Y14.0927
G01 X35.7320 Y14.0972
G01 X35.6462 Y14.1014
G01 X35.6008 Y14.1014
G01 X35.5150 Y14.0972
G01 X35.4697 Y14.0927
G01 X35.3848 Y14.0801
G01 X35.3402 Y14.0712
G01 X35.2569 Y14.0504
G01 X35.2134 Y14.0372
G01 X35.1325 Y14.0082
G01 X35.0905 Y13.9908
G01 X35.0129 Y13.9541
G01 X34.9728 Y13.9327
G01 X34.8991 Y13.8885
G01 X34.8613 Y13.8633
G01 X34.7923 Y13.8121
G01 X34.7572 Y13.7833
G01 X34.6936 Y13.7256
G01 X34.6614 Y13.6934
G01 X34.6037 Y13.6298
G01 X34.5749 Y13.5947
G01 X34.5237 Y13.5257
G01 X34.4985 Y13.4879
G01 X34.4543 Y13.4142
G01 X34.4329 Y13.3741
G01 X34.3962 Y13.2965
G01 X34.3788 Y13.2545
G01 X34.3535 Y13.1839
G01 X34.3282 Y13.2545
G01 X34.3108 Y13.2965
G01 X34.2741 Y13.3741
G01 X34.2527 Y13.4142
G01 X34.2085 Y13.4879
G01 X34.1833 Y13.5257
G01 X34.1321 Y13.5947
G01 X34.1033 Y13.6298
G01 X34.0456 Y13.6934
G01 X34.0134 Y13.7256
G01 X33.9498 Y13.7833
G01 X33.9147 Y13.8121
G01 X33.8457 Y13.8633
G01 X33.8079 Y13.8885
G01 X33.7342 Y13.9327
G01 X33.6941 Y13.9541
G01 X33.6165 Y13.9908
G01 X33.5745 Y14.0082
G01 X33.4936 Y14.0372
G01 X33.4501 Y14.0504
G01 X33.3668 Y14.0712
G01 X33.3222 Y14.0801
G01 X33.2373 Y14.0927
G01 X33.1920 Y14.0972
G01 X33.1062 Y14.1014
G01 X33.0608 Y14.1014
G01 X32.9750 Y14.0972
G01 X32.9297 Y14.0927
G01 X32.8448 Y14.0801
G01 X32.8002 Y14.0712
G01 X32.7169 Y14.0504
G01 X32.6734 Y14.0372
G01 X32.5925 Y14.0082
G01 X32.5505 Y13.9908
G01 X32.4729 Y13.9541
G01 X32.4328 Y13.9327
G01 X32.3591 Y13.8885
G01 X32.3213 Y13.8633
G01 X32.2523 Y13.8121
G01 X32.2172 Y13.7833
G01 X32.1536 Y13.7256
G01 X32.1214 Y13.6934
G01 X32.0637 Y13.6298
G01 X32.0349 Y13.5947
G01 X31.9837 Y13.5257
G01 X31.9585 Y13.4879
G01 X31.9143 Y13.4142
G01 X31.8929 Y13.3741
G01 X31.8562 Y13.2965
G01 X31.8388 Y13.2545
G01 X31.8135 Y13.1839
G01 X31.7882 Y13.2545
G01 X31.7708 Y13.2965
G01 X31.7341 Y13.3741
G01 X31.7127 Y13.4142
G01 X31.6685 Y13.4879
G01 X31.6433 Y13.5257
G01 X31.5921 Y13.5947
G01 X31.5633 Y13.6298
G01 X31.5056 Y13.6934
G01 X31.4734 Y13.7256
G01 X31.4098 Y13.7833
G01 X31.3747 Y13.8121
G01 X31.3057 Y13.8633
G01 X31.2679 Y13.8885
G01 X31.1942 Y13.9327
G01 X31.1541 Y13.9541
G01 X31.0765 Y13.9908
G01 X31.0345 Y14.0082
G01 X30.9536 Y14.0372
G01 X30.9101 Y14.0504
G01 X30.8268 Y14.0712
G01 X30.7822 Y14.0801
G01 X30.6973 Y14.0927
G01 X30.6520 Y14.0972
G01 X30.5662 Y14.1014
G01 X30.5208 Y14.1014
G01 X30.4350 Y14.0972
G01 X30.3897 Y14.0927
G01 X30.3048 Y14.0801
G01 X30.2602 Y14.0712
G01 X30.1769 Y14.0504
G01 X30.1334 Y14.0372
G01 X30.0525 Y14.0082
G01 X30.0105 Y13.9908
G01 X29.9329 Y13.9541
G01 X29.8928 Y13.9327
G01 X29.8191 Y13.8885
G01 X29.7813 Y13.8633
G01 X29.7123 Y13.8121
G01 X29.6772 Y13.7833
G01 X29.6136 Y13.7256
G01 X29.5814 Y13.6934
G01 X29.5237 Y13.6298
G01 X29.4949 Y13.5947
G01 X29.4437 Y13.5257
G01 X29.4185 Y13.4879
G01 X29.3743 Y13.4142
G01 X29.3529 Y13.3741
G01 X29.3162 Y13.2965
G01 X29.2988 Y13.2545
G01 X29.2735 Y13.1839
G01 X29.2482 Y13.2545
G01 X29.2308 Y13.2965
G01 X29.1941 Y13.3741
G01 X29.1727 Y13.4142
G01 X29.1285 Y13.4879
G01 X29.1033 Y13.5257
G01 X29.0521 Y13.5947
G01 X29.0233 Y13.6298
G01 X28.9656 Y13.6934
G01 X28.9334 Y13.7256
G01 X28.8698 Y13.7833
G01 X28.8347 Y13.8121
G01 X28.7657 Y13.8633
G01 X28.7279 Y13.8885
G01 X28.6542 Y13.9327
G01 X28.6141 Y13.9541
G01 X28.5365 Y13.9908
G01 X28.4945 Y14.0082
G01 X28.4136 Y14.0372
G01 X28.3701 Y14.0504
G01 X28.2868 Y14.0712
G01 X28.2422 Y14.0801
G01 X28.1573 Y14.0927
G01 X28.1120 Y14.0972
G01 X28.0262 Y14.1014
G01 X27.9808 Y14.1014
G01 X27.8950 Y14.0972
G01 X27.8497 Y14.0927
G01 X27.7648 Y14.0801
G01 X27.7202 Y14.0712
G01 X27.6369 Y14.0504
G01 X27.5934 Y14.0372
G01 X27.5125 Y14.0082
G01 X27.4705 Y13.9908
G01 X27.3929 Y13.9541
G01 X27.3528 Y13.9327
G01 X27.2791 Y13.8885
G01 X27.2413 Y13.8633
G01 X27.1723 Y13.8121
G01 X27.1372 Y13.7833
G01 X27.0736 Y13.7256
G01 X27.0414 Y13.6934
G01 X26.9837 Y13.6298
G01 X26.9549 Y13.5947
G01 X26.9037 Y13.5257
G01 X26.8785 Y13.4879
G01 X26.8343 Y13.4142
G01 X26.8129 Y13.3741
G01 X26.7762 Y13.2965
G01 X26.7588 Y13.2545
G01 X26.7335 Y13.1839
G01 X26.7082 Y13.2545
G01 X26.6908 Y13.2965
G01 X26.6541 Y13.3741
G01 X26.6327 Y13.4142
G01 X26.5885 Y13.4879
G01 X26.5633 Y13.5257
G01 X26.5121 Y13.5947
G01 X26.4833 Y13.6298
G01 X26.4256 Y13.6934
G01 X26.3934 Y13.7256
G01 X26.3298 Y13.7833
G01 X26.2947 Y13.8121
G01 X26.2257 Y13.8633
G01 X26.1879 Y13.8885
G01 X26.1142 Y13.9327
G01 X26.0741 Y13.9541
G01 X25.9965 Y13.9908
G01 X25.9545 Y14.0082
G01 X25.8736 Y14.0372
G01 X25.8301 Y14.0504
G01 X25.7468 Y14.0712
G01 X25.7022 Y14.0801
G01 X25.6173 Y14.0927
G01 X25.5720 Y14.0972
G01 X25.4862 Y14.1014
G01 X25.4408 Y14.1014
G01 X25.3550 Y14.0972
G01 X25.3097 Y14.0927
G01 X25.2248 Y14.0801
G01 X25.1802 Y14.0712
G01 X25.0969 Y14.0504
G01 X25.0534 Y14.0372
G01 X24.9725 Y14.0082
G01 X24.9305 Y13.9908
G01 X24.8529 Y13.9541
G01 X24.8128 Y13.9327
G01 X24.7391 Y13.8885
G01 X24.7013 Y13.8633
G01 X24.6323 Y13.8121
G01 X24.5972 Y13.7833
G01 X24.5336 Y13.7256
G01 X24.5014 Y13.6934
G01 X24.4437 Y13.6298
G01 X24.4149 Y13.5947
G01 X24.3637 Y13.5257
G01 X24.3385 Y13.4879
G01 X24.2943 Y13.4142
G01 X24.2729 Y13.3741
G01 X24.2362 Y13.2965
G01 X24.2188 Y13.2545
G01 X24.1935 Y13.1839
G01 X24.1682 Y13.2545
G01 X24.1508 Y13.2965
G01 X24.1141 Y13.3741
G01 X24.0927 Y13.4142
G01 X24.0485 Y13.4879
G01 X24.0233 Y13.5257
G01 X23.9721 Y13.5947
G01 X23.9433 Y13.6298
G01 X23.8856 Y13.6934
G01 X23.8534 Y13.7256
G01 X23.7898 Y13.7833
G01 X23.7547 Y13.8121
G01 X23.6857 Y13.8633
G01 X23.6479 Y13.8885
G01 X23.5742 Y13.9327
G01 X23.5341 Y13.9541
G01 X23.4565 Y13.9908
G01 X23.4145 Y14.0082
G01 X23.3336 Y14.0372
G01 X23.2901 Y14.0504
G01 X23.2068 Y14.0712
G01 X23.1622 Y14.0801
G01 X23.0773 Y14.0927
G01 X23.0320 Y14.0972
G01 X22.9462 Y14.1014
G01 X22.9008 Y14.1014
G01 X22.8150 Y14.0972
G01 X22.7697 Y14.0927
G01 X22.6848 Y14.0801
G01 X22.6402 Y14.0712
G01 X22.5569 Y14.0504
G01 X22.5134 Y14.0372
G01 X22.4325 Y14.0082
G01 X22.3905 Y13.9908
G01 X22.3129 Y13.9541
G01 X22.2728 Y13.9327
G01 X22.1991 Y13.8885
G01 X22.1613 Y13.8633
G01 X22.0923 Y13.8121
G01 X22.0572 Y13.7833
G01 X21.9936 Y13.7256
G01 X21.9614 Y13.6934
G01 X21.9037 Y13.6298
G01 X21.8749 Y13.5947
G01 X21.8237 Y13.5257
G01 X21.7985 Y13.4879
G01 X21.7543 Y13.4142
G01 X21.7329 Y13.3741
G01 X21.6962 Y13.2965
G01 X21.6788 Y13.2545
G01 X21.6535 Y13.1839
G01 X21.6282 Y13.2545
G01 X21.6108 Y13.2965
G01 X21.5741 Y13.3741
G01 X21.5527 Y13.4142
G01 X21.5085 Y13.4879
G01 X21.4833 Y13.5257
G01 X21.4321 Y13.5947
G01 X21.4033 Y13.6298
G01 X21.3456 Y13.6934
G01 X21.3134 Y13.7256
G01 X21.2498 Y13.7833
G01 X21.2147 Y13.8121
G01 X21.1457 Y13.8633
G01 X21.1079 Y13.8885
G01 X21.0342 Y13.9327
G01 X20.9941 Y13.9541
G01 X20.9165 Y13.9908
G01 X20.8745 Y14.0082
G01 X20.7936 Y14.0372
G01 X20.7501 Y14.0504
G01 X20.6668 Y14.0712
G01 X20.6222 Y14.0801
G01 X20.5373 Y14.0927
G01 X20.4920 Y14.0972
G01 X20.4062 Y14.1014
G01 X20.3608 Y14.1014
G01 X20.2750 Y14.0972
G01 X20.2297 Y14.0927
G01 X20.1448 Y14.0801
G01 X20.1002 Y14.0712
G01 X20.0169 Y14.0504
G01 X19.9734 Y14.0372
G01 X19.8925 Y14.0082
G01 X19.8505 Y13.9908
G01 X19.7729 Y13.9541
G01 X19.7328 Y13.9327
G01 X19.6591 Y13.8885
G01 X19.6213 Y13.8633
G01 X19.5523 Y13.8121
G01 X19.5172 Y13.7833
G01 X19.4536 Y13.7256
G01 X19.4214 Y13.6934
G01 X19.3637 Y13.6298
G01 X19.3349 Y13.5947
G01 X19.2837 Y13.5257
G01 X19.2585 Y13.4879
G01 X19.2143 Y13.4142
G01 X19.1929 Y13.3741
G01 X19.1562 Y13.2965
G01 X19.1388 Y13.2545
G01 X19.1135 Y13.1839
G01 X19.0882 Y13.2545
G01 X19.0708 Y13.2965
G01 X19.0341 Y13.3741
G01 X19.0127 Y13.4142
G01 X18.9685 Y13.4879
G01 X18.9433 Y13.5257
G01 X18.8921 Y13.5947
G01 X18.8633 Y13.6298
G01 X18.8056 Y13.6934
G01 X18.7734 Y13.7256
G01 X18.7098 Y13.7833
G01 X18.6747 Y13.8121
G01 X18.6057 Y13.8633
G01 X18.5679 Y13.8885
G01 X18.4942 Y13.9327
G01 X18.4541 Y13.9541
G01 X18.3765 Y13.9908
G01 X18.3345 Y14.0082
G01 X18.2536 Y14.0372
G01 X18.2101 Y14.0504
G01 X18.1268 Y14.0712
G01 X18.0822 Y14.0801
G01 X17.9973 Y14.0927
G01 X17.9520 Y14.0972
G01 X17.8662 Y14.1014
G01 X17.8208 Y14.1014
G01 X17.7350 Y14.0972
G01 X17.6897 Y14.0927
G01 X17.6048 Y14.0801
G01 X17.5602 Y14.0712
G01 X17.4769 Y14.0504
G01 X17.4334 Y14.0372
G01 X17.3525 Y14.0082
G01 X17.3105 Y13.9908
G01 X17.2329 Y13.9541
G01 X17.1928 Y13.9327
G01 X17.1191 Y13.8885
G01 X17.0813 Y13.8633
G01 X17.0123 Y13.8121
G01 X16.9772 Y13.7833
G01 X16.9136 Y13.7256
G01 X16.8814 Y13.6934
G01 X16.8237 Y13.6298
G01 X16.7949 Y13.5947
G01 X16.7437 Y13.5257
G01 X16.7185 Y13.4879
G01 X16.6743 Y13.4142
G01 X16.6529 Y13.3741
G01 X16.6162 Y13.2965
G01 X16.5988 Y13.2545
G01 X16.5735 Y13.1839
G01 X16.5482 Y13.2545
G01 X16.5308 Y13.2965
G01 X16.4941 Y13.3741
G01 X16.4727 Y13.4142
G01 X16.4285 Y13.4879
G01 X16.4033 Y13.5257
G01 X16.3521 Y13.5947
G01 X16.3233 Y13.6298
G01 X16.2656 Y13.6934
G01 X16.2334 Y13.7256
G01 X16.1698 Y13.7833
G01 X16.1347 Y13.8121
G01 X16.0657 Y13.8633
G01 X16.0279 Y13.8885
G01 X15.9542 Y13.9327
G01 X15.9141 Y13.9541
G01 X15.8365 Y13.9908
G01 X15.7945 Y14.0082
G01 X15.7136 Y14.0372
G01 X15.6701 Y14.0504
G01 X15.5868 Y14.0712
G01 X15.5422 Y14.0801
G01 X15.4573 Y14.0927
G01 X15.4120 Y14.0972
G01 X15.3262 Y14.1014
G01 X15.2808 Y14.1014
G01 X15.1950 Y14.0972
G01 X15.1497 Y14.0927
G01 X15.0648 Y14.0801
G01 X15.0202 Y14.0712
G01 X14.9369 Y14.0504
G01 X14.8934 Y14.0372
G01 X14.8125 Y14.0082
G01 X14.7705 Y13.9908
G01 X14.6929 Y13.9541
G01 X14.6528 Y13.9327
G01 X14.5791 Y13.8885
G01 X14.5413 Y13.8633
G01 X14.4723 Y13.8121
G01 X14.4372 Y13.7833
G01 X14.3736 Y13.7256
G01 X14.3414 Y13.6934
G01 X14.2837 Y13.6298
G01 X14.2549 Y13.5947
G01 X14.2037 Y13.5257
G01 X14.1785 Y13.4879
G01 X14.1343 Y13.4142
G01 X14.1129 Y13.3741
G01 X14.0762 Y13.2965
G01 X14.0588 Y13.2545
G01 X14.0335 Y13.1839
G01 X14.0082 Y13.2545
G01 X13.9908 Y13.2965
G01 X13.9541 Y13.3741
G01 X13.9327 Y13.4142
G01 X13.8885 Y13.4879
G01 X13.8633 Y13.5257
G01 X13.8121 Y13.5947
G01 X13.7833 Y13.6298
G01 X13.7256 Y13.6934
G01 X13.6934 Y13.7256
G01 X13.6298 Y13.7833
G01 X13.5947 Y13.8121
G01 X13.5257 Y13.8633
G01 X13.4879 Y13.8885
G01 X13.4142 Y13.9327
G01 X13.3741 Y13.9541
G01 X13.2965 Y13.9908
G01 X13.2545 Y14.0082
G01 X13.1736 Y14.0372
G01 X13.1301 Y14.0504
G01 X13.0468 Y14.0712
G01 X13.0022 Y14.0801
G01 X12.9173 Y14.0927
G01 X12.8720 Y14.0972
G01 X12.7862 Y14.1014
G01 X12.7408 Y14.1014
G01 X12.6550 Y14.0972
G01 X12.6097 Y14.0927
G01 X12.5248 Y14.0801
G01 X12.4802 Y14.0712
G01 X12.3969 Y14.0504
G01 X12.3534 Y14.0372
G01 X12.2725 Y14.0082
G01 X12.2305 Y13.9908
G01 X12.1529 Y13.9541
G01 X12.1128 Y13.9327
G01 X12.0391 Y13.8885
G01 X12.0013 Y13.8633
G01 X11.9323 Y13.8121
G01 X11.8972 Y13.7833
G01 X11.8336 Y13.7256
G01 X11.8014 Y13.6934
G01 X11.7437 Y13.6298
G01 X11.7149 Y13.5947
G01 X11.6637 Y13.5257
G01 X11.6385 Y13.4879
G01 X11.5943 Y13.4142
G01 X11.5729 Y13.3741
G01 X11.5362 Y13.2965
G01 X11.5188 Y13.2545
G01 X11.4935 Y13.1839
G01 X11.4682 Y13.2545
G01 X11.4508 Y13.2965
G01 X11.4141 Y13.3741
G01 X11.3927 Y13.4142
G01 X11.3485 Y13.4879
G01 X11.3233 Y13.5257
G01 X11.2721 Y13.5947
G01 X11.2433 Y13.6298
G01 X11.1856 Y13.6934
G01 X11.1534 Y13.7256
G01 X11.0898 Y13.7833
G01 X11.0547 Y13.8121
G01 X10.9857 Y13.8633
G01 X10.9479 Y13.8885
G01 X10.8742 Y13.9327
G01 X10.8341 Y13.9541
G01 X10.7565 Y13.9908
G01 X10.7145 Y14.0082
G01 X10.6336 Y14.0372
G01 X10.5901 Y14.0504
G01 X10.5068 Y14.0712
G01 X10.4622 Y14.0801
G01 X10.3773 Y14.0927
G01 X10.3320 Y14.0972
G01 X10.2462 Y14.1014
G01 X10.2008 Y14.1014
G01 X10.1150 Y14.0972
G01 X10.0697 Y14.0927
G01 X9.9848 Y14.0801
G01 X9.9402 Y14.0712
G01 X9.8569 Y14.0504
G01 X9.8134 Y14.0372
G01 X9.7325 Y14.0082
G01 X9.6905 Y13.9908
G01 X9.6129 Y13.9541
G01 X9.5728 Y13.9327
G01 X9.4991 Y13.8885
G01 X9.4613 Y13.8633
G01 X9.3923 Y13.8121
G01 X9.3572 Y13.7833
G01 X9.2936 Y13.7256
G01 X9.2614 Y13.6934
G01 X9.2037 Y13.6298
G01 X9.1749 Y13.5947
G01 X9.1237 Y13.5257
G01 X9.0985 Y13.4879
G01 X9.0543 Y13.4142
G01 X9.0329 Y13.3741
G01 X8.9962 Y13.2965
G01 X8.9788 Y13.2545
G01 X8.9535 Y13.1839
G01 X8.9282 Y13.2545
G01 X8.9108 Y13.2965
G01 X8.8741 Y13.3741
G01 X8.8527 Y13.4142
G01 X8.8085 Y13.4879
G01 X8.7833 Y13.5257
G01 X8.7321 Y13.5947
G01 X8.7033 Y13.6298
G01 X8.6456 Y13.6934
G01 X8.6134 Y13.7256
G01 X8.5498 Y13.7833
G01 X8.5147 Y13.8121
G01 X8.4457 Y13.8633
G01 X8.4079 Y13.8885
G01 X8.3342 Y13.9327
G01 X8.2941 Y13.9541
G01 X8.2165 Y13.9908
G01 X8.1745 Y14.0082
G01 X8.0936 Y14.0372
G01 X8.0501 Y14.0504
G01 X7.9668 Y14.0712
G01 X7.9222 Y14.0801
G01 X7.8373 Y14.0927
G01 X7.7920 Y14.0972
G01 X7.7062 Y14.1014
G01 X7.6608 Y14.1014
G01 X7.5750 Y14.0972
G01 X7.5297 Y14.0927
G01 X7.4448 Y14.0801
G01 X7.4002 Y14.0712
G01 X7.3169 Y14.0504
G01 X7.2734 Y14.0372
G01 X7.1925 Y14.0082
G01 X7.1505 Y13.9908
G01 X7.0729 Y13.9541
G01 X7.0328 Y13.9327
G01 X6.9591 Y13.8885
G01 X6.9213 Y13.8633
G01 X6.8523 Y13.8121
G01 X6.8172 Y13.7833
G01 X6.7536 Y13.7256
G01 X6.7214 Y13.6934
G01 X6.6637 Y13.6298
G01 X6.6349 Y13.5947
G01 X6.5837 Y13.5257
G01 X6.5585 Y13.4879
G01 X6.5143 Y13.4142
G01 X6.4929 Y13.3741
G01 X6.4562 Y13.2965
G01 X6.4388 Y13.2545
G01 X6.4135 Y13.1839
G01 X6.3882 Y13.2545
G01 X6.3708 Y13.2965
G01 X6.3341 Y13.3741
G01 X6.3127 Y13.4142
G01 X6.2685 Y13.4879
G01 X6.2433 Y13.5257
G01 X6.1921 Y13.5947
G01 X6.1633 Y13.6298
G01 X6.1056 Y13.6934
G01 X6.0734 Y13.7256
G01 X6.0098 Y13.7833
G01 X5.9747 Y13.8121
G01 X5.9057 Y13.8633
G01 X5.8679 Y13.8885
G01 X5.7942 Y13.9327
G01 X5.7541 Y13.9541
G01 X5.6765 Y13.9908
G01 X5.6345 Y14.0082
G01 X5.5536 Y14.0372
G01 X5.5101 Y14.0504
G01 X5.4268 Y14.0712
G01 X5.3822 Y14.0801
G01 X5.2973 Y14.0927
G01 X5.2520 Y14.0972
G01 X5.1662 Y14.1014
G01 X5.1208 Y14.1014
G01 X5.0350 Y14.0972
G01 X4.9897 Y14.0927
G01 X4.9048 Y14.0801
G01 X4.8602 Y14.0712
G01 X4.7769 Y14.0504
G01 X4.7334 Y14.0372
G01 X4.6525 Y14.0082
G01 X4.6105 Y13.9908
G01 X4.5329 Y13.9541
G01 X4.4928 Y13.9327
G01 X4.4191 Y13.8885
G01 X4.3813 Y13.8633
G01 X4.3123 Y13.8121
G01 X4.2772 Y13.7833
G01 X4.2136 Y13.7256
G01 X4.1814 Y13.6934
G01 X4.1237 Y13.6298
G01 X4.0949 Y13.5947
G01 X4.0437 Y13.5257
G01 X4.0185 Y13.4879
G01 X3.9743 Y13.4142
G01 X3.9529 Y13.3741
G01 X3.9162 Y13.2965
G01 X3.8988 Y13.2545
G01 X3.8698 Y13.1736
G01 X3.8566 Y13.1301
G01 X3.8358 Y13.0468
G01 X3.8269 Y13.0022
G01 X3.8143 Y12.9173
G01 X3.8098 Y12.8720
G01 X3.8056 Y12.7862
G01 X3.8056 Y12.7408
G01 X3.8098 Y12.6550
G01 X3.8143 Y12.6097
G01 X3.8269 Y12.5248
G01 X3.8358 Y12.4802
G01 X3.8566 Y12.3969
G01 X3.8698 Y12.3534
G01 X3.8988 Y12.2725
G01 X3.9162 Y12.2305
G01 X3.9529 Y12.1529
G01 X3.9743 Y12.1128
G01 X4.0185 Y12.0391
G01 X4.0437 Y12.0013
G01 X4.0949 Y11.9323
G01 X4.1237 Y11.8972
G01 X4.1799 Y11.8353
G01 X4.1799 Y11.1517
G01 X4.1237 Y11.0898
G01 X4.0949 Y11.0547
G01 X4.0437 Y10.9857
G01 X4.0185 Y10.9479
G01 X3.9743 Y10.8742
G01 X3.9529 Y10.8341
G01 X3.9162 Y10.7565
G01 X3.8988 Y10.7145
G01 X3.8698 Y10.6336
G01 X3.8566 Y10.5901
G01 X3.8358 Y10.5068
G01 X3.8269 Y10.4622
G01 X3.8143 Y10.3773
G01 X3.8098 Y10.3320
G01 X3.8056 Y10.2462
G01 X3.8056 Y10.2008
G01 X3.8098 Y10.1150
G01 X3.8143 Y10.0697
G01 X3.8269 Y9.9848
G01 X3.8358 Y9.9402
G01 X3.8566 Y9.8569
G01 X3.8698 Y9.8134
G01 X3.8988 Y9.7325
G01 X3.9162 Y9.6905
G01 X3.9529 Y9.6129
G01 X3.9743 Y9.5728
G01 X4.0185 Y9.4991
G01 X4.0437 Y9.4613
G01 X4.0949 Y9.3923
G01 X4.1237 Y9.3572
G01 X4.1814 Y9.2936
G01 X4.2136 Y9.2614
G01 X4.2772 Y9.2037
G01 X4.3123 Y9.1749
G01 X4.3813 Y9.1237
G01 X4.4191 Y9.0985
G01 X4.4928 Y9.0543
G01 X4.5329 Y9.0329
G01 X4.6105 Y8.9962
G01 X4.6525 Y8.9788
G01 X4.7231 Y8.9535
G01 X4.6525 Y8.9282
G01 X4.6105 Y8.9108
G01 X4.5329 Y8.8741
G01 X4.4928 Y8.8527
G01 X4.4191 Y8.8085
G01 X4.3813 Y8.7833
G01 X4.3123 Y8.7321
G01 X4.2772 Y8.7033
G01 X4.2136 Y8.6456
G01 X4.1814 Y8.6134
G01 X4.1237 Y8.5498
G01 X4.0949 Y8.5147
G01 X4.0437 Y8.4457
G01 X4.0185 Y8.4079
G01 X3.9743 Y8.3342
G01 X3.9529 Y8.2941
G01 X3.9162 Y8.2165
G01 X3.8988 Y8.1745
G01 X3.8698 Y8.0936
G01 X3.8566 Y8.0501
G01 X3.8358 Y7.9668
G01 X3.8269 Y7.9222
G01 X3.8143 Y7.8373
G01 X3.8098 Y7.7920
G01 X3.8056 Y7.7062
G01 X3.8056 Y7.6608
G01 X3.8098 Y7.5750
G01 X3.8143 Y7.5297
G01 X3.8269 Y7.4448
G01 X3.8358 Y7.4002
G01 X3.8566 Y7.3169
G01 X3.8698 Y7.2734
G01 X3.8988 Y7.1925
G01 X3.9162 Y7.1505
G01 X3.9529 Y7.0729
G01 X3.9743 Y7.0328
G01 X4.0185 Y6.9591
G01 X4.0437 Y6.9213
G01 X4.0949 Y6.8523
G01 X4.1237 Y6.8172
G01 X4.1799 Y6.7553
G00 Z2.0000
G00 X4.4778 Y6.8841
G01 F60.00
G01 Z-0.2001
G01 F320.00
G01 X4.4778 Y5.9429
G01 X4.4136 Y5.8849
G01 X4.4021 Y5.8734
G01 X4.3445 Y5.8098
G01 X4.3342 Y5.7972
G01 X4.2830 Y5.7282
G01 X4.2740 Y5.7147
G01 X4.2298 Y5.6411
G01 X4.2222 Y5.6267
G01 X4.1855 Y5.5491
G01 X4.1793 Y5.5341
G01 X4.1503 Y5.4533
G01 X4.1456 Y5.4377
G01 X4.1247 Y5.3544
G01 X4.1216 Y5.3385
G01 X4.1090 Y5.2536
G01 X4.1074 Y5.2374
G01 X4.1032 Y5.1516
G01 X4.1032 Y5.1354
G01 X4.1074 Y5.0496
G01 X4.1090 Y5.0334
G01 X4.1216 Y4.9485
G01 X4.1247 Y4.9326
G01 X4.1456 Y4.8493
G01 X4.1503 Y4.8337
G01 X4.1793 Y4.7529
G01 X4.1855 Y4.7379
G01 X4.2222 Y4.6603
G01 X4.2298 Y4.6459
G01 X4.2740 Y4.5723
G01 X4.2830 Y4.5588
G01 X4.3342 Y4.4898
G01 X4.3445 Y4.4772
G01 X4.4021 Y4.4136
G01 X4.4136 Y4.4021
G01 X4.4772 Y4.3445
G01 X4.4898 Y4.3342
G01 X4.5588 Y4.2830
G01 X4.5723 Y4.2740
G01 X4.6459 Y4.2298
G01 X4.6603 Y4.2222
G01 X4.7379 Y4.1855
G01 X4.7529 Y4.1793
G01 X4.8337 Y4.1503
G01 X4.8493 Y4.1456
G01 X4.9326 Y4.1247
G01 X4.9485 Y4.1216
G01 X5.0334 Y4.1090
G01 X5.0496 Y4.1074
G01 X5.1354 Y4.1032
G01 X5.1516 Y4.1032
G01 X5.2374 Y4.1074
G01 X5.2536 Y4.1090
G01 X5.3385 Y4.1216
G01 X5.3544 Y4.1247
G01 X5.4377 Y4.1456
G01 X5.4533 Y4.1503
G01 X5.5341 Y4.1793
G01 X5.5491 Y4.1855
G01 X5.6267 Y4.2222
G01 X5.6411 Y4.2298
G01 X5.7147 Y4.2740
G01 X5.7282 Y4.2830
G01 X5.7972 Y4.3342
G01 X5.8098 Y4.3445
G01 X5.8734 Y4.4021
G01 X5.8849 Y4.4136
G01 X5.9425 Y4.4772
G01 X5.9528 Y4.4898
G01 X6.0040 Y4.5588
G01 X6.0130 Y4.5723
G01 X6.0572 Y4.6459
G01 X6.0648 Y4.6603
G01 X6.1015 Y4.7379
G01 X6.1077 Y4.7529
G01 X6.1367 Y4.8337
G01 X6.1414 Y4.8493
G01 X6.1623 Y4.9326
G01 X6.1654 Y4.9485
G01 X6.1780 Y5.0334
G01 X6.1796 Y5.0496
G01 X6.1838 Y5.1354
G01 X6.1838 Y5.1516
G01 X6.1796 Y5.2374
G01 X6.1780 Y5.2536
G01 X6.1654 Y5.3385
G01 X6.1623 Y5.3544
G01 X6.1414 Y5.4377
G01 X6.1367 Y5.4533
G01 X6.1077 Y5.5341
G01 X6.1015 Y5.5491
G01 X6.0648 Y5.6267
G01 X6.0572 Y5.6411
G01 X6.0130 Y5.7147
G01 X6.0040 Y5.7282
G01 X5.9528 Y5.7972
G01 X5.9425 Y5.8098
G01 X5.8849 Y5.8734
G01 X5.8734 Y5.8849
G01 X5.8092 Y5.9429
G01 X5.8092 Y6.8841
G01 X5.8734 Y6.9421
G01 X5.8849 Y6.9536
G01 X5.9425 Y7.0172
G01 X5.9528 Y7.0298
G01 X6.0040 Y7.0988
G01 X6.0130 Y7.1123
G01 X6.0572 Y7.1859
G01 X6.0648 Y7.2003
G01 X6.1015 Y7.2779
G01 X6.1077 Y7.2929
G01 X6.1367 Y7.3737
G01 X6.1414 Y7.3893
G01 X6.1623 Y7.4726
G01 X6.1654 Y7.4885
G01 X6.1780 Y7.5734
G01 X6.1796 Y7.5896
G01 X6.1838 Y7.6754
G01 X6.1838 Y7.6916
G01 X6.1796 Y7.7774
G01 X6.1780 Y7.7936
G01 X6.1654 Y7.8785
G01 X6.1623 Y7.8944
G01 X6.1414 Y7.9777
G01 X6.1367 Y7.9933
G01 X6.1077 Y8.0741
G01 X6.1015 Y8.0891
G01 X6.0648 Y8.1667
G01 X6.0572 Y8.1811
G01 X6.0130 Y8.2547
G01 X6.0040 Y8.2682
G01 X5.9528 Y8.3372
G01 X5.9425 Y8.3498
G01 X5.8849 Y8.4134
G01 X5.8734 Y8.4249
G01 X5.8098 Y8.4825
G01 X5.7972 Y8.4928
G01 X5.7282 Y8.5440
G01 X5.7147 Y8.5530
G01 X5.6411 Y8.5972
G01 X5.6267 Y8.6048
G01 X5.5491 Y8.6415
G01 X5.5341 Y8.6477
G01 X5.4533 Y8.6767
G01 X5.4377 Y8.6814
G01 X5.3544 Y8.7023
G01 X5.3385 Y8.7054
G01 X5.2536 Y8.7180
G01 X5.2374 Y8.7196
G01 X5.1516 Y8.7238
G01 X5.1354 Y8.7238
G01 X5.0496 Y8.7196
G01 X5.0334 Y8.7180
G01 X4.9485 Y8.7054
G01 X4.9326 Y8.7023
G01 X4.8493 Y8.6814
G01 X4.8337 Y8.6767
G01 X4.7529 Y8.6477
G01 X4.7379 Y8.6415
G01 X4.6603 Y8.6048
G01 X4.6459 Y8.5972
G01 X4.5723 Y8.5530
G01 X4.5588 Y8.5440
G01 X4.4898 Y8.4928
G01 X4.4772 Y8.4825
G01 X4.4136 Y8.4249
G01 X4.4021 Y8.4134
G01 X4.3445 Y8.3498
G01 X4.3342 Y8.3372
G01 X4.2830 Y8.2682
G01 X4.2740 Y8.2547
G01 X4.2298 Y8.1811
G01 X4.2222 Y8.1667
G01 X4.1855 Y8.0891
G01 X4.1793 Y8.0741
G01 X4.1503 Y7.9933
G01 X4.1456 Y7.9777
G01 X4.1247 Y7.8944
G01 X4.1216 Y7.8785
G01 X4.1090 Y7.7936
G01 X4.1074 Y7.7774
G01 X4.1032 Y7.6916
G01 X4.1032 Y7.6754
G01 X4.1074 Y7.5896
G01 X4.1090 Y7.5734
G01 X4.1216 Y7.4885
G01 X4.1247 Y7.4726
G01 X4.1456 Y7.3893
G01 X4.1503 Y7.3737
G01 X4.1793 Y7.2929
G01 X4.1855 Y7.2779
G01 X4.2222 Y7.2003
G01 X4.2298 Y7.1859
G01 X4.2740 Y7.1123
G01 X4.2830 Y7.0988
G01 X4.3342 Y7.0298
G01 X4.3445 Y7.0172
G01 X4.4021 Y6.9536
G01 X4.4136 Y6.9421
G01 X4.4778 Y6.8841
G00 Z2.0000
G00 X6.4220 Y6.6428
G01 F60.00
G01 Z-0.2001
G01 F320.00
G01 X6.4135 Y6.6531
G01 X6.4050 Y6.6428
G01 X6.4050 Y6.1842
G01 X6.4135 Y6.1739
G01 X6.4220 Y6.1842
G01 X6.4220 Y6.6428
G00 Z2.0000
G00 X6.4135 Y7.2631
G01 F60.00
G01 Z-0.2001
G01 F320.00
G01 X6.3882 Y7.1925
G01 X6.3708 Y7.1505
G01 X6.3341 Y7.0729
G01 X6.3127 Y7.0328
G01 X6.2685 Y6.9591
G01 X6.2433 Y6.9213
G01 X6.1921 Y6.8523
G01 X6.1633 Y6.8172
G01 X6.1071 Y6.7553
G01 X6.1071 Y6.0717
G01 X6.1633 Y6.0098
G01 X6.1921 Y5.9747
G01 X6.2433 Y5.9057
G01 X6.2685 Y5.8679
G01 X6.3127 Y5.7942
G01 X6.3341 Y5.7541
G01 X6.3708 Y5.6765
G01 X6.3882 Y5.6345
G01 X6.4135 Y5.5639
G01 X6.4388 Y5.6345
G01 X6.4562 Y5.6765
G01 X6.4929 Y5.7541
G01 X6.5143 Y5.7942
G01 X6.5585 Y5.8679
G01 X6.5837 Y5.9057
G01 X6.6349 Y5.9747
G01 X6.6637 Y6.0098
G01 X6.7199 Y6.0717
G01 X6.7199 Y6.7553
G01 X6.6637 Y6.8172
G01 X6.6349 Y6.8523
G01 X6.5837 Y6.9213
G01 X6.5585 Y6.9591
G01 X6.5143 Y7.0328
G01 X6.4929 Y7.0729
G01 X6.4562 Y7.1505
G01 X6.4388 Y7.1925
G01 X6.4135 Y7.2631
G00 Z2.0000
G00 X7.0178 Y6.8841
G01 F60.00
G01 Z-0.2001
G01 F320.00
G01 X7.0178 Y5.9429
G01 X6.9536 Y5.8849
G01 X6.9421 Y5.8734
G01 X6.8845 Y5.8098
G01 X6.8742 Y5.7972
G01 X6.8230 Y5.7282
G01 X6.8140 Y5.7147
G01 X6.7698 Y5.6411
G01 X6.7622 Y5.6267
G01 X6.7255 Y5.5491
G01 X6.7193 Y5.5341
G01 X6.6903 Y5.4533
G01 X6.6856 Y5.4377
G01 X6.6647 Y5.3544
G01 X6.6616 Y5.3385
G01 X6.6490 Y5.2536
G01 X6.6474 Y5.2374
G01 X6.6432 Y5.1516
G01 X6.6432 Y5.1354
G01 X6.6474 Y5.0496
G01 X6.6490 Y5.0334
G01 X6.6616 Y4.9485
G01 X6.6647 Y4.9326
G01 X6.6856 Y4.8493
G01 X6.6903 Y4.8337
G01 X6.7193 Y4.7529
G01 X6.7255 Y4.7379
G01 X6.7622 Y4.6603
G01 X6.7698 Y4.6459
G01 X6.8140 Y4.5723
G01 X6.8230 Y4.5588
G01 X6.8742 Y4.4898
G01 X6.8845 Y4.4772
G01 X6.9421 Y4.4136
G01 X6.9536 Y4.4021
G01 X7.0172 Y4.3445
G01 X7.0298 Y4.3342
G01 X7.0988 Y4.2830
G01 X7.1123 Y4.2740
G01 X7.1859 Y4.2298
G01 X7.2003 Y4.2222
G01 X7.2779 Y4.1855
G01 X7.2929 Y4.1793
G01 X7.3737 Y4.1503
G01 X7.3893 Y4.1456
G01 X7.4726 Y4.1247
G01 X7.4885 Y4.1216
G01 X7.5734 Y4.1090
G01 X7.5896 Y4.1074
G01 X7.6754 Y4.1032
G01 X7.6916 Y4.1032
G01 X7.7774 Y4.1074
G01 X7.7936 Y4.1090
G01 X7.8785 Y4.1216
G01 X7.8944 Y4.1247
G01 X7.9777 Y4.1456
G01 X7.9933 Y4.1503
G01 X8.0741 Y4.1793
G01 X8.0891 Y4.1855
G01 X8.1667 Y4.2222
G01 X8.1811 Y4.2298
G01 X8.2547 Y4.2740
G01 X8.2682 Y4.2830
G01 X8.3372 Y4.3342
G01 X8.3498 Y4.3445
G01 X8.4134 Y4.4021
G01 X8.4249 Y4.4136
G01 X8.4825 Y4.4772
G01 X8.4928 Y4.4898
G01 X8.5440 Y4.5588
G01 X8.5530 Y4.5723
G01 X8.5972 Y4.6459
G01 X8.6048 Y4.6603
G01 X8.6415 Y4.7379
G01 X8.6477 Y4.7529
G01 X8.6767 Y4.8337
G01 X8.6814 Y4.8493
G01 X8.7023 Y4.9326
G01 X8.7054 Y4.9485
G01 X8.7180 Y5.0334
G01 X8.7196 Y5.0496
G01 X8.7238 Y5.1354
G01 X8.7238 Y5.1516
G01 X8.7196 Y5.2374
G01 X8.7180 Y5.2536
G01 X8.7054 Y5.3385
G01 X8.7023 Y5.3544
G01 X8.6814 Y5.4377
G01 X8.6767 Y5.4533
G01 X8.6477 Y5.5341
G01 X8.6415 Y5.5491
G01 X8.6048 Y5.6267
G01 X8.5972 Y5.6411
G01 X8.5530 Y5.7147
G01 X8.5440 Y5.7282
G01 X8.4928 Y5.7972
G01 X8.4825 Y5.8098
G01 X8.4249 Y5.8734
G01 X8.4134 Y5.8849
G01 X8.3492 Y5.9429
G01 X8.3492 Y6.8841
G01 X8.4134 Y6.9421
G01 X8.4249 Y6.9536
G01 X8.4825 Y7.0172
G01 X8.4928 Y7.0298
G01 X8.5440 Y7.0988
G01 X8.5530 Y7.1123
G01 X8.5972 Y7.1859
G01 X8.6048 Y7.2003
G01 X8.6415 Y7.2779
G01 X8.6477 Y7.2929
G01 X8.6767 Y7.3737
G01 X8.6814 Y7.3893
G01 X8.7023 Y7.4726
G01 X8.7054 Y7.4885
G01 X8.7180 Y7.5734
G01 X8.7196 Y7.5896
G01 X8.7238 Y7.6754
G01 X8.7238 Y7.6916
G01 X8.7196 Y7.7774
G01 X8.7180 Y7.7936
G01 X8.7054 Y7.8785
G01 X8.7023 Y7.8944
G01 X8.6814 Y7.9777
G01 X8.6767 Y7.9933
G01 X8.6477 Y8.0741
G01 X8.6415 Y8.0891
G01 X8.6048 Y8.1667
G01 X8.5972 Y8.1811
G01 X8.5530 Y8.2547
G01 X8.5440 Y8.2682
G01 X8.4928 Y8.3372
G01 X8.4825 Y8.3498
G01 X8.4249 Y8.4134
G01 X8.4134 Y8.4249
G01 X8.3498 Y8.4825
G01 X8.3372 Y8.4928
G01 X8.2682 Y8.5440
G01 X8.2547 Y8.5530
G01 X8.1811 Y8.5972
G01 X8.1667 Y8.6048
G01 X8.0891 Y8.6415
G01 X8.0741 Y8.6477
G01 X7.9933 Y8.6767
G01 X7.9777 Y8.6814
G01 X7.8944 Y8.7023
G01 X7.8785 Y8.7054
G01 X7.7936 Y8.7180
G01 X7.7774 Y8.7196
G01 X7.6916 Y8.7238
G01 X7.6754 Y8.7238
G01 X7.5896 Y8.7196
G01 X7.5734 Y8.7180
G01 X7.4885 Y8.7054
G01 X7.4726 Y8.7023
G01 X7.3893 Y8.6814
G01 X7.3737 Y8.6767
G01 X7.2929 Y8.6477
G01 X7.2779 Y8.6415
G01 X7.2003 Y8.6048
G01 X7.1859 Y8.5972
G01 X7.1123 Y8.5530
G01 X7.0988 Y8.5440
G01 X7.0298 Y8.4928
G01 X7.0172 Y8.4825
G01 X6.9536 Y8.4249
G01 X6.9421 Y8.4134
G01 X6.8845 Y8.3498
G01 X6.8742 Y8.3372
G01 X6.8230 Y8.2682
G01 X6.8140 Y8.2547
G01 X6.7698 Y8.1811
G01 X6.7622 Y8.1667
G01 X6.7255 Y8.0891
G01 X6.7193 Y8.0741
G01 X6.6903 Y7.9933
G01 X6.6856 Y7.9777
G01 X6.6647 Y7.8944
G01 X6.6616 Y7.8785
G01 X6.6490 Y7.7936
G01 X6.6474 Y7.7774
G01 X6.6432 Y7.6916
G01 X6.6432 Y7.6754
G01 X6.6474 Y7.5896
G01 X6.6490 Y7.5734
G01 X6.6616 Y7.4885
G01 X6.6647 Y7.4726
G01 X6.6856 Y7.3893
G01 X6.6903 Y7.3737
G01 X6.7193 Y7.2929
G01 X6.7255 Y7.2779
G01 X6.7622 Y7.2003
G01 X6.7698 Y7.1859
G01 X6.8140 Y7.1123
G01 X6.8230 Y7.0988
G01 X6.8742 Y7.0298
G01 X6.8845 Y7.0172
G01 X6.9421 Y6.9536
G01 X6.9536 Y6.9421
G01 X7.0178 Y6.8841
G00 Z2.0000
G00 X6.4135 Y8.7139
G01 F60.00
G01 Z-0.2001
G01 F320.00
G01 X6.4430 Y8.7499
G01 X6.5007 Y8.8135
G01 X6.5535 Y8.8663
G01 X6.6171 Y8.9240
G01 X6.6531 Y8.9535
G01 X6.6171 Y8.9830
G01 X6.5535 Y9.0407
G01 X6.5007 Y9.0935
G01 X6.4430 Y9.1571
G01 X6.4135 Y9.1931
G01 X6.3840 Y9.1571
G01 X6.3263 Y9.0935
G01 X6.2735 Y9.0407
G01 X6.2099 Y8.9830
G01 X6.1739 Y8.9535
G01 X6.2099 Y8.9240
G01 X6.2735 Y8.8663
G01 X6.3263 Y8.8135
G01 X6.3840 Y8.7499
G01 X6.4135 Y8.7139
G00 Z2.0000
G00 X5.5639 Y8.9535
G01 F60.00
G01 Z-0.2001
G01 F320.00
G01 X5.6345 Y8.9282
G01 X5.6765 Y8.9108
G01 X5.7541 Y8.8741
G01 X5.7942 Y8.8527
G01 X5.8679 Y8.8085
G01 X5.9057 Y8.7833
G01 X5.9747 Y8.7321
G01 X6.0098 Y8.7033
G01 X6.0734 Y8.6456
G01 X6.1056 Y8.6134
G01 X6.1633 Y8.5498
G01 X6.1921 Y8.5147
G01 X6.2433 Y8.4457
G01 X6.2685 Y8.4079
G01 X6.3127 Y8.3342
G01 X6.3341 Y8.2941
G01 X6.3708 Y8.2165
G01 X6.3882 Y8.1745
G01 X6.4135 Y8.1039
G01 X6.4388 Y8.1745
G01 X6.4562 Y8.2165
G01 X6.4929 Y8.2941
G01 X6.5143 Y8.3342
G01 X6.5585 Y8.4079
G01 X6.5837 Y8.4457
G01 X6.6349 Y8.5147
G01 X6.6637 Y8.5498
G01 X6.7214 Y8.6134
G01 X6.7536 Y8.6456
G01 X6.8172 Y8.7033
G01 X6.8523 Y8.7321
G01 X6.9213 Y8.7833
G01 X6.9591 Y8.8085
G01 X7.0328 Y8.8527
G01 X7.0729 Y8.8741
G01 X7.1505 Y8.9108
G01 X7.1925 Y8.9282
G01 X7.2631 Y8.9535
G01 X7.1925 Y8.9788
G01 X7.1505 Y8.9962
G01 X7.0729 Y9.0329
G01 X7.0328 Y9.0543
G01 X6.9591 Y9.0985
G01 X6.9213 Y9.1237
G01 X6.8523 Y9.1749
G01 X6.8172 Y9.2037
G01 X6.7536 Y9.2614
G01 X6.7214 Y9.2936
G01 X6.6637 Y9.3572
G01 X6.6349 Y9.3923
G01 X6.5837 Y9.4613
G01 X6.5585 Y9.4991
G01 X6.5143 Y9.5728
G01 X6.4929 Y9.6129
G01 X6.4562 Y9.6905
G01 X6.4388 Y9.7325
G01 X6.4135 Y9.8031
G01 X6.3882 Y9.7325
G01 X6.3708 Y9.6905
G01 X6.3341 Y9.6129
G01 X6.3127 Y9.5728
G01 X6.2685 Y9.4991
G01 X6.2433 Y9.4613
G01 X6.1921 Y9.3923
G01 X6.1633 Y9.3572
G01 X6.1056 Y9.2936
G01 X6.0734 Y9.2614
G01 X6.0098 Y9.2037
G01 X5.9747 Y9.1749
G01 X5.9057 Y9.1237
G01 X5.8679 Y9.0985
G01 X5.7942 Y9.0543
G01 X5.7541 Y9.0329
G01 X5.6765 Y8.9962
G01 X5.6345 Y8.9788
G01 X5.5639 Y8.9535
G00 Z2.0000
G00 X8.1039 Y8.9535
G01 F60.00
G01 Z-0.2001
G01 F320.00
G01 X8.1745 Y8.9282
G01 X8.2165 Y8.9108
G01 X8.2941 Y8.8741
G01 X8.3342 Y8.8527
G01 X8.4079 Y8.8085
G01 X8.4457 Y8.7833
G01 X8.5147 Y8.7321
G01 X8.5498 Y8.7033
G01 X8.6134 Y8.6456
G01 X8.6456 Y8.6134
G01 X8.7033 Y8.5498
G01 X8.7321 Y8.5147
G01 X8.7833 Y8.4457
G01 X8.8085 Y8.4079
G01 X8.8527 Y8.3342
G01 X8.8741 Y8.2941
G01 X8.9108 Y8.2165
G01 X8.9282 Y8.1745
G01 X8.9535 Y8.1039
G01 X8.9788 Y8.1745
G01 X8.9962 Y8.2165
G01 X9.0329 Y8.2941
G01 X9.0543 Y8.3342
G01 X9.0985 Y8.4079
G01 X9.1237 Y8.4457
G01 X9.1749 Y8.5147
G01 X9.2037 Y8.5498
G01 X9.2614 Y8.6134
G01 X9.2936 Y8.6456
G01 X9.3572 Y8.7033
G01 X9.3923 Y8.7321
G01 X9.4613 Y8.7833
G01 X9.4991 Y8.8085
G01 X9.5728 Y8.8527
G01 X9.6129 Y8.8741
G01 X9.6905 Y8.9108
G01 X9.7325 Y8.9282
G01 X9.8031 Y8.9535
G01 X9.7325 Y8.9788
G01 X9.6905 Y8.9962
G01 X9.6129 Y9.0329
G01 X9.5728 Y9.0543
G01 X9.4991 Y9.0985
G01 X9.4613 Y9.1237
G01 X9.3923 Y9.1749
G01 X9.3572 Y9.2037
G01 X9.2936 Y9.2614
G01 X9.2614 Y9.2936
G01 X9.2037 Y9.3572
G01 X9.1749 Y9.3923
G01 X9.1237 Y9.4613
G01 X9.0985 Y9.4991
G01 X9.0543 Y9.5728
G01 X9.0329 Y9.6129
G01 X8.9962 Y9.6905
G01 X8.9788 Y9.7325
G01 X8.9535 Y9.8031
G01 X8.9282 Y9.7325
G01 X8.9108 Y9.6905
G01 X8.8741 Y9.6129
G01 X8.8527 Y9.5728
G01 X8.8085 Y9.4991
G01 X8.7833 Y9.4613
G01 X8.7321 Y9.3923
G01 X8.7033 Y9.3572
G01 X8.6456 Y9.2936
G01 X8.6134 Y9.2614
G01 X8.5498 Y9.2037
G01 X8.5147 Y9.1749
G01 X8.4457 Y9.1237
G01 X8.4079 Y9.0985
G01 X8.3342 Y9.0543
G01 X8.2941 Y9.0329
G01 X8.2165 Y8.9962
G01 X8.1745 Y8.9788
G01 X8.1039 Y8.9535
G00 Z2.0000
G00 X8.7139 Y8.9535
G01 F60.00
G01 Z-0.2001
G01 F320.00
G01 X8.7499 Y8.9240
G01 X8.8135 Y8.8663
G01 X8.8663 Y8.8135
G01 X8.9240 Y8.7499
G01 X8.9535 Y8.7139
G01 X8.9830 Y8.7499
G01 X9.0407 Y8.8135
G01 X9.0935 Y8.8663
G01 X9.1571 Y8.9240
G01 X9.1931 Y8.9535
G01 X9.1571 Y8.9830
G01 X9.0935 Y9.0407
G01 X9.0407 Y9.0935
G01 X8.9830 Y9.1571
G01 X8.9535 Y9.1931
G01 X8.9240 Y9.1571
G01 X8.8663 Y9.0935
G01 X8.8135 Y9.0407
G01 X8.7499 Y8.9830
G01 X8.7139 Y8.9535
G00 Z2.0000
G00 X8.9535 Y7.2631
G01 F60.00
G01 Z-0.2001
G01 F320.00
G01 X8.9282 Y7.1925
G01 X8.9108 Y7.1505
G01 X8.8741 Y7.0729
G01 X8.8527 Y7.0328
G01 X8.8085 Y6.9591
G01 X8.7833 Y6.9213
G01 X8.7321 Y6.8523
G01 X8.7033 Y6.8172
G01 X8.6471 Y6.7553
G01 X8.6471 Y6.0717
G01 X8.7033 Y6.0098
G01 X8.7321 Y5.9747
G01 X8.7833 Y5.9057
G01 X8.8085 Y5.8679
G01 X8.8527 Y5.7942
G01 X8.8741 Y5.7541
G01 X8.9108 Y5.6765
G01 X8.9282 Y5.6345
G01 X8.9535 Y5.5639
G01 X8.9788 Y5.6345
G01 X8.9962 Y5.6765
G01 X9.0329 Y5.7541
G01 X9.0543 Y5.7942
G01 X9.0985 Y5.8679
G01 X9.1237 Y5.9057
G01 X9.1749 Y5.9747
G01 X9.2037 Y6.0098
G01 X9.2599 Y6.0717
G01 X9.2599 Y6.7553
G01 X9.2037 Y6.8172
G01 X9.1749 Y6.8523
G01 X9.1237 Y6.9213
G01 X9.0985 Y6.9591
G01 X9.0543 Y7.0328
G01 X9.0329 Y7.0729
G01 X8.9962 Y7.1505
G01 X8.9788 Y7.1925
G01 X8.9535 Y7.2631
G00 Z2.0000
G00 X8.9535 Y6.6531
G01 F60.00
G01 Z-0.2001
G01 F320.00
G01 X8.9450 Y6.6428
G01 X8.9450 Y6.1842
G01 X8.9535 Y6.1739
G01 X8.9620 Y6.1842
G01 X8.9620 Y6.6428
G01 X8.9535 Y6.6531
G00 Z2.0000
G00 X9.5578 Y6.8841
G01 F60.00
G01 Z-0.2001
G01 F320.00
G01 X9.5578 Y5.9429
G01 X9.4936 Y5.8849
G01 X9.4821 Y5.8734
G01 X9.4245 Y5.8098
G01 X9.4142 Y5.7972
G01 X9.3630 Y5.7282
G01 X9.3540 Y5.7147
G01 X9.3098 Y5.6411
G01 X9.3022 Y5.6267
G01 X9.2655 Y5.5491
G01 X9.2593 Y5.5341
G01 X9.2303 Y5.4533
G01 X9.2256 Y5.4377
G01 X9.2047 Y5.3544
G01 X9.2016 Y5.3385
G01 X9.1890 Y5.2536
G01 X9.1874 Y5.2374
G01 X9.1832 Y5.1516
G01 X9.1832 Y5.1354
G01 X9.1874 Y5.0496
G01 X9.1890 Y5.0334
G01 X9.2016 Y4.9485
G01 X9.2047 Y4.9326
G01 X9.2256 Y4.8493
G01 X9.2303 Y4.8337
G01 X9.2593 Y4.7529
G01 X9.2655 Y4.7379
G01 X9.3022 Y4.6603
G01 X9.3098 Y4.6459
G01 X9.3540 Y4.5723
G01 X9.3630 Y4.5588
G01 X9.4142 Y4.4898
G01 X9.4245 Y4.4772
G01 X9.4821 Y4.4136
G01 X9.4936 Y4.4021
G01 X9.5572 Y4.3445
G01 X9.5698 Y4.3342
G01 X9.6388 Y4.2830
G01 X9.6523 Y4.2740
G01 X9.7259 Y4.2298
G01 X9.7403 Y4.2222
G01 X9.8179 Y4.1855
G01 X9.8329 Y4.1793
G01 X9.9137 Y4.1503
G01 X9.9293 Y4.1456
G01 X10.0126 Y4.1247
G01 X10.0285 Y4.1216
G01 X10.1134 Y4.1090
G01 X10.1296 Y4.1074
G01 X10.2154 Y4.1032
G01 X10.2316 Y4.1032
G01 X10.3174 Y4.1074
G01 X10.3336 Y4.1090
G01 X10.4185 Y4.1216
G01 X10.4344 Y4.1247
G01 X10.5177 Y4.1456
G01 X10.5333 Y4.1503
G01 X10.6141 Y4.1793
G01 X10.6291 Y4.1855
G01 X10.7067 Y4.2222
G01 X10.7211 Y4.2298
G01 X10.7947 Y4.2740
G01 X10.8082 Y4.2830
G01 X10.8772 Y4.3342
G01 X10.8898 Y4.3445
G01 X10.9534 Y4.4021
G01 X10.9649 Y4.4136
G01 X11.0225 Y4.4772
G01 X11.0328 Y4.4898
G01 X11.0840 Y4.5588
G01 X11.0930 Y4.5723
G01 X11.1372 Y4.6459
G01 X11.1448 Y4.6603
G01 X11.1815 Y4.7379
G01 X11.1877 Y4.7529
G01 X11.2167 Y4.8337
G01 X11.2214 Y4.8493
G01 X11.2423 Y4.9326
G01 X11.2454 Y4.9485
G01 X11.2580 Y5.0334
G01 X11.2596 Y5.0496
G01 X11.2638 Y5.1354
G01 X11.2638 Y5.1516
G01 X11.2596 Y5.2374
G01 X11.2580 Y5.2536
G01 X11.2454 Y5.3385
G01 X11.2423 Y5.3544
G01 X11.2214 Y5.4377
G01 X11.2167 Y5.4533
G01 X11.1877 Y5.5341
G01 X11.1815 Y5.5491
G01 X11.1448 Y5.6267
G01 X11.1372 Y5.6411
G01 X11.0930 Y5.7147
G01 X11.0840 Y5.7282
G01 X11.0328 Y5.7972
G01 X11.0225 Y5.8098
G01 X10.9649 Y5.8734
G01 X10.9534 Y5.8849
G01 X10.8892 Y5.9429
G01 X10.8892 Y6.8841
G01 X10.9534 Y6.9421
G01 X10.9649 Y6.9536
G01 X11.0225 Y7.0172
G01 X11.0328 Y7.0298
G01 X11.0840 Y7.0988
G01 X11.0930 Y7.1123
G01 X11.1372 Y7.1859
G01 X11.1448 Y7.2003
G01 X11.1815 Y7.2779
G01 X11.1877 Y7.2929
G01 X11.2167 Y7.3737
G01 X11.2214 Y7.3893
G01 X11.2423 Y7.4726
G01 X11.2454 Y7.4885
G01 X11.2580 Y7.5734
G01 X11.2596 Y7.5896
G01 X11.2638 Y7.6754
G01 X11.2638 Y7.6916
G01 X11.2596 Y7.7774
G01 X11.2580 Y7.7936
G01 X11.2454 Y7.8785
G01 X11.2423 Y7.8944
G01 X11.2214 Y7.9777
G01 X11.2167 Y7.9933
G01 X11.1877 Y8.0741
G01 X11.1815 Y8.0891
G01 X11.1448 Y8.1667
G01 X11.1372 Y8.1811
G01 X11.0930 Y8.2547
G01 X11.0840 Y8.2682
G01 X11.0328 Y8.3372
G01 X11.0225 Y8.3498
G01 X10.9649 Y8.4134
G01 X10.9534 Y8.4249
G01 X10.8898 Y8.4825
G01 X10.8772 Y8.4928
G01 X10.8082 Y8.5440
G01 X10.7947 Y8.5530
G01 X10.7211 Y8.5972
G01 X10.7067 Y8.6048
G01 X10.6291 Y8.6415
G01 X10.6141 Y8.6477
G01 X10.5333 Y8.6767
G01 X10.5177 Y8.6814
G01 X10.4344 Y8.7023
G01 X10.4185 Y8.7054
G01 X10.3336 Y8.7180
G01 X10.3174 Y8.7196
G01 X10.2316 Y8.7238
G01 X10.2154 Y8.7238
G01 X10.1296 Y8.7196
G01 X10.1134 Y8.7180
G01 X10.0285 Y8.7054
G01 X10.0126 Y8.7023
G01 X9.9293 Y8.6814
G01 X9.9137 Y8.6767
G01 X9.8329 Y8.6477
G01 X9.8179 Y8.6415
G01 X9.7403 Y8.6048
G01 X9.7259 Y8.5972
G01 X9.6523 Y8.5530
G01 X9.6388 Y8.5440
G01 X9.5698 Y8.4928
G01 X9.5572 Y8.4825
G01 X9.4936 Y8.4249
G01 X9.4821 Y8.4134
G01 X9.4245 Y8.3498
G01 X9.4142 Y8.3372
G01 X9.3630 Y8.2682
G01 X9.3540 Y8.2547
G01 X9.3098 Y8.1811
G01 X9.3022 Y8.1667
G01 X9.2655 Y8.0891
G01 X9.2593 Y8.0741
G01 X9.2303 Y7.9933
G01 X9.2256 Y7.9777
G01 X9.2047 Y7.8944
G01 X9.2016 Y7.8785
G01 X9.1890 Y7.7936
G01 X9.1874 Y7.7774
G01 X9.1832 Y7.6916
G01 X9.1832 Y7.6754
G01 X9.1874 Y7.5896
G01 X9.1890 Y7.5734
G01 X9.2016 Y7.4885
G01 X9.2047 Y7.4726
G01 X9.2256 Y7.3893
G01 X9.2303 Y7.3737
G01 X9.2593 Y7.2929
G01 X9.2655 Y7.2779
G01 X9.3022 Y7.2003
G01 X9.3098 Y7.1859
G01 X9.3540 Y7.1123
G01 X9.3630 Y7.0988
G01 X9.4142 Y7.0298
G01 X9.4245 Y7.0172
G01 X9.4821 Y6.9536
G01 X9.4936 Y6.9421
G01 X9.5578 Y6.8841
G00 Z2.0000
G00 X11.4935 Y6.6531
G01 F60.00
G01 Z-0.2001
G01 F320.00
G01 X11.4850 Y6.6428
G01 X11.4850 Y6.1842
G01 X11.4935 Y6.1739
G01 X11.5020 Y6.1842
G01 X11.5020 Y6.6428
G01 X11.4935 Y6.6531
G00 Z2.0000
G00 X11.4935 Y7.2631
G01 F60.00
G01 Z-0.2001
G01 F320.00
G01 X11.4682 Y7.1925
G01 X11.4508 Y7.1505
G01 X11.4141 Y7.0729
G01 X11.3927 Y7.0328
G01 X11.3485 Y6.9591
G01 X11.3233 Y6.9213
G01 X11.2721 Y6.8523
G01 X11.2433 Y6.8172
G01 X11.1871 Y6.7553
G01 X11.1871 Y6.0717
G01 X11.2433 Y6.0098
G01 X11.2721 Y5.9747
G01 X11.3233 Y5.9057
G01 X11.3485 Y5.8679
G01 X11.3927 Y5.7942
G01 X11.4141 Y5.7541
G01 X11.4508 Y5.6765
G01 X11.4682 Y5.6345
G01 X11.4935 Y5.5639
G01 X11.5188 Y5.6345
G01 X11.5362 Y5.6765
G01 X11.5729 Y5.7541
G01 X11.5943 Y5.7942
G01 X11.6385 Y5.8679
G01 X11.6637 Y5.9057
G01 X11.7149 Y5.9747
G01 X11.7437 Y6.0098
G01 X11.7999 Y6.0717
G01 X11.7999 Y6.7553
G01 X11.7437 Y6.8172
G01 X11.7149 Y6.8523
G01 X11.6637 Y6.9213
G01 X11.6385 Y6.9591
G01 X11.5943 Y7.0328
G01 X11.5729 Y7.0729
G01 X11.5362 Y7.1505
G01 X11.5188 Y7.1925
G01 X11.4935 Y7.2631
G00 Z2.0000
G00 X12.0978 Y6.8841
G01 F60.00
G01 Z-0.2001
G01 F320.00
G01 X12.0978 Y5.9429
G01 X12.0336 Y5.8849
G01 X12.0221 Y5.8734
G01 X11.9645 Y5.8098
G01 X11.9542 Y5.7972
G01 X11.9030 Y5.7282
G01 X11.8940 Y5.7147
G01 X11.8498 Y5.6411
G01 X11.8422 Y5.6267
G01 X11.8055 Y5.5491
G01 X11.7993 Y5.5341
G01 X11.7703 Y5.4533
G01 X11.7656 Y5.4377
G01 X11.7447 Y5.3544
G01 X11.7416 Y5.3385
G01 X11.7290 Y5.2536
G01 X11.7274 Y5.2374
G01 X11.7232 Y5.1516
G01 X11.7232 Y5.1354
G01 X11.7274 Y5.0496
G01 X11.7290 Y5.0334
G01 X11.7416 Y4.9485
G01 X11.7447 Y4.9326
G01 X11.7656 Y4.8493
G01 X11.7703 Y4.8337
G01 X11.7993 Y4.7529
G01 X11.8055 Y4.7379
G01 X11.8422 Y4.6603
G01 X11.8498 Y4.6459
G01 X11.8940 Y4.5723
G01 X11.9030 Y4.5588
G01 X11.9542 Y4.4898
G01 X11.9645 Y4.4772
G01 X12.0221 Y4.4136
G01 X12.0336 Y4.4021
G01 X12.0972 Y4.3445
G01 X12.1098 Y4.3342
G01 X12.1788 Y4.2830
G01 X12.1923 Y4.2740
G01 X12.2659 Y4.2298
G01 X12.2803 Y4.2222
G01 X12.3579 Y4.1855
G01 X12.3729 Y4.1793
G01 X12.4537 Y4.1503
G01 X12.4693 Y4.1456
G01 X12.5526 Y4.1247
G01 X12.5685 Y4.1216
G01 X12.6534 Y4.1090
G01 X12.6696 Y4.1074
G01 X12.7554 Y4.1032
G01 X12.7716 Y4.1032
G01 X12.8574 Y4.1074
G01 X12.8736 Y4.1090
G01 X12.9585 Y4.1216
G01 X12.9744 Y4.1247
G01 X13.0577 Y4.1456
G01 X13.0733 Y4.1503
G01 X13.1541 Y4.1793
G01 X13.1691 Y4.1855
G01 X13.2467 Y4.2222
G01 X13.2611 Y4.2298
G01 X13.3347 Y4.2740
G01 X13.3482 Y4.2830
G01 X13.4172 Y4.3342
G01 X13.4298 Y4.3445
G01 X13.4934 Y4.4021
G01 X13.5049 Y4.4136
G01 X13.5625 Y4.4772
G01 X13.5728 Y4.4898
G01 X13.6240 Y4.5588
G01 X13.6330 Y4.5723
G01 X13.6772 Y4.6459
G01 X13.6848 Y4.6603
G01 X13.7215 Y4.7379
G01 X13.7277 Y4.7529
G01 X13.7567 Y4.8337
G01 X13.7614 Y4.8493
G01 X13.7823 Y4.9326
G01 X13.7854 Y4.9485
G01 X13.7980 Y5.0334
G01 X13.7996 Y5.0496
G01 X13.8038 Y5.1354
G01 X13.8038 Y5.1516
G01 X13.7996 Y5.2374
G01 X13.7980 Y5.2536
G01 X13.7854 Y5.3385
G01 X13.7823 Y5.3544
G01 X13.7614 Y5.4377
G01 X13.7567 Y5.4533
G01 X13.7277 Y5.5341
G01 X13.7215 Y5.5491
G01 X13.6848 Y5.6267
G01 X13.6772 Y5.6411
G01 X13.6330 Y5.7147
G01 X13.6240 Y5.7282
G01 X13.5728 Y5.7972
G01 X13.5625 Y5.8098
G01 X13.5049 Y5.8734
G01 X13.4934 Y5.8849
G01 X13.4292 Y5.9429
G01 X13.4292 Y6.8841
G01 X13.4934 Y6.9421
G01 X13.5049 Y6.9536
G01 X13.5625 Y7.0172
G01 X13.5728 Y7.0298
G01 X13.6240 Y7.0988
G01 X13.6330 Y7.1123
G01 X13.6772 Y7.1859
G01 X13.6848 Y7.2003
G01 X13.7215 Y7.2779
G01 X13.7277 Y7.2929
G01 X13.7567 Y7.3737
G01 X13.7614 Y7.3893
G01 X13.7823 Y7.4726
G01 X13.7854 Y7.4885
G01 X13.7980 Y7.5734
G01 X13.7996 Y7.5896
G01 X13.8038 Y7.6754
G01 X13.8038 Y7.6916
G01 X13.7996 Y7.7774
G01 X13.7980 Y7.7936
G01 X13.7854 Y7.8785
G01 X13.7823 Y7.8944
G01 X13.7614 Y7.9777
G01 X13.7567 Y7.9933
G01 X13.7277 Y8.0741
G01 X13.7215 Y8.0891
G01 X13.6848 Y8.1667
G01 X13.6772 Y8.1811
G01 X13.6330 Y8.2547
G01 X13.6240 Y8.2682
G01 X13.5728 Y8.3372
G01 X13.5625 Y8.3498
G01 X13.5049 Y8.4134
G01 X13.4934 Y8.4249
G01 X13.4298 Y8.4825
G01 X13.4172 Y8.4928
G01 X13.3482 Y8.5440
G01 X13.3347 Y8.5530
G01 X13.2611 Y8.5972
G01 X13.2467 Y8.6048
G01 X13.1691 Y8.6415
G01 X13.1541 Y8.6477
G01 X13.0733 Y8.6767
G01 X13.0577 Y8.6814
G01 X12.9744 Y8.7023
G01 X12.9585 Y8.7054
G01 X12.8736 Y8.7180
G01 X12.8574 Y8.7196
G01 X12.7716 Y8.7238
G01 X12.7554 Y8.7238
G01 X12.6696 Y8.7196
G01 X12.6534 Y8.7180
G01 X12.5685 Y8.7054
G01 X12.5526 Y8.7023
G01 X12.4693 Y8.6814
G01 X12.4537 Y8.6767
G01 X12.3729 Y8.6477
G01 X12.3579 Y8.6415
G01 X12.2803 Y8.6048
G01 X12.2659 Y8.5972
G01 X12.1923 Y8.5530
G01 X12.1788 Y8.5440
G01 X12.1098 Y8.4928
G01 X12.0972 Y8.4825
G01 X12.0336 Y8.4249
G01 X12.0221 Y8.4134
G01 X11.9645 Y8.3498
G01 X11.9542 Y8.3372
G01 X11.9030 Y8.2682
G01 X11.8940 Y8.2547
G01 X11.8498 Y8.1811
G01 X11.8422 Y8.1667
G01 X11.8055 Y8.0891
G01 X11.7993 Y8.0741
G01 X11.7703 Y7.9933
G01 X11.7656 Y7.9777
G01 X11.7447 Y7.8944
G01 X11.7416 Y7.8785
G01 X11.7290 Y7.7936
G01 X11.7274 Y7.7774
G01 X11.7232 Y7.6916
G01 X11.7232 Y7.6754
G01 X11.7274 Y7.5896
G01 X11.7290 Y7.5734
G01 X11.7416 Y7.4885
G01 X11.7447 Y7.4726
G01 X11.7656 Y7.3893
G01 X11.7703 Y7.3737
G01 X11.7993 Y7.2929
G01 X11.8055 Y7.2779
G01 X11.8422 Y7.2003
G01 X11.8498 Y7.1859
G01 X11.8940 Y7.1123
G01 X11.9030 Y7.0988
G01 X11.9542 Y7.0298
G01 X11.9645 Y7.0172
G01 X12.0221 Y6.9536
G01 X12.0336 Y6.9421
G01 X12.0978 Y6.8841
G00 Z2.0000
G00 X14.0335 Y6.6531
G01 F60.00
G01 Z-0.2001
G01 F320.00
G01 X14.0250 Y6.6428
G01 X14.0250 Y6.1842
G01 X14.0335 Y6.1739
G01 X14.0420 Y6.1842
G01 X14.0420 Y6.6428
G01 X14.0335 Y6.6531
G00 Z2.0000
G00 X14.3399 Y6.7553
G01 F60.00
G01 Z-0.2001
G01 F320.00
G01 X14.2837 Y6.8172
G01 X14.2549 Y6.8523
G01 X14.2037 Y6.9213
G01 X14.1785 Y6.9591
G01 X14.1343 Y7.0328
G01 X14.1129 Y7.0729
G01 X14.0762 Y7.1505
G01 X14.0588 Y7.1925
G01 X14.0335 Y7.2631
G01 X14.0082 Y7.1925
G01 X13.9908 Y7.1505
G01 X13.9541 Y7.0729
G01 X13.9327 Y7.0328
G01 X13.8885 Y6.9591
G01 X13.8633 Y6.9213
G01 X13.8121 Y6.8523
G01 X13.7833 Y6.8172
G01 X13.7271 Y6.7553
G01 X13.7271 Y6.0717
G01 X13.7833 Y6.0098
G01 X13.8121 Y5.9747
G01 X13.8633 Y5.9057
G01 X13.8885 Y5.8679
G01 X13.9327 Y5.7942
G01 X13.9541 Y5.7541
G01 X13.9908 Y5.6765
G01 X14.0082 Y5.6345
G01 X14.0335 Y5.5639
G01 X14.0588 Y5.6345
G01 X14.0762 Y5.6765
G01 X14.1129 Y5.7541
G01 X14.1343 Y5.7942
G01 X14.1785 Y5.8679
G01 X14.2037 Y5.9057
G01 X14.2549 Y5.9747
G01 X14.2837 Y6.0098
G01 X14.3399 Y6.0717
G01 X14.3399 Y6.7553
G00 Z2.0000
G00 X14.6378 Y6.8841
G01 F60.00
G01 Z-0.2001
G01 F320.00
G01 X14.6378 Y5.9429
G01 X14.5736 Y5.8849
G01 X14.5621 Y5.8734
G01 X14.5045 Y5.8098
G01 X14.4942 Y5.7972
G01 X14.4430 Y5.7282
G01 X14.4340 Y5.7147
G01 X14.3898 Y5.6411
G01 X14.3822 Y5.6267
G01 X14.3455 Y5.5491
G01 X14.3393 Y5.5341
G01 X14.3103 Y5.4533
G01 X14.3056 Y5.4377
G01 X14.2847 Y5.3544
G01 X14.2816 Y5.3385
G01 X14.2690 Y5.2536
G01 X14.2674 Y5.2374
G01 X14.2632 Y5.1516
G01 X14.2632 Y5.1354
G01 X14.2674 Y5.0496
G01 X14.2690 Y5.0334
G01 X14.2816 Y4.9485
G01 X14.2847 Y4.9326
G01 X14.3056 Y4.8493
G01 X14.3103 Y4.8337
G01 X14.3393 Y4.7529
G01 X14.3455 Y4.7379
G01 X14.3822 Y4.6603
G01 X14.3898 Y4.6459
G01 X14.4340 Y4.5723
G01 X14.4430 Y4.5588
G01 X14.4942 Y4.4898
G01 X14.5045 Y4.4772
G01 X14.5621 Y4.4136
G01 X14.5736 Y4.4021
G01 X14.6372 Y4.3445
G01 X14.6498 Y4.3342
G01 X14.7188 Y4.2830
G01 X14.7323 Y4.2740
G01 X14.8059 Y4.2298
G01 X14.8203 Y4.2222
G01 X14.8979 Y4.1855
G01 X14.9129 Y4.1793
G01 X14.9937 Y4.1503
G01 X15.0093 Y4.1456
G01 X15.0926 Y4.1247
G01 X15.1085 Y4.1216
G01 X15.1934 Y4.1090
G01 X15.2096 Y4.1074
G01 X15.2954 Y4.1032
G01 X15.3116 Y4.1032
G01 X15.3974 Y4.1074
G01 X15.4136 Y4.1090
G01 X15.4985 Y4.1216
G01 X15.5144 Y4.1247
G01 X15.5977 Y4.1456
G01 X15.6133 Y4.1503
G01 X15.6941 Y4.1793
G01 X15.7091 Y4.1855
G01 X15.7867 Y4.2222
G01 X15.8011 Y4.2298
G01 X15.8747 Y4.2740
G01 X15.8882 Y4.2830
G01 X15.9572 Y4.3342
G01 X15.9698 Y4.3445
G01 X16.0334 Y4.4021
G01 X16.0449 Y4.4136
G01 X16.1025 Y4.4772
G01 X16.1128 Y4.4898
G01 X16.1640 Y4.5588
G01 X16.1730 Y4.5723
G01 X16.2172 Y4.6459
G01 X16.2248 Y4.6603
G01 X16.2615 Y4.7379
G01 X16.2677 Y4.7529
G01 X16.2967 Y4.8337
G01 X16.3014 Y4.8493
G01 X16.3223 Y4.9326
G01 X16.3254 Y4.9485
G01 X16.3380 Y5.0334
G01 X16.3396 Y5.0496
G01 X16.3438 Y5.1354
G01 X16.3438 Y5.1516
G01 X16.3396 Y5.2374
G01 X16.3380 Y5.2536
G01 X16.3254 Y5.3385
G01 X16.3223 Y5.3544
G01 X16.3014 Y5.4377
G01 X16.2967 Y5.4533
G01 X16.2677 Y5.5341
G01 X16.2615 Y5.5491
G01 X16.2248 Y5.6267
G01 X16.2172 Y5.6411
G01 X16.1730 Y5.7147
G01 X16.1640 Y5.7282
G01 X16.1128 Y5.7972
G01 X16.1025 Y5.8098
G01 X16.0449 Y5.8734
G01 X16.0334 Y5.8849
G01 X15.9692 Y5.9429
G01 X15.9692 Y6.8841
G01 X16.0334 Y6.9421
G01 X16.0449 Y6.9536
G01 X16.1025 Y7.0172
G01 X16.1128 Y7.0298
G01 X16.1640 Y7.0988
G01 X16.1730 Y7.1123
G01 X16.2172 Y7.1859
G01 X16.2248 Y7.2003
G01 X16.2615 Y7.2779
G01 X16.2677 Y7.2929
G01 X16.2967 Y7.3737
G01 X16.3014 Y7.3893
G01 X16.3223 Y7.4726
G01 X16.3254 Y7.4885
G01 X16.3380 Y7.5734
G01 X16.3396 Y7.5896
G01 X16.3438 Y7.6754
G01 X16.3438 Y7.6916
G01 X16.3396 Y7.7774
G01 X16.3380 Y7.7936
G01 X16.3254 Y7.8785
G01 X16.3223 Y7.8944
G01 X16.3014 Y7.9777
G01 X16.2967 Y7.9933
G01 X16.2677 Y8.0741
G01 X16.2615 Y8.0891
G01 X16.2248 Y8.1667
G01 X16.2172 Y8.1811
G01 X16.1730 Y8.2547
G01 X16.1640 Y8.2682
G01 X16.1128 Y8.3372
G01 X16.1025 Y8.3498
G01 X16.0449 Y8.4134
G01 X16.0334 Y8.4249
G01 X15.9698 Y8.4825
G01 X15.9572 Y8.4928
G01 X15.8882 Y8.5440
G01 X15.8747 Y8.5530
G01 X15.8011 Y8.5972
G01 X15.7867 Y8.6048
G01 X15.7091 Y8.6415
G01 X15.6941 Y8.6477
G01 X15.6133 Y8.6767
G01 X15.5977 Y8.6814
G01 X15.5144 Y8.7023
G01 X15.4985 Y8.7054
G01 X15.4136 Y8.7180
G01 X15.3974 Y8.7196
G01 X15.3116 Y8.7238
G01 X15.2954 Y8.7238
G01 X15.2096 Y8.7196
G01 X15.1934 Y8.7180
G01 X15.1085 Y8.7054
G01 X15.0926 Y8.7023
G01 X15.0093 Y8.6814
G01 X14.9937 Y8.6767
G01 X14.9129 Y8.6477
G01 X14.8979 Y8.6415
G01 X14.8203 Y8.6048
G01 X14.8059 Y8.5972
G01 X14.7323 Y8.5530
G01 X14.7188 Y8.5440
G01 X14.6498 Y8.4928
G01 X14.6372 Y8.4825
G01 X14.5736 Y8.4249
G01 X14.5621 Y8.4134
G01 X14.5045 Y8.3498
G01 X14.4942 Y8.3372
G01 X14.4430 Y8.2682
G01 X14.4340 Y8.2547
G01 X14.3898 Y8.1811
G01 X14.3822 Y8.1667
G01 X14.3455 Y8.0891
G01 X14.3393 Y8.0741
G01 X14.3103 Y7.9933
G01 X14.3056 Y7.9777
G01 X14.2847 Y7.8944
G01 X14.2816 Y7.8785
G01 X14.2690 Y7.7936
G01 X14.2674 Y7.7774
G01 X14.2632 Y7.6916
G01 X14.2632 Y7.6754
G01 X14.2674 Y7.5896
G01 X14.2690 Y7.5734
G01 X14.2816 Y7.4885
G01 X14.2847 Y7.4726
G01 X14.3056 Y7.3893
G01 X14.3103 Y7.3737
G01 X14.3393 Y7.2929
G01 X14.3455 Y7.2779
G01 X14.3822 Y7.2003
G01 X14.3898 Y7.1859
G01 X14.4340 Y7.1123
G01 X14.4430 Y7.0988
G01 X14.4942 Y7.0298
G01 X14.5045 Y7.0172
G01 X14.5621 Y6.9536
G01 X14.5736 Y6.9421
G01 X14.6378 Y6.8841
G00 Z2.0000
G00 X16.5735 Y6.6531
G01 F60.00
G01 Z-0.2001
G01 F320.00
G01 X16.5650 Y6.6428
G01 X16.5650 Y6.1842
G01 X16.5735 Y6.1739
G01 X16.5820 Y6.1842
G01 X16.5820 Y6.6428
G01 X16.5735 Y6.6531
G00 Z2.0000
G00 X16.5735 Y7.2631
G01 F60.00
G01 Z-0.2001
G01 F320.00
G01 X16.5482 Y7.1925
G01 X16.5308 Y7.1505
G01 X16.4941 Y7.0729
G01 X16.4727 Y7.0328
G01 X16.4285 Y6.9591
G01 X16.4033 Y6.9213
G01 X16.3521 Y6.8523
G01 X16.3233 Y6.8172
G01 X16.2671 Y6.7553
G01 X16.2671 Y6.0717
G01 X16.3233 Y6.0098
G01 X16.3521 Y5.9747
G01 X16.4033 Y5.9057
G01 X16.4285 Y5.8679
G01 X16.4727 Y5.7942
G01 X16.4941 Y5.7541
G01 X16.5308 Y5.6765
G01 X16.5482 Y5.6345
G01 X16.5735 Y5.5639
G01 X16.5988 Y5.6345
G01 X16.6162 Y5.6765
G01 X16.6529 Y5.7541
G01 X16.6743 Y5.7942
G01 X16.7185 Y5.8679
G01 X16.7437 Y5.9057
G01 X16.7949 Y5.9747
G01 X16.8237 Y6.0098
G01 X16.8799 Y6.0717
G01 X16.8799 Y6.7553
G01 X16.8237 Y6.8172
G01 X16.7949 Y6.8523
G01 X16.7437 Y6.9213
G01 X16.7185 Y6.9591
G01 X16.6743 Y7.0328
G01 X16.6529 Y7.0729
G01 X16.6162 Y7.1505
G01 X16.5988 Y7.1925
G01 X16.5735 Y7.2631
G00 Z2.0000
G00 X17.1778 Y6.8841
G01 F60.00
G01 Z-0.2001
G01 F320.00
G01 X17.1778 Y5.9429
G01 X17.1136 Y5.8849
G01 X17.1021 Y5.8734
G01 X17.0445 Y5.8098
G01 X17.0342 Y5.7972
G01 X16.9830 Y5.7282
G01 X16.9740 Y5.7147
G01 X16.9298 Y5.6411
G01 X16.9222 Y5.6267
G01 X16.8855 Y5.5491
G01 X16.8793 Y5.5341
G01 X16.8503 Y5.4533
G01 X16.8456 Y5.4377
G01 X16.8247 Y5.3544
G01 X16.8216 Y5.3385
G01 X16.8090 Y5.2536
G01 X16.8074 Y5.2374
G01 X16.8032 Y5.1516
G01 X16.8032 Y5.1354
G01 X16.8074 Y5.0496
G01 X16.8090 Y5.0334
G01 X16.8216 Y4.9485
G01 X16.8247 Y4.9326
G01 X16.8456 Y4.8493
G01 X16.8503 Y4.8337
G01 X16.8793 Y4.7529
G01 X16.8855 Y4.7379
G01 X16.9222 Y4.6603
G01 X16.9298 Y4.6459
G01 X16.9740 Y4.5723
G01 X16.9830 Y4.5588
G01 X17.0342 Y4.4898
G01 X17.0445 Y4.4772
G01 X17.1021 Y4.4136
G01 X17.1136 Y4.4021
G01 X17.1772 Y4.3445
G01 X17.1898 Y4.3342
G01 X17.2588 Y4.2830
G01 X17.2723 Y4.2740
G01 X17.3459 Y4.2298
G01 X17.3603 Y4.2222
G01 X17.4379 Y4.1855
G01 X17.4529 Y4.1793
G01 X17.5337 Y4.1503
G01 X17.5493 Y4.1456
G01 X17.6326 Y4.1247
G01 X17.6485 Y4.1216
G01 X17.7334 Y4.1090
G01 X17.7496 Y4.1074
G01 X17.8354 Y4.1032
G01 X17.8516 Y4.1032
G01 X17.9374 Y4.1074
G01 X17.9536 Y4.1090
G01 X18.0385 Y4.1216
G01 X18.0544 Y4.1247
G01 X18.1377 Y4.1456
G01 X18.1533 Y4.1503
G01 X18.2341 Y4.1793
G01 X18.2491 Y4.1855
G01 X18.3267 Y4.2222
G01 X18.3411 Y4.2298
G01 X18.4147 Y4.2740
G01 X18.4282 Y4.2830
G01 X18.4972 Y4.3342
G01 X18.5098 Y4.3445
G01 X18.5734 Y4.4021
G01 X18.5849 Y4.4136
G01 X18.6425 Y4.4772
G01 X18.6528 Y4.4898
G01 X18.7040 Y4.5588
G01 X18.7130 Y4.5723
G01 X18.7572 Y4.6459
G01 X18.7648 Y4.6603
G01 X18.8015 Y4.7379
G01 X18.8077 Y4.7529
G01 X18.8367 Y4.8337
G01 X18.8414 Y4.8493
G01 X18.8623 Y4.9326
G01 X18.8654 Y4.9485
G01 X18.8780 Y5.0334
G01 X18.8796 Y5.0496
G01 X18.8838 Y5.1354
G01 X18.8838 Y5.1516
G01 X18.8796 Y5.2374
G01 X18.8780 Y5.2536
G01 X18.8654 Y5.3385
G01 X18.8623 Y5.3544
G01 X18.8414 Y5.4377
G01 X18.8367 Y5.4533
G01 X18.8077 Y5.5341
G01 X18.8015 Y5.5491
G01 X18.7648 Y5.6267
G01 X18.7572 Y5.6411
G01 X18.7130 Y5.7147
G01 X18.7040 Y5.7282
G01 X18.6528 Y5.7972
G01 X18.6425 Y5.8098
G01 X18.5849 Y5.8734
G01 X18.5734 Y5.8849
G01 X18.5092 Y5.9429
G01 X18.5092 Y6.8841
G01 X18.5734 Y6.9421
G01 X18.5849 Y6.9536
G01 X18.6425 Y7.0172
G01 X18.6528 Y7.0298
G01 X18.7040 Y7.0988
G01 X18.7130 Y7.1123
G01 X18.7572 Y7.1859
G01 X18.7648 Y7.2003
G01 X18.8015 Y7.2779
G01 X18.8077 Y7.2929
G01 X18.8367 Y7.3737
G01 X18.8414 Y7.3893
G01 X18.8623 Y7.4726
G01 X18.8654 Y7.4885
G01 X18.8780 Y7.5734
G01 X18.8796 Y7.5896
G01 X18.8838 Y7.6754
G01 X18.8838 Y7.6916
G01 X18.8796 Y7.7774
G01 X18.8780 Y7.7936
G01 X18.8654 Y7.8785
G01 X18.8623 Y7.8944
G01 X18.8414 Y7.9777
G01 X18.8367 Y7.9933
G01 X18.8077 Y8.0741
G01 X18.8015 Y8.0891
G01 X18.7648 Y8.1667
G01 X18.7572 Y8.1811
G01 X18.7130 Y8.2547
G01 X18.7040 Y8.2682
G01 X18.6528 Y8.3372
G01 X18.6425 Y8.3498
G01 X18.5849 Y8.4134
G01 X18.5734 Y8.4249
G01 X18.5098 Y8.4825
G01 X18.4972 Y8.4928
G01 X18.4282 Y8.5440
G01 X18.4147 Y8.5530
G01 X18.3411 Y8.5972
G01 X18.3267 Y8.6048
G01 X18.2491 Y8.6415
G01 X18.2341 Y8.6477
G01 X18.1533 Y8.6767
G01 X18.1377 Y8.6814
G01 X18.0544 Y8.7023
G01 X18.0385 Y8.7054
G01 X17.9536 Y8.7180
G01 X17.9374 Y8.7196
G01 X17.8516 Y8.7238
G01 X17.8354 Y8.7238
G01 X17.7496 Y8.7196
G01 X17.7334 Y8.7180
G01 X17.6485 Y8.7054
G01 X17.6326 Y8.7023
G01 X17.5493 Y8.6814
G01 X17.5337 Y8.6767
G01 X17.4529 Y8.6477
G01 X17.4379 Y8.6415
G01 X17.3603 Y8.6048
G01 X17.3459 Y8.5972
G01 X17.2723 Y8.5530
G01 X17.2588 Y8.5440
G01 X17.1898 Y8.4928
G01 X17.1772 Y8.4825
G01 X17.1136 Y8.4249
G01 X17.1021 Y8.4134
G01 X17.0445 Y8.3498
G01 X17.0342 Y8.3372
G01 X16.9830 Y8.2682
G01 X16.9740 Y8.2547
G01 X16.9298 Y8.1811
G01 X16.9222 Y8.1667
G01 X16.8855 Y8.0891
G01 X16.8793 Y8.0741
G01 X16.8503 Y7.9933
G01 X16.8456 Y7.9777
G01 X16.8247 Y7.8944
G01 X16.8216 Y7.8785
G01 X16.8090 Y7.7936
G01 X16.8074 Y7.7774
G01 X16.8032 Y7.6916
G01 X16.8032 Y7.6754
G01 X16.8074 Y7.5896
G01 X16.8090 Y7.5734
G01 X16.8216 Y7.4885
G01 X16.8247 Y7.4726
G01 X16.8456 Y7.3893
G01 X16.8503 Y7.3737
G01 X16.8793 Y7.2929
G01 X16.8855 Y7.2779
G01 X16.9222 Y7.2003
G01 X16.9298 Y7.1859
G01 X16.9740 Y7.1123
G01 X16.9830 Y7.0988
G01 X17.0342 Y7.0298
G01 X17.0445 Y7.0172
G01 X17.1021 Y6.9536
G01 X17.1136 Y6.9421
G01 X17.1778 Y6.8841
G00 Z2.0000
G00 X19.1135 Y6.6531
G01 F60.00
G01 Z-0.2001
G01 F320.00
G01 X19.1050 Y6.6428
G01 X19.1050 Y6.1842
G01 X19.1135 Y6.1739
G01 X19.1220 Y6.1842
G01 X19.1220 Y6.6428
G01 X19.1135 Y6.6531
G00 Z2.0000
G00 X19.1135 Y7.2631
G01 F60.00
G01 Z-0.2001
G01 F320.00
G01 X19.0882 Y7.1925
G01 X19.0708 Y7.1505
G01 X19.0341 Y7.0729
G01 X19.0127 Y7.0328
G01 X18.9685 Y6.9591
G01 X18.9433 Y6.9213
G01 X18.8921 Y6.8523
G01 X18.8633 Y6.8172
G01 X18.8071 Y6.7553
G01 X18.8071 Y6.0717
G01 X18.8633 Y6.0098
G01 X18.8921 Y5.9747
G01 X18.9433 Y5.9057
G01 X18.9685 Y5.8679
G01 X19.0127 Y5.7942
G01 X19.0341 Y5.7541
G01 X19.0708 Y5.6765
G01 X19.0882 Y5.6345
G01 X19.1135 Y5.5639
G01 X19.1388 Y5.6345
G01 X19.1562 Y5.6765
G01 X19.1929 Y5.7541
G01 X19.2143 Y5.7942
G01 X19.2585 Y5.8679
G01 X19.2837 Y5.9057
G01 X19.3349 Y5.9747
G01 X19.3637 Y6.0098
G01 X19.4199 Y6.0717
G01 X19.4199 Y6.7553
G01 X19.3637 Y6.8172
G01 X19.3349 Y6.8523
G01 X19.2837 Y6.9213
G01 X19.2585 Y6.9591
G01 X19.2143 Y7.0328
G01 X19.1929 Y7.0729
G01 X19.1562 Y7.1505
G01 X19.1388 Y7.1925
G01 X19.1135 Y7.2631
G00 Z2.0000
G00 X19.7178 Y6.8841
G01 F60.00
G01 Z-0.2001
G01 F320.00
G01 X19.7178 Y5.9429
G01 X19.6536 Y5.8849
G01 X19.6421 Y5.8734
G01 X19.5845 Y5.8098
G01 X19.5742 Y5.7972
G01 X19.5230 Y5.7282
G01 X19.5140 Y5.7147
G01 X19.4698 Y5.6411
G01 X19.4622 Y5.6267
G01 X19.4255 Y5.5491
G01 X19.4193 Y5.5341
G01 X19.3903 Y5.4533
G01 X19.3856 Y5.4377
G01 X19.3647 Y5.3544
G01 X19.3616 Y5.3385
G01 X19.3490 Y5.2536
G01 X19.3474 Y5.2374
G01 X19.3432 Y5.1516
G01 X19.3432 Y5.1354
G01 X19.3474 Y5.0496
G01 X19.3490 Y5.0334
G01 X19.3616 Y4.9485
G01 X19.3647 Y4.9326
G01 X19.3856 Y4.8493
G01 X19.3903 Y4.8337
G01 X19.4193 Y4.7529
G01 X19.4255 Y4.7379
G01 X19.4622 Y4.6603
G01 X19.4698 Y4.6459
G01 X19.5140 Y4.5723
G01 X19.5230 Y4.5588
G01 X19.5742 Y4.4898
G01 X19.5845 Y4.4772
G01 X19.6421 Y4.4136
G01 X19.6536 Y4.4021
G01 X19.7172 Y4.3445
G01 X19.7298 Y4.3342
G01 X19.7988 Y4.2830
G01 X19.8123 Y4.2740
G01 X19.8859 Y4.2298
G01 X19.9003 Y4.2222
G01 X19.9779 Y4.1855
G01 X19.9929 Y4.1793
G01 X20.0737 Y4.1503
G01 X20.0893 Y4.1456
G01 X20.1726 Y4.1247
G01 X20.1885 Y4.1216
G01 X20.2734 Y4.1090
G01 X20.2896 Y4.1074
G01 X20.3754 Y4.1032
G01 X20.3916 Y4.1032
G01 X20.4774 Y4.1074
G01 X20.4936 Y4.1090
G01 X20.5785 Y4.1216
G01 X20.5944 Y4.1247
G01 X20.6777 Y4.1456
G01 X20.6933 Y4.1503
G01 X20.7741 Y4.1793
G01 X20.7891 Y4.1855
G01 X20.8667 Y4.2222
G01 X20.8811 Y4.2298
G01 X20.9547 Y4.2740
G01 X20.9682 Y4.2830
G01 X21.0372 Y4.3342
G01 X21.0498 Y4.3445
G01 X21.1134 Y4.4021
G01 X21.1249 Y4.4136
G01 X21.1825 Y4.4772
G01 X21.1928 Y4.4898
G01 X21.2440 Y4.5588
G01 X21.2530 Y4.5723
G01 X21.2972 Y4.6459
G01 X21.3048 Y4.6603
G01 X21.3415 Y4.7379
G01 X21.3477 Y4.7529
G01 X21.3767 Y4.8337
G01 X21.3814 Y4.8493
G01 X21.4023 Y4.9326
G01 X21.4054 Y4.9485
G01 X21.4180 Y5.0334
G01 X21.4196 Y5.0496
G01 X21.4238 Y5.1354
G01 X21.4238 Y5.1516
G01 X21.4196 Y5.2374
G01 X21.4180 Y5.2536
G01 X21.4054 Y5.3385
G01 X21.4023 Y5.3544
G01 X21.3814 Y5.4377
G01 X21.3767 Y5.4533
G01 X21.3477 Y5.5341
G01 X21.3415 Y5.5491
G01 X21.3048 Y5.6267
G01 X21.2972 Y5.6411
G01 X21.2530 Y5.7147
G01 X21.2440 Y5.7282
G01 X21.1928 Y5.7972
G01 X21.1825 Y5.8098
G01 X21.1249 Y5.8734
G01 X21.1134 Y5.8849
G01 X21.0492 Y5.9429
G01 X21.0492 Y6.8841
G01 X21.1134 Y6.9421
G01 X21.1249 Y6.9536
G01 X21.1825 Y7.0172
G01 X21.1928 Y7.0298
G01 X21.2440 Y7.0988
G01 X21.2530 Y7.1123
G01 X21.2972 Y7.1859
G01 X21.3048 Y7.2003
G01 X21.3415 Y7.2779
G01 X21.3477 Y7.2929
G01 X21.3767 Y7.3737
G01 X21.3814 Y7.3893
G01 X21.4023 Y7.4726
G01 X21.4054 Y7.4885
G01 X21.4180 Y7.5734
G01 X21.4196 Y7.5896
G01 X21.4238 Y7.6754
G01 X21.4238 Y7.6916
G01 X21.4196 Y7.7774
G01 X21.4180 Y7.7936
G01 X21.4054 Y7.8785
G01 X21.4023 Y7.8944
G01 X21.3814 Y7.9777
G01 X21.3767 Y7.9933
G01 X21.3477 Y8.0741
G01 X21.3415 Y8.0891
G01 X21.3048 Y8.1667
G01 X21.2972 Y8.1811
G01 X21.2530 Y8.2547
G01 X21.2440 Y8.2682
G01 X21.1928 Y8.3372
G01 X21.1825 Y8.3498
G01 X21.1249 Y8.4134
G01 X21.1134 Y8.4249
G01 X21.0498 Y8.4825
G01 X21.0372 Y8.4928
G01 X20.9682 Y8.5440
G01 X20.9547 Y8.5530
G01 X20.8811 Y8.5972
G01 X20.8667 Y8.6048
G01 X20.7891 Y8.6415
G01 X20.7741 Y8.6477
G01 X20.6933 Y8.6767
G01 X20.6777 Y8.6814
G01 X20.5944 Y8.7023
G01 X20.5785 Y8.7054
G01 X20.4936 Y8.7180
G01 X20.4774 Y8.7196
G01 X20.3916 Y8.7238
G01 X20.3754 Y8.7238
G01 X20.2896 Y8.7196
G01 X20.2734 Y8.7180
G01 X20.1885 Y8.7054
G01 X20.1726 Y8.7023
G01 X20.0893 Y8.6814
G01 X20.0737 Y8.6767
G01 X19.9929 Y8.6477
G01 X19.9779 Y8.6415
G01 X19.9003 Y8.6048
G01 X19.8859 Y8.5972
G01 X19.8123 Y8.5530
G01 X19.7988 Y8.5440
G01 X19.7298 Y8.4928
G01 X19.7172 Y8.4825
G01 X19.6536 Y8.4249
G01 X19.6421 Y8.4134
G01 X19.5845 Y8.3498
G01 X19.5742 Y8.3372
G01 X19.5230 Y8.2682
G01 X19.5140 Y8.2547
G01 X19.4698 Y8.1811
G01 X19.4622 Y8.1667
G01 X19.4255 Y8.0891
G01 X19.4193 Y8.0741
G01 X19.3903 Y7.9933
G01 X19.3856 Y7.9777
G01 X19.3647 Y7.8944
G01 X19.3616 Y7.8785
G01 X19.3490 Y7.7936
G01 X19.3474 Y7.7774
