(G-CODE GENERATED BY FLATCAM v8.991 - www.flatcam.org - Version Date: 2019/12/27)

(Name: 02_DRL)
(Type: G-code from Excellon)
(Units: MM)

(Created on Sunday, 11 September 2022 at 11:01)

(Feedrate: 300.0 mm/min)
(Feedrate rapids 1500.0 mm/min)

(Z_Cut: -2.0 mm)
(Z_Move: 2.0 mm)
(Z Toolchange: 15.0 mm)
(X,Y Toolchange: 0.0000, 0.0000 mm)
(Z Start: None mm)
(Z End: 0.5 mm)
(Steps per circle: 64)
(Preprocessor Excellon: default)

(X range:    4.6990 ...  140.2080  mm)
(Y range:    4.6990 ...   64.0080  mm)

(Spindle Speed: None RPM)
G21
G90
G94




G01 F300.00
G00 Z2.0000

M03
G00 X139.7635 Y25.4635
G01 Z-2.0000
G01 Z0
G00 Z2.0000
G00 X137.2235 Y25.4635
G01 Z-2.0000
G01 Z0
G00 Z2.0000
G00 X134.6835 Y25.4635
G01 Z-2.0000
G01 Z0
G00 Z2.0000
G00 X132.1435 Y25.4635
G01 Z-2.0000
G01 Z0
G00 Z2.0000
G00 X129.6035 Y25.4635
G01 Z-2.0000
G01 Z0
G00 Z2.0000
G00 X127.0635 Y25.4635
G01 Z-2.0000
G01 Z0
G00 Z2.0000
G00 X124.5235 Y25.4635
G01 Z-2.0000
G01 Z0
G00 Z2.0000
G00 X121.9835 Y25.4635
G01 Z-2.0000
G01 Z0
G00 Z2.0000
G00 X119.4435 Y25.4635
G01 Z-2.0000
G01 Z0
G00 Z2.0000
G00 X116.9035 Y25.4635
G01 Z-2.0000
G01 Z0
G00 Z2.0000
G00 X114.3635 Y25.4635
G01 Z-2.0000
G01 Z0
G00 Z2.0000
G00 X111.8235 Y25.4635
G01 Z-2.0000
G01 Z0
G00 Z2.0000
G00 X109.2835 Y25.4635
G01 Z-2.0000
G01 Z0
G00 Z2.0000
G00 X106.7435 Y25.4635
G01 Z-2.0000
G01 Z0
G00 Z2.0000
G00 X104.2035 Y25.4635
G01 Z-2.0000
G01 Z0
G00 Z2.0000
G00 X101.6635 Y25.4635
G01 Z-2.0000
G01 Z0
G00 Z2.0000
G00 X99.1235 Y25.4635
G01 Z-2.0000
G01 Z0
G00 Z2.0000
G00 X96.5835 Y25.4635
G01 Z-2.0000
G01 Z0
G00 Z2.0000
G00 X94.0435 Y25.4635
G01 Z-2.0000
G01 Z0
G00 Z2.0000
G00 X91.5035 Y25.4635
G01 Z-2.0000
G01 Z0
G00 Z2.0000
G00 X88.9635 Y25.4635
G01 Z-2.0000
G01 Z0
G00 Z2.0000
G00 X86.4235 Y25.4635
G01 Z-2.0000
G01 Z0
G00 Z2.0000
G00 X83.8835 Y25.4635
G01 Z-2.0000
G01 Z0
G00 Z2.0000
G00 X81.3435 Y25.4635
G01 Z-2.0000
G01 Z0
G00 Z2.0000
G00 X78.8035 Y25.4635
G01 Z-2.0000
G01 Z0
G00 Z2.0000
G00 X66.1035 Y25.4635
G01 Z-2.0000
G01 Z0
G00 Z2.0000
G00 X63.5635 Y25.4635
G01 Z-2.0000
G01 Z0
G00 Z2.0000
G00 X61.0235 Y25.4635
G01 Z-2.0000
G01 Z0
G00 Z2.0000
G00 X58.4835 Y25.4635
G01 Z-2.0000
G01 Z0
G00 Z2.0000
G00 X55.9435 Y25.4635
G01 Z-2.0000
G01 Z0
G00 Z2.0000
G00 X53.4035 Y25.4635
G01 Z-2.0000
G01 Z0
G00 Z2.0000
G00 X50.8635 Y25.4635
G01 Z-2.0000
G01 Z0
G00 Z2.0000
G00 X48.3235 Y25.4635
G01 Z-2.0000
G01 Z0
G00 Z2.0000
G00 X45.7835 Y25.4635
G01 Z-2.0000
G01 Z0
G00 Z2.0000
G00 X43.2435 Y25.4635
G01 Z-2.0000
G01 Z0
G00 Z2.0000
G00 X40.7035 Y25.4635
G01 Z-2.0000
G01 Z0
G00 Z2.0000
G00 X38.1635 Y25.4635
G01 Z-2.0000
G01 Z0
G00 Z2.0000
G00 X35.6235 Y25.4635
G01 Z-2.0000
G01 Z0
G00 Z2.0000
G00 X33.0835 Y25.4635
G01 Z-2.0000
G01 Z0
G00 Z2.0000
G00 X30.5435 Y25.4635
G01 Z-2.0000
G01 Z0
G00 Z2.0000
G00 X28.0035 Y25.4635
G01 Z-2.0000
G01 Z0
G00 Z2.0000
G00 X25.4635 Y25.4635
G01 Z-2.0000
G01 Z0
G00 Z2.0000
G00 X22.9235 Y25.4635
G01 Z-2.0000
G01 Z0
G00 Z2.0000
G00 X20.3835 Y25.4635
G01 Z-2.0000
G01 Z0
G00 Z2.0000
G00 X17.8435 Y25.4635
G01 Z-2.0000
G01 Z0
G00 Z2.0000
G00 X15.3035 Y25.4635
G01 Z-2.0000
G01 Z0
G00 Z2.0000
G00 X12.7635 Y25.4635
G01 Z-2.0000
G01 Z0
G00 Z2.0000
G00 X10.2235 Y25.4635
G01 Z-2.0000
G01 Z0
G00 Z2.0000
G00 X7.6835 Y25.4635
G01 Z-2.0000
G01 Z0
G00 Z2.0000
G00 X5.1435 Y25.4635
G01 Z-2.0000
G01 Z0
G00 Z2.0000
G00 X5.1435 Y12.7635
G01 Z-2.0000
G01 Z0
G00 Z2.0000
G00 X5.1435 Y10.2235
G01 Z-2.0000
G01 Z0
G00 Z2.0000
G00 X5.1435 Y7.6835
G01 Z-2.0000
G01 Z0
G00 Z2.0000
G00 X5.1435 Y5.1435
G01 Z-2.0000
G01 Z0
G00 Z2.0000
G00 X7.6835 Y5.1435
G01 Z-2.0000
G01 Z0
G00 Z2.0000
G00 X7.6835 Y7.6835
G01 Z-2.0000
G01 Z0
G00 Z2.0000
G00 X7.6835 Y10.2235
G01 Z-2.0000
G01 Z0
G00 Z2.0000
G00 X7.6835 Y12.7635
G01 Z-2.0000
G01 Z0
G00 Z2.0000
G00 X10.2235 Y12.7635
G01 Z-2.0000
G01 Z0
G00 Z2.0000
G00 X10.2235 Y10.2235
G01 Z-2.0000
G01 Z0
G00 Z2.0000
G00 X10.2235 Y7.6835
G01 Z-2.0000
G01 Z0
G00 Z2.0000
G00 X10.2235 Y5.1435
G01 Z-2.0000
G01 Z0
G00 Z2.0000
G00 X12.7635 Y5.1435
G01 Z-2.0000
G01 Z0
G00 Z2.0000
G00 X12.7635 Y7.6835
G01 Z-2.0000
G01 Z0
G00 Z2.0000
G00 X12.7635 Y10.2235
G01 Z-2.0000
G01 Z0
G00 Z2.0000
G00 X12.7635 Y12.7635
G01 Z-2.0000
G01 Z0
G00 Z2.0000
G00 X15.3035 Y12.7635
G01 Z-2.0000
G01 Z0
G00 Z2.0000
G00 X15.3035 Y10.2235
G01 Z-2.0000
G01 Z0
G00 Z2.0000
G00 X15.3035 Y7.6835
G01 Z-2.0000
G01 Z0
G00 Z2.0000
G00 X15.3035 Y5.1435
G01 Z-2.0000
G01 Z0
G00 Z2.0000
G00 X17.8435 Y5.1435
G01 Z-2.0000
G01 Z0
G00 Z2.0000
G00 X17.8435 Y7.6835
G01 Z-2.0000
G01 Z0
G00 Z2.0000
G00 X17.8435 Y10.2235
G01 Z-2.0000
G01 Z0
G00 Z2.0000
G00 X17.8435 Y12.7635
G01 Z-2.0000
G01 Z0
G00 Z2.0000
G00 X20.3835 Y12.7635
G01 Z-2.0000
G01 Z0
G00 Z2.0000
G00 X20.3835 Y10.2235
G01 Z-2.0000
G01 Z0
G00 Z2.0000
G00 X20.3835 Y7.6835
G01 Z-2.0000
G01 Z0
G00 Z2.0000
G00 X20.3835 Y5.1435
G01 Z-2.0000
G01 Z0
G00 Z2.0000
G00 X22.9235 Y5.1435
G01 Z-2.0000
G01 Z0
G00 Z2.0000
G00 X22.9235 Y7.6835
G01 Z-2.0000
G01 Z0
G00 Z2.0000
G00 X22.9235 Y10.2235
G01 Z-2.0000
G01 Z0
G00 Z2.0000
G00 X22.9235 Y12.7635
G01 Z-2.0000
G01 Z0
G00 Z2.0000
G00 X25.4635 Y12.7635
G01 Z-2.0000
G01 Z0
G00 Z2.0000
G00 X25.4635 Y10.2235
G01 Z-2.0000
G01 Z0
G00 Z2.0000
G00 X25.4635 Y7.6835
G01 Z-2.0000
G01 Z0
G00 Z2.0000
G00 X25.4635 Y5.1435
G01 Z-2.0000
G01 Z0
G00 Z2.0000
G00 X28.0035 Y5.1435
G01 Z-2.0000
G01 Z0
G00 Z2.0000
G00 X28.0035 Y7.6835
G01 Z-2.0000
G01 Z0
G00 Z2.0000
G00 X28.0035 Y10.2235
G01 Z-2.0000
G01 Z0
G00 Z2.0000
G00 X28.0035 Y12.7635
G01 Z-2.0000
G01 Z0
G00 Z2.0000
G00 X30.5435 Y12.7635
G01 Z-2.0000
G01 Z0
G00 Z2.0000
G00 X30.5435 Y10.2235
G01 Z-2.0000
G01 Z0
G00 Z2.0000
G00 X30.5435 Y7.6835
G01 Z-2.0000
G01 Z0
G00 Z2.0000
G00 X30.5435 Y5.1435
G01 Z-2.0000
G01 Z0
G00 Z2.0000
G00 X33.0835 Y5.1435
G01 Z-2.0000
G01 Z0
G00 Z2.0000
G00 X33.0835 Y7.6835
G01 Z-2.0000
G01 Z0
G00 Z2.0000
G00 X33.0835 Y10.2235
G01 Z-2.0000
G01 Z0
G00 Z2.0000
G00 X33.0835 Y12.7635
G01 Z-2.0000
G01 Z0
G00 Z2.0000
G00 X35.6235 Y12.7635
G01 Z-2.0000
G01 Z0
G00 Z2.0000
G00 X35.6235 Y10.2235
G01 Z-2.0000
G01 Z0
G00 Z2.0000
G00 X35.6235 Y7.6835
G01 Z-2.0000
G01 Z0
G00 Z2.0000
G00 X35.6235 Y5.1435
G01 Z-2.0000
G01 Z0
G00 Z2.0000
G00 X38.1635 Y5.1435
G01 Z-2.0000
G01 Z0
G00 Z2.0000
G00 X38.1635 Y7.6835
G01 Z-2.0000
G01 Z0
G00 Z2.0000
G00 X38.1635 Y10.2235
G01 Z-2.0000
G01 Z0
G00 Z2.0000
G00 X38.1635 Y12.7635
G01 Z-2.0000
G01 Z0
G00 Z2.0000
G00 X40.7035 Y12.7635
G01 Z-2.0000
G01 Z0
G00 Z2.0000
G00 X40.7035 Y10.2235
G01 Z-2.0000
G01 Z0
G00 Z2.0000
G00 X40.7035 Y7.6835
G01 Z-2.0000
G01 Z0
G00 Z2.0000
G00 X40.7035 Y5.1435
G01 Z-2.0000
G01 Z0
G00 Z2.0000
G00 X43.2435 Y5.1435
G01 Z-2.0000
G01 Z0
G00 Z2.0000
G00 X43.2435 Y7.6835
G01 Z-2.0000
G01 Z0
G00 Z2.0000
G00 X43.2435 Y10.2235
G01 Z-2.0000
G01 Z0
G00 Z2.0000
G00 X43.2435 Y12.7635
G01 Z-2.0000
G01 Z0
G00 Z2.0000
G00 X45.7835 Y12.7635
G01 Z-2.0000
G01 Z0
G00 Z2.0000
G00 X45.7835 Y10.2235
G01 Z-2.0000
G01 Z0
G00 Z2.0000
G00 X45.7835 Y7.6835
G01 Z-2.0000
G01 Z0
G00 Z2.0000
G00 X45.7835 Y5.1435
G01 Z-2.0000
G01 Z0
G00 Z2.0000
G00 X48.3235 Y5.1435
G01 Z-2.0000
G01 Z0
G00 Z2.0000
G00 X48.3235 Y7.6835
G01 Z-2.0000
G01 Z0
G00 Z2.0000
G00 X48.3235 Y10.2235
G01 Z-2.0000
G01 Z0
G00 Z2.0000
G00 X48.3235 Y12.7635
G01 Z-2.0000
G01 Z0
G00 Z2.0000
G00 X50.8635 Y12.7635
G01 Z-2.0000
G01 Z0
G00 Z2.0000
G00 X50.8635 Y10.2235
G01 Z-2.0000
G01 Z0
G00 Z2.0000
G00 X50.8635 Y7.6835
G01 Z-2.0000
G01 Z0
G00 Z2.0000
G00 X50.8635 Y5.1435
G01 Z-2.0000
G01 Z0
G00 Z2.0000
G00 X53.4035 Y5.1435
G01 Z-2.0000
G01 Z0
G00 Z2.0000
G00 X53.4035 Y7.6835
G01 Z-2.0000
G01 Z0
G00 Z2.0000
G00 X53.4035 Y10.2235
G01 Z-2.0000
G01 Z0
G00 Z2.0000
G00 X53.4035 Y12.7635
G01 Z-2.0000
G01 Z0
G00 Z2.0000
G00 X55.9435 Y12.7635
G01 Z-2.0000
G01 Z0
G00 Z2.0000
G00 X55.9435 Y10.2235
G01 Z-2.0000
G01 Z0
G00 Z2.0000
G00 X55.9435 Y7.6835
G01 Z-2.0000
G01 Z0
G00 Z2.0000
G00 X55.9435 Y5.1435
G01 Z-2.0000
G01 Z0
G00 Z2.0000
G00 X58.4835 Y5.1435
G01 Z-2.0000
G01 Z0
G00 Z2.0000
G00 X58.4835 Y7.6835
G01 Z-2.0000
G01 Z0
G00 Z2.0000
G00 X58.4835 Y10.2235
G01 Z-2.0000
G01 Z0
G00 Z2.0000
G00 X58.4835 Y12.7635
G01 Z-2.0000
G01 Z0
G00 Z2.0000
G00 X61.0235 Y12.7635
G01 Z-2.0000
G01 Z0
G00 Z2.0000
G00 X61.0235 Y10.2235
G01 Z-2.0000
G01 Z0
G00 Z2.0000
G00 X61.0235 Y7.6835
G01 Z-2.0000
G01 Z0
G00 Z2.0000
G00 X61.0235 Y5.1435
G01 Z-2.0000
G01 Z0
G00 Z2.0000
G00 X63.5635 Y5.1435
G01 Z-2.0000
G01 Z0
G00 Z2.0000
G00 X66.1035 Y5.1435
G01 Z-2.0000
G01 Z0
G00 Z2.0000
G00 X66.1035 Y7.6835
G01 Z-2.0000
G01 Z0
G00 Z2.0000
G00 X63.5635 Y7.6835
G01 Z-2.0000
G01 Z0
G00 Z2.0000
G00 X63.5635 Y10.2235
G01 Z-2.0000
G01 Z0
G00 Z2.0000
G00 X63.5635 Y12.7635
G01 Z-2.0000
G01 Z0
G00 Z2.0000
G00 X66.1035 Y12.7635
G01 Z-2.0000
G01 Z0
G00 Z2.0000
G00 X66.1035 Y10.2235
G01 Z-2.0000
G01 Z0
G00 Z2.0000
G00 X99.1235 Y30.5435
G01 Z-2.0000
G01 Z0
G00 Z2.0000
G00 X99.1235 Y33.0835
G01 Z-2.0000
G01 Z0
G00 Z2.0000
G00 X99.1235 Y35.6235
G01 Z-2.0000
G01 Z0
G00 Z2.0000
G00 X94.0435 Y38.1635
G01 Z-2.0000
G01 Z0
G00 Z2.0000
G00 X96.5835 Y40.7035
G01 Z-2.0000
G01 Z0
G00 Z2.0000
G00 X88.9635 Y50.8635
G01 Z-2.0000
G01 Z0
G00 Z2.0000
G00 X83.8835 Y43.2435
G01 Z-2.0000
G01 Z0
G00 Z2.0000
G00 X78.8035 Y50.8635
G01 Z-2.0000
G01 Z0
G00 Z2.0000
G00 X5.1435 Y63.5635
G01 Z-2.0000
G01 Z0
G00 Z2.0000
G00 X7.6835 Y63.5635
G01 Z-2.0000
G01 Z0
G00 Z2.0000
G00 X10.2235 Y63.5635
G01 Z-2.0000
G01 Z0
G00 Z2.0000
G00 X12.7635 Y63.5635
G01 Z-2.0000
G01 Z0
G00 Z2.0000
G00 X15.3035 Y63.5635
G01 Z-2.0000
G01 Z0
G00 Z2.0000
G00 X17.8435 Y63.5635
G01 Z-2.0000
G01 Z0
G00 Z2.0000
G00 X20.3835 Y63.5635
G01 Z-2.0000
G01 Z0
G00 Z2.0000
G00 X22.9235 Y63.5635
G01 Z-2.0000
G01 Z0
G00 Z2.0000
G00 X25.4635 Y63.5635
G01 Z-2.0000
G01 Z0
G00 Z2.0000
G00 X28.0035 Y63.5635
G01 Z-2.0000
G01 Z0
G00 Z2.0000
G00 X30.5435 Y63.5635
G01 Z-2.0000
G01 Z0
G00 Z2.0000
G00 X33.0835 Y63.5635
G01 Z-2.0000
G01 Z0
G00 Z2.0000
G00 X35.6235 Y63.5635
G01 Z-2.0000
G01 Z0
G00 Z2.0000
G00 X38.1635 Y63.5635
G01 Z-2.0000
G01 Z0
G00 Z2.0000
G00 X40.7035 Y63.5635
G01 Z-2.0000
G01 Z0
G00 Z2.0000
G00 X43.2435 Y63.5635
G01 Z-2.0000
G01 Z0
G00 Z2.0000
G00 X45.7835 Y63.5635
G01 Z-2.0000
G01 Z0
G00 Z2.0000
G00 X48.3235 Y63.5635
G01 Z-2.0000
G01 Z0
G00 Z2.0000
G00 X50.8635 Y63.5635
G01 Z-2.0000
G01 Z0
G00 Z2.0000
G00 X53.4035 Y63.5635
G01 Z-2.0000
G01 Z0
G00 Z2.0000
G00 X55.9435 Y63.5635
G01 Z-2.0000
G01 Z0
G00 Z2.0000
G00 X58.4835 Y63.5635
G01 Z-2.0000
G01 Z0
G00 Z2.0000
G00 X61.0235 Y63.5635
G01 Z-2.0000
G01 Z0
G00 Z2.0000
G00 X63.5635 Y63.5635
G01 Z-2.0000
G01 Z0
G00 Z2.0000
G00 X66.1035 Y63.5635
G01 Z-2.0000
G01 Z0
G00 Z2.0000
G00 X78.8035 Y63.5635
G01 Z-2.0000
G01 Z0
G00 Z2.0000
G00 X81.3435 Y63.5635
G01 Z-2.0000
G01 Z0
G00 Z2.0000
G00 X83.8835 Y63.5635
G01 Z-2.0000
G01 Z0
G00 Z2.0000
G00 X86.4235 Y63.5635
G01 Z-2.0000
G01 Z0
G00 Z2.0000
G00 X88.9635 Y63.5635
G01 Z-2.0000
G01 Z0
G00 Z2.0000
G00 X91.5035 Y63.5635
G01 Z-2.0000
G01 Z0
G00 Z2.0000
G00 X94.0435 Y63.5635
G01 Z-2.0000
G01 Z0
G00 Z2.0000
G00 X94.0435 Y58.4835
G01 Z-2.0000
G01 Z0
G00 Z2.0000
G00 X96.5835 Y61.0235
G01 Z-2.0000
G01 Z0
G00 Z2.0000
G00 X96.5835 Y63.5635
G01 Z-2.0000
G01 Z0
G00 Z2.0000
G00 X99.1235 Y63.5635
G01 Z-2.0000
G01 Z0
G00 Z2.0000
G00 X101.6635 Y63.5635
G01 Z-2.0000
G01 Z0
G00 Z2.0000
G00 X104.2035 Y63.5635
G01 Z-2.0000
G01 Z0
G00 Z2.0000
G00 X106.7435 Y63.5635
G01 Z-2.0000
G01 Z0
G00 Z2.0000
G00 X109.2835 Y63.5635
G01 Z-2.0000
G01 Z0
G00 Z2.0000
G00 X111.8235 Y63.5635
G01 Z-2.0000
G01 Z0
G00 Z2.0000
G00 X114.3635 Y63.5635
G01 Z-2.0000
G01 Z0
G00 Z2.0000
G00 X116.9035 Y63.5635
G01 Z-2.0000
G01 Z0
G00 Z2.0000
G00 X119.4435 Y63.5635
G01 Z-2.0000
G01 Z0
G00 Z2.0000
G00 X121.9835 Y63.5635
G01 Z-2.0000
G01 Z0
G00 Z2.0000
G00 X124.5235 Y63.5635
G01 Z-2.0000
G01 Z0
G00 Z2.0000
G00 X127.0635 Y63.5635
G01 Z-2.0000
G01 Z0
G00 Z2.0000
G00 X129.6035 Y63.5635
G01 Z-2.0000
G01 Z0
G00 Z2.0000
G00 X132.1435 Y63.5635
G01 Z-2.0000
G01 Z0
G00 Z2.0000
G00 X134.6835 Y63.5635
G01 Z-2.0000
G01 Z0
G00 Z2.0000
G00 X137.2235 Y63.5635
G01 Z-2.0000
G01 Z0
G00 Z2.0000
G00 X139.7635 Y63.5635
G01 Z-2.0000
G01 Z0
G00 Z2.0000
G00 X139.7635 Y61.0235
G01 Z-2.0000
G01 Z0
G00 Z2.0000
G00 X134.6835 Y58.4835
G01 Z-2.0000
G01 Z0
G00 Z2.0000
G00 X129.6035 Y43.2435
G01 Z-2.0000
G01 Z0
G00 Z2.0000
G00 X119.4435 Y40.7035
G01 Z-2.0000
G01 Z0
G00 Z2.0000
G00 X119.4435 Y38.1635
G01 Z-2.0000
G01 Z0
G00 Z2.0000
G00 X111.8235 Y35.6235
G01 Z-2.0000
G01 Z0
G00 Z2.0000
G00 X114.3635 Y30.5435
G01 Z-2.0000
G01 Z0
G00 Z2.0000
G00 X116.9035 Y33.0835
G01 Z-2.0000
G01 Z0
G00 Z2.0000
M05
G00 Z0.50
G00 X0.0 Y0.0

