(G-CODE GENERATED BY FLATCAM v8.991 - www.flatcam.org - Version Date: 2019/12/27)

(Name: 03_CUT)
(Type: G-code from Geometry)
(Units: MM)

(Created on Sunday, 11 September 2022 at 11:01)

(TOOL DIAMETER: 1.5 mm)
(Feedrate: 120.0 mm/min)
(Feedrate_Z: 60.0 mm/min)
(Feedrate rapids 1500.0 mm/min)

(Z_Cut: -2.4 mm)
(Z_Move: 2.0 mm)
(Z Toolchange: 15.0 mm)
(X,Y Toolchange: 0.0000, 0.0000 mm)
(Z Start: None mm)
(Z End: 15.0 mm)
(Steps per circle: 64)
(Preprocessor Geometry: default)

(X range:   -0.7500 ...  145.6570  mm)
(Y range:   -0.7500 ...   69.4570  mm)

(Spindle Speed: None RPM)
G21
G90
G94




G01 F120.00
G00 Z2.0000

M03
G00 X0.0635 Y18.6570
G01 F60.00
G01 Z-2.4000
G01 F120.00
G01 X0.0205 Y18.6558
G01 X-0.0528 Y18.6486
G01 X-0.0589 Y18.6477
G01 X-0.1311 Y18.6333
G01 X-0.1372 Y18.6318
G01 X-0.2076 Y18.6105
G01 X-0.2135 Y18.6084
G01 X-0.2815 Y18.5802
G01 X-0.2871 Y18.5775
G01 X-0.3520 Y18.5428
G01 X-0.3574 Y18.5396
G01 X-0.4186 Y18.4987
G01 X-0.4236 Y18.4950
G01 X-0.4805 Y18.4483
G01 X-0.4851 Y18.4441
G01 X-0.5371 Y18.3921
G01 X-0.5413 Y18.3875
G01 X-0.5880 Y18.3306
G01 X-0.5917 Y18.3256
G01 X-0.6326 Y18.2644
G01 X-0.6358 Y18.2590
G01 X-0.6705 Y18.1941
G01 X-0.6732 Y18.1885
G01 X-0.7014 Y18.1205
G01 X-0.7035 Y18.1146
G01 X-0.7248 Y18.0442
G01 X-0.7263 Y18.0381
G01 X-0.7407 Y17.9659
G01 X-0.7416 Y17.9598
G01 X-0.7488 Y17.8865
G01 X-0.7500 Y17.8435
G01 X-0.7500 Y0.0635
G01 X-0.7491 Y0.0267
G01 X-0.7488 Y0.0205
G01 X-0.7416 Y-0.0528
G01 X-0.7407 Y-0.0589
G01 X-0.7263 Y-0.1311
G01 X-0.7248 Y-0.1372
G01 X-0.7035 Y-0.2076
G01 X-0.7014 Y-0.2135
G01 X-0.6732 Y-0.2815
G01 X-0.6705 Y-0.2871
G01 X-0.6358 Y-0.3520
G01 X-0.6326 Y-0.3574
G01 X-0.5917 Y-0.4186
G01 X-0.5880 Y-0.4236
G01 X-0.5413 Y-0.4805
G01 X-0.5371 Y-0.4851
G01 X-0.4851 Y-0.5371
G01 X-0.4805 Y-0.5413
G01 X-0.4236 Y-0.5880
G01 X-0.4186 Y-0.5917
G01 X-0.3574 Y-0.6326
G01 X-0.3520 Y-0.6358
G01 X-0.2871 Y-0.6705
G01 X-0.2815 Y-0.6732
G01 X-0.2135 Y-0.7014
G01 X-0.2076 Y-0.7035
G01 X-0.1372 Y-0.7248
G01 X-0.1311 Y-0.7263
G01 X-0.0589 Y-0.7407
G01 X-0.0528 Y-0.7416
G01 X0.0205 Y-0.7488
G01 X0.0635 Y-0.7500
G01 X71.1835 Y-0.7500
G01 X71.2265 Y-0.7488
G01 X71.2998 Y-0.7416
G01 X71.3059 Y-0.7407
G01 X71.3781 Y-0.7263
G01 X71.3842 Y-0.7248
G01 X71.4546 Y-0.7035
G01 X71.4605 Y-0.7014
G01 X71.5285 Y-0.6732
G01 X71.5341 Y-0.6705
G01 X71.5990 Y-0.6358
G01 X71.6044 Y-0.6326
G01 X71.6656 Y-0.5917
G01 X71.6706 Y-0.5880
G01 X71.7275 Y-0.5413
G01 X71.7321 Y-0.5371
G01 X71.7841 Y-0.4851
G01 X71.7883 Y-0.4805
G01 X71.8350 Y-0.4236
G01 X71.8387 Y-0.4186
G01 X71.8796 Y-0.3574
G01 X71.8828 Y-0.3520
G01 X71.9175 Y-0.2871
G01 X71.9202 Y-0.2815
G01 X71.9484 Y-0.2135
G01 X71.9505 Y-0.2076
G01 X71.9718 Y-0.1372
G01 X71.9733 Y-0.1311
G01 X71.9877 Y-0.0589
G01 X71.9886 Y-0.0528
G01 X71.9958 Y0.0205
G01 X71.9970 Y0.0635
G01 X71.9970 Y17.8435
G01 X71.9961 Y17.8803
G01 X71.9958 Y17.8865
G01 X71.9886 Y17.9598
G01 X71.9877 Y17.9659
G01 X71.9733 Y18.0381
G01 X71.9718 Y18.0442
G01 X71.9505 Y18.1146
G01 X71.9484 Y18.1205
G01 X71.9202 Y18.1885
G01 X71.9175 Y18.1941
G01 X71.8828 Y18.2590
G01 X71.8796 Y18.2644
G01 X71.8387 Y18.3256
G01 X71.8350 Y18.3306
G01 X71.7883 Y18.3875
G01 X71.7841 Y18.3921
G01 X71.7321 Y18.4441
G01 X71.7275 Y18.4483
G01 X71.6706 Y18.4950
G01 X71.6656 Y18.4987
G01 X71.6044 Y18.5396
G01 X71.5990 Y18.5428
G01 X71.5341 Y18.5775
G01 X71.5285 Y18.5802
G01 X71.4605 Y18.6084
G01 X71.4546 Y18.6105
G01 X71.3842 Y18.6318
G01 X71.3781 Y18.6333
G01 X71.3059 Y18.6477
G01 X71.2998 Y18.6486
G01 X71.2265 Y18.6558
G01 X71.1835 Y18.6570
G01 X0.0635 Y18.6570
G00 Z2.0000
G00 X0.0635 Y69.4570
G01 F60.00
G01 Z-2.4000
G01 F120.00
G01 X0.0205 Y69.4558
G01 X-0.0528 Y69.4486
G01 X-0.0589 Y69.4477
G01 X-0.1311 Y69.4333
G01 X-0.1372 Y69.4318
G01 X-0.2076 Y69.4105
G01 X-0.2135 Y69.4084
G01 X-0.2815 Y69.3802
G01 X-0.2871 Y69.3775
G01 X-0.3520 Y69.3428
G01 X-0.3574 Y69.3396
G01 X-0.4186 Y69.2987
G01 X-0.4236 Y69.2950
G01 X-0.4805 Y69.2483
G01 X-0.4851 Y69.2441
G01 X-0.5371 Y69.1921
G01 X-0.5413 Y69.1875
G01 X-0.5880 Y69.1306
G01 X-0.5917 Y69.1256
G01 X-0.6326 Y69.0644
G01 X-0.6358 Y69.0590
G01 X-0.6705 Y68.9941
G01 X-0.6732 Y68.9885
G01 X-0.7014 Y68.9205
G01 X-0.7035 Y68.9146
G01 X-0.7248 Y68.8442
G01 X-0.7263 Y68.8381
G01 X-0.7407 Y68.7659
G01 X-0.7416 Y68.7598
G01 X-0.7488 Y68.6865
G01 X-0.7500 Y68.6435
G01 X-0.7500 Y20.3835
G01 X-0.7488 Y20.3405
G01 X-0.7416 Y20.2672
G01 X-0.7407 Y20.2611
G01 X-0.7263 Y20.1889
G01 X-0.7248 Y20.1828
G01 X-0.7035 Y20.1124
G01 X-0.7014 Y20.1065
G01 X-0.6732 Y20.0385
G01 X-0.6705 Y20.0329
G01 X-0.6358 Y19.9680
G01 X-0.6326 Y19.9626
G01 X-0.5917 Y19.9014
G01 X-0.5880 Y19.8964
G01 X-0.5413 Y19.8395
G01 X-0.5371 Y19.8349
G01 X-0.4851 Y19.7829
G01 X-0.4805 Y19.7787
G01 X-0.4236 Y19.7320
G01 X-0.4186 Y19.7283
G01 X-0.3574 Y19.6874
G01 X-0.3520 Y19.6842
G01 X-0.2871 Y19.6495
G01 X-0.2815 Y19.6468
G01 X-0.2135 Y19.6186
G01 X-0.2076 Y19.6165
G01 X-0.1372 Y19.5952
G01 X-0.1311 Y19.5937
G01 X-0.0589 Y19.5793
G01 X-0.0528 Y19.5784
G01 X0.0205 Y19.5712
G01 X0.0635 Y19.5700
G01 X71.1835 Y19.5700
G01 X71.2265 Y19.5712
G01 X71.2998 Y19.5784
G01 X71.3059 Y19.5793
G01 X71.3781 Y19.5937
G01 X71.3842 Y19.5952
G01 X71.4546 Y19.6165
G01 X71.4605 Y19.6186
G01 X71.5285 Y19.6468
G01 X71.5341 Y19.6495
G01 X71.5990 Y19.6842
G01 X71.6044 Y19.6874
G01 X71.6656 Y19.7283
G01 X71.6706 Y19.7320
G01 X71.7275 Y19.7787
G01 X71.7321 Y19.7829
G01 X71.7841 Y19.8349
G01 X71.7883 Y19.8395
G01 X71.8350 Y19.8964
G01 X71.8387 Y19.9014
G01 X71.8796 Y19.9626
G01 X71.8828 Y19.9680
G01 X71.9175 Y20.0329
G01 X71.9202 Y20.0385
G01 X71.9484 Y20.1065
G01 X71.9505 Y20.1124
G01 X71.9718 Y20.1828
G01 X71.9733 Y20.1889
G01 X71.9877 Y20.2611
G01 X71.9886 Y20.2672
G01 X71.9958 Y20.3405
G01 X71.9970 Y20.3835
G01 X71.9970 Y68.6435
G01 X71.9958 Y68.6865
G01 X71.9886 Y68.7598
G01 X71.9877 Y68.7659
G01 X71.9733 Y68.8381
G01 X71.9718 Y68.8442
G01 X71.9505 Y68.9146
G01 X71.9484 Y68.9205
G01 X71.9202 Y68.9885
G01 X71.9175 Y68.9941
G01 X71.8828 Y69.0590
G01 X71.8796 Y69.0644
G01 X71.8387 Y69.1256
G01 X71.8350 Y69.1306
G01 X71.7883 Y69.1875
G01 X71.7841 Y69.1921
G01 X71.7321 Y69.2441
G01 X71.7275 Y69.2483
G01 X71.6706 Y69.2950
G01 X71.6656 Y69.2987
G01 X71.6044 Y69.3396
G01 X71.5990 Y69.3428
G01 X71.5341 Y69.3775
G01 X71.5285 Y69.3802
G01 X71.4605 Y69.4084
G01 X71.4546 Y69.4105
G01 X71.3842 Y69.4318
G01 X71.3781 Y69.4333
G01 X71.3059 Y69.4477
G01 X71.2998 Y69.4486
G01 X71.2265 Y69.4558
G01 X71.1835 Y69.4570
G01 X0.0635 Y69.4570
G00 Z2.0000
G00 X73.7235 Y69.4570
G01 F60.00
G01 Z-2.4000
G01 F120.00
G01 X73.6805 Y69.4558
G01 X73.6072 Y69.4486
G01 X73.6011 Y69.4477
G01 X73.5289 Y69.4333
G01 X73.5228 Y69.4318
G01 X73.4524 Y69.4105
G01 X73.4465 Y69.4084
G01 X73.3785 Y69.3802
G01 X73.3729 Y69.3775
G01 X73.3080 Y69.3428
G01 X73.3026 Y69.3396
G01 X73.2414 Y69.2987
G01 X73.2364 Y69.2950
G01 X73.1795 Y69.2483
G01 X73.1749 Y69.2441
G01 X73.1229 Y69.1921
G01 X73.1187 Y69.1875
G01 X73.0720 Y69.1306
G01 X73.0683 Y69.1256
G01 X73.0274 Y69.0644
G01 X73.0242 Y69.0590
G01 X72.9895 Y68.9941
G01 X72.9868 Y68.9885
G01 X72.9586 Y68.9205
G01 X72.9565 Y68.9146
G01 X72.9352 Y68.8442
G01 X72.9337 Y68.8381
G01 X72.9193 Y68.7659
G01 X72.9184 Y68.7598
G01 X72.9112 Y68.6865
G01 X72.9100 Y68.6435
G01 X72.9100 Y20.3835
G01 X72.9112 Y20.3405
G01 X72.9184 Y20.2672
G01 X72.9193 Y20.2611
G01 X72.9337 Y20.1889
G01 X72.9352 Y20.1828
G01 X72.9565 Y20.1124
G01 X72.9586 Y20.1065
G01 X72.9868 Y20.0385
G01 X72.9895 Y20.0329
G01 X73.0242 Y19.9680
G01 X73.0274 Y19.9626
G01 X73.0683 Y19.9014
G01 X73.0720 Y19.8964
G01 X73.1187 Y19.8395
G01 X73.1229 Y19.8349
G01 X73.1749 Y19.7829
G01 X73.1795 Y19.7787
G01 X73.2364 Y19.7320
G01 X73.2414 Y19.7283
G01 X73.3026 Y19.6874
G01 X73.3080 Y19.6842
G01 X73.3729 Y19.6495
G01 X73.3785 Y19.6468
G01 X73.4465 Y19.6186
G01 X73.4524 Y19.6165
G01 X73.5228 Y19.5952
G01 X73.5289 Y19.5937
G01 X73.6011 Y19.5793
G01 X73.6072 Y19.5784
G01 X73.6805 Y19.5712
G01 X73.7235 Y19.5700
G01 X144.8435 Y19.5700
G01 X144.8865 Y19.5712
G01 X144.9598 Y19.5784
G01 X144.9659 Y19.5793
G01 X145.0381 Y19.5937
G01 X145.0442 Y19.5952
G01 X145.1146 Y19.6165
G01 X145.1205 Y19.6186
G01 X145.1885 Y19.6468
G01 X145.1941 Y19.6495
G01 X145.2590 Y19.6842
G01 X145.2644 Y19.6874
G01 X145.3256 Y19.7283
G01 X145.3306 Y19.7320
G01 X145.3875 Y19.7787
G01 X145.3921 Y19.7829
G01 X145.4441 Y19.8349
G01 X145.4483 Y19.8395
G01 X145.4950 Y19.8964
G01 X145.4987 Y19.9014
G01 X145.5396 Y19.9626
G01 X145.5428 Y19.9680
G01 X145.5775 Y20.0329
G01 X145.5802 Y20.0385
G01 X145.6084 Y20.1065
G01 X145.6105 Y20.1124
G01 X145.6318 Y20.1828
G01 X145.6333 Y20.1889
G01 X145.6477 Y20.2611
G01 X145.6486 Y20.2672
G01 X145.6558 Y20.3405
G01 X145.6570 Y20.3835
G01 X145.6570 Y68.6435
G01 X145.6558 Y68.6865
G01 X145.6486 Y68.7598
G01 X145.6477 Y68.7659
G01 X145.6333 Y68.8381
G01 X145.6318 Y68.8442
G01 X145.6105 Y68.9146
G01 X145.6084 Y68.9205
G01 X145.5802 Y68.9885
G01 X145.5775 Y68.9941
G01 X145.5428 Y69.0590
G01 X145.5396 Y69.0644
G01 X145.4987 Y69.1256
G01 X145.4950 Y69.1306
G01 X145.4483 Y69.1875
G01 X145.4441 Y69.1921
G01 X145.3921 Y69.2441
G01 X145.3875 Y69.2483
G01 X145.3306 Y69.2950
G01 X145.3256 Y69.2987
G01 X145.2644 Y69.3396
G01 X145.2590 Y69.3428
G01 X145.1941 Y69.3775
G01 X145.1885 Y69.3802
G01 X145.1205 Y69.4084
G01 X145.1146 Y69.4105
G01 X145.0442 Y69.4318
G01 X145.0381 Y69.4333
G01 X144.9659 Y69.4477
G01 X144.9598 Y69.4486
G01 X144.8865 Y69.4558
G01 X144.8435 Y69.4570
G01 X73.7235 Y69.4570
G00 Z2.0000
M05
G00 Z2.0000
G00 Z15.00
G00 X0.0 Y0.0

